%
O01001
(Using high feed G1 F500. instead of G0.)
(T4 D=1.587 CR=0. - ZMIN=-35. - flat end mill)
(T11 D=7.938 CR=0. - ZMIN=-35. - flat end mill)
N10 G90 G94 G17
N15 G21
N20 G53 G0 Z0.

(Adaptive10)
N25 T11 M6
N30 S11999 M3
N35 G54
N40 M11
N45 G0 A0.
N50 M10
N55 M8
N60 G1 X42.549 Y30.002 F500.
N65 G0 G43 Z15. H11
N70 T4
N75 G0 Z5.
N80 Z0.454
N85 G1 Z-0.34 F3152.09
N90 X42.556 Y30. Z-0.444
N95 X42.575 Y29.994 Z-0.545
N100 X42.607 Y29.985 Z-0.644
N105 X42.651 Y29.971 Z-0.737
N110 X42.706 Y29.954 Z-0.823
N115 X42.772 Y29.935 Z-0.901
N120 X42.847 Y29.912 Z-0.97
N125 X42.929 Y29.887 Z-1.027
N130 X43.018 Y29.86 Z-1.073
N135 X43.112 Y29.831 Z-1.107
N140 X43.21 Y29.802 Z-1.127
N145 X43.309 Y29.771 Z-1.134
N150 G3 X47.598 Y28.96 I5.89 J19.389
N155 G1 X48.062 Y28.939 F3151.86
N160 X48.294 Y28.927
N165 X50.379 Y28.795
N170 X50.611 Y28.778
N175 X51.075 Y28.74
N180 X51.306 Y28.714
N185 X52.697 Y28.45
N190 X54.087 Y28.184
N195 X54.319 Y28.136
N200 X54.928 Y27.99
N205 X55.014 Y27.966
N210 X57.563 Y27.137
N215 X57.795 Y27.062
N220 X58.027 Y26.984
N225 X58.722 Y26.68
N230 X58.889 Y26.602
N235 X59.832 Y26.214
N240 X60.803 Y25.9
N245 X61.796 Y25.666
N250 X62.801 Y25.493
N255 X63.814 Y25.364
N260 X64.829 Y25.268
N265 X65.847 Y25.197
N270 X66.866 Y25.144
N275 X67.885 Y25.105
N280 X68.395 Y25.09
N285 X68.65 Y25.084
N290 X68.899 Y25.03
N295 X69.368 Y24.829
N300 X70.168 Y24.195
N305 X70.764 Y23.367
N310 X71.207 Y22.448
N315 X71.537 Y21.483
N320 X71.782 Y20.492
N325 X71.964 Y19.488
N330 X72.1 Y18.477
N335 X72.201 Y17.462
N340 X72.275 Y16.444
N345 X72.331 Y15.426
N350 X72.343 Y15.133
N355 X72.367 Y14.928
N360 X72.422 Y14.729
N365 X72.508 Y14.54
N370 X73.38 Y12.954
N375 X73.502 Y12.723
N380 X73.785 Y12.154
N385 X73.841 Y12.029
N390 X74.757 Y9.716
N395 X74.944 Y9.237
N400 X75.024 Y9.022
N405 X75.219 Y8.328
N410 X75.813 Y6.014
N415 X75.972 Y5.32
N420 X76.005 Y5.089
N425 X76.103 Y4.326
N430 X76.357 Y2.313
N435 X76.377 Y2.082
N440 X76.412 Y1.619
N445 X76.419 Y1.388
N450 Y-1.388
N455 X76.412 Y-1.619
N460 X76.377 Y-2.082
N465 X76.357 Y-2.313
N470 X76.065 Y-4.626
N475 X76.005 Y-5.089
N480 X75.972 Y-5.32
N485 X75.813 Y-6.014
N490 X75.219 Y-8.328
N495 X75.024 Y-9.022
N500 X74.938 Y-9.253
N505 X74.665 Y-9.947
N510 X73.933 Y-11.797
N515 X73.605 Y-12.764
N520 X73.318 Y-13.743
N525 X73.106 Y-14.741
N530 X72.948 Y-15.749
N535 X72.83 Y-16.762
N540 X72.743 Y-17.779
N545 X72.679 Y-18.797
N550 X72.63 Y-19.816
N555 X72.595 Y-20.836
N560 X72.588 Y-21.09
N565 X72.479 Y-21.589
N570 X71.947 Y-22.46
N575 X71.16 Y-23.109
N580 X70.262 Y-23.592
N585 X69.307 Y-23.951
N590 X68.322 Y-24.218
N595 X67.321 Y-24.417
N600 X66.312 Y-24.565
N605 X65.298 Y-24.674
N610 X64.281 Y-24.756
N615 X63.262 Y-24.816
N620 X62.658 Y-24.843
N625 X62.427 Y-24.874
N630 X62.205 Y-24.944
N635 X61.998 Y-25.051
N640 X61.733 Y-25.214
N645 X61.04 Y-25.59
N650 X58.889 Y-26.602
N655 X58.722 Y-26.68
N660 X58.027 Y-26.984
N665 X57.785 Y-27.065
N670 X56.868 Y-27.364
N675 X55.014 Y-27.966
N680 X54.928 Y-27.99
N685 X54.319 Y-28.136
N690 X54.087 Y-28.184
N695 X51.538 Y-28.67
N700 X51.306 Y-28.714
N705 X51.075 Y-28.74
N710 X50.611 Y-28.778
N715 X50.379 Y-28.795
N720 X48.525 Y-28.912
N725 G3 X47.813 Y-29.779 Z-0.934 I0.077 J-0.79 F3152.09
N730 X49.043 Y-30.363 I0.79 J0.077
N735 G1 X51.187 Y-28.935
N740 G2 X51.311 Y-29.987 I0.329 J-0.494
N745 G3 X48.304 Y-29.137 I-6.997 J-19.018
N750 X47.075 Y-28.929 Z-1.134 I-3.99 J-19.868
N755 G1 X46.903 Y-28.912 F3151.86
N760 X46.671 Y-28.873
N765 X46.208 Y-28.748
N770 X46.032 Y-28.684
N775 X45.745 Y-28.558
N780 X45.513 Y-28.43
N785 X45.281 Y-28.279
N790 X45.049 Y-28.114
N795 X44.896 Y-27.99
N800 X44.818 Y-27.921
N805 X44.661 Y-27.759
N810 X44.432 Y-27.526
N815 X44.06 Y-27.216
N820 X43.572 Y-26.884
N825 X42.928 Y-26.534
N830 X42.062 Y-26.168
N835 X41.088 Y-25.865
N840 X40.093 Y-25.64
N845 X39.086 Y-25.474
N850 X38.074 Y-25.35
N855 X37.057 Y-25.258
N860 X36.039 Y-25.189
N865 X35.021 Y-25.138
N870 X34.001 Y-25.101
N875 X32.981 Y-25.073
N880 X31.961 Y-25.052
N885 X30.941 Y-25.036
N890 X29.921 Y-25.025
N895 X28.901 Y-25.016
N900 X27.88 Y-25.01
N905 X26.86 Y-25.005
N910 X24.82 Y-24.999
N915 X21.759 Y-24.995
N920 X16.658 Y-24.992
N925 X-4.768
N930 X-55.78
N935 X-68.533
N940 X-68.786 Y-24.957
N945 X-69.269 Y-24.793
N950 X-70.094 Y-24.193
N955 X-70.709 Y-23.379
N960 X-71.166 Y-22.467
N965 X-71.506 Y-21.505
N970 X-71.759 Y-20.517
N975 X-71.948 Y-19.514
N980 X-72.087 Y-18.503
N985 X-72.191 Y-17.488
N990 X-72.268 Y-16.471
N995 X-72.326 Y-15.452
N1000 X-72.368 Y-14.433
N1005 X-72.4 Y-13.413
N1010 X-72.424 Y-12.393
N1015 X-72.441 Y-11.373
N1020 X-72.454 Y-10.353
N1025 X-72.464 Y-9.333
N1030 X-72.471 Y-8.313
N1035 X-72.476 Y-7.292
N1040 X-72.48 Y-6.272
N1045 X-72.485 Y-4.232
N1050 X-72.489 Y-1.171
N1055 X-72.491 Y4.951
N1060 Y11.072
N1065 X-72.492 Y21.019
N1070 X-72.463 Y21.273
N1075 X-72.312 Y21.76
N1080 X-71.715 Y22.588
N1085 X-70.902 Y23.204
N1090 X-69.991 Y23.663
N1095 X-69.029 Y24.004
N1100 X-68.041 Y24.257
N1105 X-67.039 Y24.446
N1110 X-66.028 Y24.586
N1115 X-65.013 Y24.69
N1120 X-63.996 Y24.768
N1125 X-62.977 Y24.825
N1130 X-61.958 Y24.868
N1135 X-60.938 Y24.9
N1140 X-59.918 Y24.923
N1145 X-58.898 Y24.941
N1150 X-57.878 Y24.954
N1155 X-56.858 Y24.964
N1160 X-55.837 Y24.971
N1165 X-54.817 Y24.976
N1170 X-53.797 Y24.98
N1175 X-51.756 Y24.985
N1180 X-48.696 Y24.989
N1185 X-42.574 Y24.991
N1190 X-33.392 Y24.992
N1195 X17.62
N1200 X42.367
N1205 X42.664 Y25.025
N1210 X42.946 Y25.123
N1215 X43.199 Y25.28
N1220 X43.412 Y25.49
N1225 X43.572 Y25.741
N1230 X43.674 Y26.022
N1235 G3 X43.455 Y26.743 I-0.778 J0.158 F3152.09
N1240 G1 X43.382 Y26.816 Z-1.127
N1245 X43.309 Y26.888 Z-1.107
N1250 X43.24 Y26.957 Z-1.073
N1255 X43.174 Y27.023 Z-1.027
N1260 X43.112 Y27.084 Z-0.97
N1265 X43.057 Y27.139 Z-0.901
N1270 X43.008 Y27.187 Z-0.823
N1275 X42.967 Y27.228 Z-0.737
N1280 X42.935 Y27.26 Z-0.644
N1285 X42.911 Y27.283 Z-0.545
N1290 X42.897 Y27.298 Z-0.444
N1295 X42.892 Y27.303 Z-0.34
N1300 G0 Z5.
N1305 G1 X57.857 Y27.781 F500.
N1310 G0 Z0.454
N1315 G1 Z-0.34 F3152.09
N1320 X57.86 Y27.775 Z-0.444
N1325 X57.872 Y27.758 Z-0.545
N1330 X57.89 Y27.731 Z-0.644
N1335 X57.916 Y27.693 Z-0.737
N1340 X57.948 Y27.645 Z-0.823
N1345 X57.987 Y27.588 Z-0.901
N1350 X58.03 Y27.524 Z-0.97
N1355 X58.079 Y27.452 Z-1.027
N1360 X58.131 Y27.375 Z-1.073
N1365 X58.186 Y27.293 Z-1.107
N1370 X58.243 Y27.209 Z-1.127
N1375 X58.301 Y27.123 Z-1.134
N1380 G3 X58.889 Y26.602 I1.311 J0.886
N1385 G1 X61.04 Y25.59 F3151.86
N1390 X61.735 Y25.213
N1395 X61.966 Y25.071
N1400 X64.052 Y23.747
N1405 X64.516 Y23.442
N1410 X64.62 Y23.364
N1415 X64.747 Y23.263
N1420 X64.979 Y23.073
N1425 X67.065 Y21.347
N1430 X67.142 Y21.282
N1435 X67.297 Y21.147
N1440 X67.839 Y20.588
N1445 X69.382 Y18.944
N1450 X69.614 Y18.693
N1455 X69.786 Y18.506
N1460 X69.964 Y18.275
N1465 X70.077 Y18.125
N1470 X71.7 Y15.893
N1475 X71.805 Y15.73
N1480 X72.163 Y15.161
N1485 X72.235 Y15.036
N1490 X72.508 Y14.54
N1495 X72.881 Y13.861 Z-1.009 F3152.09
N1500 X73.108 Y13.448 Z-0.934 F3151.86
N1505 X73.38 Y12.954
N1510 X73.502 Y12.723
N1515 X73.785 Y12.154
N1520 X73.841 Y12.029
N1525 X74.712 Y9.828
N1530 X74.944 Y9.237
N1535 X75.024 Y9.022
N1540 X75.219 Y8.328
N1545 X75.754 Y6.246
N1550 X75.813 Y6.014
N1555 X75.972 Y5.32
N1560 X76.005 Y5.089
N1565 X76.065 Y4.626
N1570 X76.357 Y2.313
N1575 X76.377 Y2.082
N1580 X76.412 Y1.619
N1585 X76.419 Y1.388
N1590 Y-1.388
N1595 X76.412 Y-1.619
N1600 X76.377 Y-2.082
N1605 X76.357 Y-2.313
N1610 X76.065 Y-4.626
N1615 X76.005 Y-5.089
N1620 X75.972 Y-5.32
N1625 X75.813 Y-6.014
N1630 X75.754 Y-6.246
N1635 X75.219 Y-8.328
N1640 X75.024 Y-9.022
N1645 X74.944 Y-9.237
N1650 X74.712 Y-9.828
N1655 X74.391 Y-10.639
N1660 X74.218 Y-11.076 Z-1.009
N1665 X73.933 Y-11.797 Z-1.134 F3152.09
N1670 X73.841 Y-12.029 F3151.86
N1675 X73.785 Y-12.154
N1680 X73.502 Y-12.723
N1685 X73.38 Y-12.954
N1690 X72.235 Y-15.036
N1695 X72.163 Y-15.161
N1700 X71.805 Y-15.73
N1705 X71.7 Y-15.893
N1710 X70.077 Y-18.125
N1715 X69.846 Y-18.428
N1720 X69.786 Y-18.506
N1725 X69.574 Y-18.737
N1730 X69.359 Y-18.968
N1735 X67.839 Y-20.588
N1740 X67.297 Y-21.147
N1745 X67.142 Y-21.282
N1750 X67.065 Y-21.347
N1755 X64.907 Y-23.132
N1760 X64.747 Y-23.263
N1765 X64.62 Y-23.364
N1770 X64.516 Y-23.442
N1775 X64.052 Y-23.747
N1780 X61.998 Y-25.051
N1785 G0 Z5.
N1790 G1 X45.147 Y-29.248 F500.
N1795 G0 Z0.454
N1800 G1 Z-0.34 F3152.09
N1805 X45.146 Y-29.242 Z-0.444
N1810 X45.142 Y-29.222 Z-0.545
N1815 X45.135 Y-29.189 Z-0.644
N1820 X45.127 Y-29.144 Z-0.737
N1825 X45.116 Y-29.087 Z-0.823
N1830 X45.103 Y-29.02 Z-0.901
N1835 X45.088 Y-28.943 Z-0.97
N1840 X45.072 Y-28.859 Z-1.027
N1845 X45.054 Y-28.767 Z-1.073
N1850 X45.035 Y-28.671 Z-1.107
N1855 X45.016 Y-28.571 Z-1.127
N1860 X44.996 Y-28.469 Z-1.134
N1865 G3 X44.661 Y-27.759 I-1.554 J-0.3
N1870 G1 X44.354 Y-27.414 F3151.86
N1875 X44.271 Y-27.296
N1880 X44.116 Y-27.065
N1885 X43.984 Y-26.833
N1890 X43.891 Y-26.641
N1895 X43.777 Y-26.371
N1900 X43.702 Y-26.139
N1905 X43.659 Y-25.96
N1910 X43.624 Y-25.814
N1915 X43.525 Y-25.546
N1920 X43.382 Y-25.251
N1925 X43.177 Y-24.917
N1930 X42.918 Y-24.575
N1935 X42.566 Y-24.196
N1940 X42.13 Y-23.809
N1945 X41.563 Y-23.399
N1950 X40.835 Y-22.974
N1955 X39.908 Y-22.549
N1960 X38.944 Y-22.215
N1965 X37.958 Y-21.955
N1970 X36.958 Y-21.751
N1975 X35.95 Y-21.593
N1980 X34.937 Y-21.47
N1985 X33.921 Y-21.374
N1990 X32.904 Y-21.301
N1995 X31.885 Y-21.244
N2000 X30.866 Y-21.2
N2005 X29.846 Y-21.166
N2010 X28.826 Y-21.14
N2015 X27.806 Y-21.12
N2020 X26.786 Y-21.104
N2025 X25.766 Y-21.092
N2030 X24.746 Y-21.083
N2035 X23.725 Y-21.076
N2040 X22.705 Y-21.071
N2045 X20.665 Y-21.064
N2050 X18.624 Y-21.06
N2055 X15.563 Y-21.057
N2060 X8.422 Y-21.054
N2065 X-4.841
N2070 X-55.854
N2075 X-64.016
N2080 X-64.506 Y-20.911
N2085 X-65.408 Y-20.435
N2090 X-66.129 Y-19.713
N2095 X-66.692 Y-18.862
N2100 X-67.129 Y-17.94
N2105 X-67.464 Y-16.977
N2110 X-67.722 Y-15.99
N2115 X-67.92 Y-14.989
N2120 X-68.071 Y-13.98
N2125 X-68.186 Y-12.966
N2130 X-68.274 Y-11.95
N2135 X-68.341 Y-10.932
N2140 X-68.392 Y-9.913
N2145 X-68.431 Y-8.893
N2150 X-68.461 Y-7.873
N2155 X-68.483 Y-6.853
N2160 X-68.5 Y-5.833
N2165 X-68.513 Y-4.813
N2170 X-68.523 Y-3.793
N2175 X-68.531 Y-2.773
N2180 X-68.536 Y-1.752
N2185 X-68.541 Y-0.732
N2190 X-68.546 Y1.308
N2195 X-68.551 Y4.369
N2200 X-68.553 Y9.47
N2205 X-68.554 Y16.612
N2210 X-68.391 Y17.095
N2215 X-67.886 Y17.982
N2220 X-67.148 Y18.687
N2225 X-66.29 Y19.238
N2230 X-65.362 Y19.664
N2235 X-64.396 Y19.991
N2240 X-63.407 Y20.243
N2245 X-62.406 Y20.435
N2250 X-61.396 Y20.583
N2255 X-60.382 Y20.695
N2260 X-59.365 Y20.781
N2265 X-58.347 Y20.846
N2270 X-57.328 Y20.896
N2275 X-56.309 Y20.934
N2280 X-55.289 Y20.963
N2285 X-54.269 Y20.985
N2290 X-53.249 Y21.002
N2295 X-52.228 Y21.014
N2300 X-51.208 Y21.024
N2305 X-50.188 Y21.031
N2310 X-49.168 Y21.037
N2315 X-48.148 Y21.041
N2320 X-46.107 Y21.047
N2325 X-43.046 Y21.051
N2330 X-37.945 Y21.053
N2335 X-15.5 Y21.054
N2340 X35.513
N2345 X38.573
N2350 X39.594 Y21.055
N2355 X40.613 Y21.09
N2360 X41.522 Y21.191
N2365 X42.26 Y21.348
N2370 X42.594 Y21.454
N2375 X42.853 Y21.567
N2380 X43.082 Y21.732
N2385 X43.272 Y21.941
N2390 X43.414 Y22.185
N2395 X43.502 Y22.454
N2400 X43.531 Y22.734
N2405 Y24.52
N2410 X43.534 Y24.752
N2415 X43.54 Y24.983
N2420 G3 X43.178 Y25.644 I-0.794 J-0.005 F3152.09
N2425 G1 X43.091 Y25.7 Z-1.127
N2430 X43.005 Y25.756 Z-1.107
N2435 X42.923 Y25.809 Z-1.073
N2440 X42.845 Y25.86 Z-1.027
N2445 X42.772 Y25.907 Z-0.97
N2450 X42.707 Y25.949 Z-0.901
N2455 X42.649 Y25.986 Z-0.823
N2460 X42.601 Y26.018 Z-0.737
N2465 X42.562 Y26.042 Z-0.644
N2470 X42.534 Y26.061 Z-0.545
N2475 X42.517 Y26.072 Z-0.444
N2480 X42.512 Y26.075 Z-0.34
N2485 G0 Z5.
N2490 G1 X43.305 Y-27.486 F500.
N2495 G0 Z0.454
N2500 G1 Z-0.34 F3152.09
N2505 X43.307 Y-27.479 Z-0.444
N2510 X43.314 Y-27.46 Z-0.545
N2515 X43.326 Y-27.429 Z-0.644
N2520 X43.342 Y-27.386 Z-0.737
N2525 X43.362 Y-27.332 Z-0.823
N2530 X43.385 Y-27.268 Z-0.901
N2535 X43.412 Y-27.194 Z-0.97
N2540 X43.442 Y-27.113 Z-1.027
N2545 X43.474 Y-27.026 Z-1.073
N2550 X43.508 Y-26.934 Z-1.107
N2555 X43.543 Y-26.838 Z-1.127
N2560 X43.579 Y-26.741 Z-1.134
N2565 G3 X43.659 Y-25.96 I-1.485 J0.546
N2570 G1 X43.563 Y-25.446 F3151.86
N2575 X43.547 Y-25.214
N2580 X43.534 Y-24.752
N2585 X43.531 Y-24.52
N2590 Y-23.826
N2595 X43.517 Y-23.549
N2600 X43.471 Y-23.242
N2605 X43.391 Y-22.922
N2610 X43.256 Y-22.547
N2615 X43.072 Y-22.16
N2620 X42.822 Y-21.746
N2625 X42.491 Y-21.302
N2630 X42.073 Y-20.843
N2635 X41.544 Y-20.366
N2640 X40.869 Y-19.87
N2645 X40.022 Y-19.366
N2650 X39.098 Y-18.933
N2655 X38.141 Y-18.579
N2660 X37.162 Y-18.291
N2665 X36.169 Y-18.057
N2670 X35.166 Y-17.868
N2675 X34.158 Y-17.715
N2680 X33.145 Y-17.593
N2685 X32.129 Y-17.494
N2690 X31.112 Y-17.416
N2695 X30.094 Y-17.353
N2700 X29.075 Y-17.303
N2705 X28.055 Y-17.263
N2710 X27.035 Y-17.232
N2715 X26.015 Y-17.207
N2720 X24.995 Y-17.188
N2725 X23.975 Y-17.172
N2730 X22.955 Y-17.16
N2735 X21.935 Y-17.15
N2740 X20.915 Y-17.143
N2745 X19.894 Y-17.137
N2750 X18.874 Y-17.133
N2755 X16.834 Y-17.126
N2760 X13.773 Y-17.121
N2765 X9.692 Y-17.118
N2770 X-1.531 Y-17.117
N2775 X-4.591
N2780 X-55.604
N2785 X-59.685
N2790 X-60.181 Y-17.
N2795 X-61.112 Y-16.582
N2800 X-61.876 Y-15.906
N2805 X-62.486 Y-15.088
N2810 X-62.965 Y-14.187
N2815 X-63.339 Y-13.238
N2820 X-63.629 Y-12.26
N2825 X-63.855 Y-11.265
N2830 X-64.029 Y-10.259
N2835 X-64.164 Y-9.248
N2840 X-64.268 Y-8.233
N2845 X-64.348 Y-7.216
N2850 X-64.41 Y-6.198
N2855 X-64.458 Y-5.179
N2860 X-64.495 Y-4.159
N2865 X-64.523 Y-3.139
N2870 X-64.545 Y-2.119
N2875 X-64.562 Y-1.099
N2880 X-64.574 Y-0.079
N2885 X-64.584 Y0.941
N2890 X-64.592 Y1.962
N2895 X-64.598 Y2.982
N2900 X-64.602 Y4.002
N2905 X-64.608 Y6.043
N2910 X-64.613 Y9.103
N2915 X-64.615 Y12.164
N2920 X-64.504 Y12.662
N2925 X-64.093 Y13.596
N2930 X-63.421 Y14.364
N2935 X-62.605 Y14.976
N2940 X-61.706 Y15.457
N2945 X-60.757 Y15.833
N2950 X-59.779 Y16.125
N2955 X-58.785 Y16.351
N2960 X-57.78 Y16.527
N2965 X-56.768 Y16.662
N2970 X-55.753 Y16.767
N2975 X-54.736 Y16.847
N2980 X-53.718 Y16.91
N2985 X-52.699 Y16.958
N2990 X-51.679 Y16.994
N2995 X-50.66 Y17.023
N3000 X-49.64 Y17.045
N3005 X-48.619 Y17.061
N3010 X-47.599 Y17.074
N3015 X-46.579 Y17.084
N3020 X-45.559 Y17.092
N3025 X-44.539 Y17.098
N3030 X-43.518 Y17.102
N3035 X-41.478 Y17.108
N3040 X-38.417 Y17.113
N3045 X-33.316 Y17.116
N3050 X-12.911 Y17.117
N3055 X0.352
N3060 X36.061
N3065 X37.081 Y17.12
N3070 X38.101 Y17.135
N3075 X39.121 Y17.175
N3080 X40.138 Y17.257
N3085 X41.148 Y17.397
N3090 X41.999 Y17.59
N3095 X42.695 Y17.822
N3100 X42.822 Y17.879
N3105 X43.083 Y18.033
N3110 X43.303 Y18.241
N3115 X43.47 Y18.493
N3120 X43.577 Y18.776
N3125 X43.617 Y19.076
N3130 X43.59 Y19.378
N3135 X43.579 Y19.431
N3140 X43.544 Y19.894
N3145 X43.531 Y20.125
N3150 Y22.734
N3155 G3 X43.15 Y23.385 I-0.793 J-0.028 F3152.09
N3160 G1 X43.062 Y23.439 Z-1.127
N3165 X42.975 Y23.492 Z-1.107
N3170 X42.891 Y23.543 Z-1.073
N3175 X42.811 Y23.591 Z-1.027
N3180 X42.738 Y23.636 Z-0.97
N3185 X42.671 Y23.677 Z-0.901
N3190 X42.612 Y23.712 Z-0.823
N3195 X42.563 Y23.742 Z-0.737
N3200 X42.524 Y23.766 Z-0.644
N3205 X42.495 Y23.783 Z-0.545
N3210 X42.478 Y23.794 Z-0.444
N3215 X42.472 Y23.797 Z-0.34
N3220 G0 Z5.
N3225 G1 X42.904 Y-25.262 F500.
N3230 G0 Z0.454
N3235 G1 Z-0.34 F3152.09
N3240 X42.908 Y-25.256 Z-0.444
N3245 X42.918 Y-25.239 Z-0.545
N3250 X42.935 Y-25.21 Z-0.644
N3255 X42.959 Y-25.171 Z-0.737
N3260 X42.988 Y-25.121 Z-0.823
N3265 X43.023 Y-25.062 Z-0.901
N3270 X43.063 Y-24.995 Z-0.97
N3275 X43.107 Y-24.921 Z-1.027
N3280 X43.155 Y-24.841 Z-1.073
N3285 X43.205 Y-24.756 Z-1.107
N3290 X43.257 Y-24.669 Z-1.127
N3295 X43.31 Y-24.58 Z-1.134
N3300 G3 X43.531 Y-23.826 I-1.36 J0.809
N3305 G1 Y-20.819 F3151.86
N3310 X43.511 Y-20.423
N3315 X43.462 Y-20.091
N3320 X43.363 Y-19.699
N3325 X43.217 Y-19.292
N3330 X43.006 Y-18.85
N3335 X42.719 Y-18.373
N3340 X42.35 Y-17.878
N3345 X41.877 Y-17.359
N3350 X41.268 Y-16.811
N3355 X40.519 Y-16.259
N3360 X39.642 Y-15.738
N3365 X38.722 Y-15.298
N3370 X37.77 Y-14.929
N3375 X36.798 Y-14.62
N3380 X35.811 Y-14.363
N3385 X34.813 Y-14.149
N3390 X33.809 Y-13.971
N3395 X32.799 Y-13.824
N3400 X31.786 Y-13.703
N3405 X30.771 Y-13.604
N3410 X29.754 Y-13.523
N3415 X28.736 Y-13.456
N3420 X27.717 Y-13.402
N3425 X26.697 Y-13.359
N3430 X25.678 Y-13.323
N3435 X24.658 Y-13.294
N3440 X23.638 Y-13.271
N3445 X22.618 Y-13.252
N3450 X21.598 Y-13.237
N3455 X20.578 Y-13.226
N3460 X19.557 Y-13.216
N3465 X18.537 Y-13.208
N3470 X17.517 Y-13.202
N3475 X15.476 Y-13.193
N3480 X13.436 Y-13.188
N3485 X10.375 Y-13.183
N3490 X5.274 Y-13.18
N3495 X-3.908 Y-13.179
N3500 X-54.921
N3505 X-55.431
N3510 X-55.935 Y-13.1
N3515 X-56.893 Y-12.751
N3520 X-57.696 Y-12.121
N3525 X-58.343 Y-11.333
N3530 X-58.857 Y-10.451
N3535 X-59.26 Y-9.514
N3540 X-59.576 Y-8.544
N3545 X-59.823 Y-7.554
N3550 X-60.015 Y-6.552
N3555 X-60.164 Y-5.543
N3560 X-60.28 Y-4.529
N3565 X-60.37 Y-3.513
N3570 X-60.44 Y-2.495
N3575 X-60.494 Y-1.476
N3580 X-60.536 Y-0.457
N3585 X-60.568 Y0.563
N3590 X-60.594 Y1.583
N3595 X-60.613 Y2.603
N3600 X-60.628 Y3.623
N3605 X-60.64 Y4.643
N3610 X-60.649 Y5.664
N3615 X-60.656 Y6.684
N3620 X-60.661 Y7.704
N3625 X-60.629 Y8.213
N3630 X-60.363 Y9.198
N3635 X-59.782 Y10.037
N3640 X-59.021 Y10.716
N3645 X-58.155 Y11.255
N3650 X-57.228 Y11.681
N3655 X-56.263 Y12.014
N3660 X-55.277 Y12.275
N3665 X-54.277 Y12.477
N3670 X-53.269 Y12.635
N3675 X-52.256 Y12.757
N3680 X-51.24 Y12.853
N3685 X-50.223 Y12.926
N3690 X-49.204 Y12.984
N3695 X-48.185 Y13.028
N3700 X-47.165 Y13.062
N3705 X-46.145 Y13.089
N3710 X-45.125 Y13.109
N3715 X-44.105 Y13.125
N3720 X-43.085 Y13.138
N3725 X-42.065 Y13.147
N3730 X-41.045 Y13.154
N3735 X-40.024 Y13.16
N3740 X-37.984 Y13.168
N3745 X-35.943 Y13.172
N3750 X-32.883 Y13.176
N3755 X-26.761 Y13.178
N3760 X15.069 Y13.179
N3765 X33.433
N3770 X34.454 Y13.181
N3775 X35.474 Y13.188
N3780 X36.494 Y13.204
N3785 X37.514 Y13.237
N3790 X38.532 Y13.296
N3795 X39.548 Y13.39
N3800 X40.559 Y13.53
N3805 X41.56 Y13.726
N3810 X42.381 Y13.964
N3815 X43.062 Y14.235
N3820 X43.656 Y14.543
N3825 X44.151 Y14.865
N3830 X44.602 Y15.226
N3835 X44.674 Y15.296
N3840 X44.865 Y15.53
N3845 X44.999 Y15.8
N3850 X45.069 Y16.094
N3855 X45.072 Y16.396
N3860 X45.008 Y16.69
N3865 X44.879 Y16.963
N3870 X44.693 Y17.201
N3875 G3 X43.965 Y17.397 I-0.546 J-0.576 F3152.09
N3880 G1 X43.864 Y17.373 Z-1.127
N3885 X43.765 Y17.35 Z-1.107
N3890 X43.67 Y17.327 Z-1.073
N3895 X43.579 Y17.306 Z-1.027
N3900 X43.495 Y17.286 Z-0.97
N3905 X43.419 Y17.268 Z-0.901
N3910 X43.352 Y17.252 Z-0.823
N3915 X43.296 Y17.239 Z-0.737
N3920 X43.251 Y17.229 Z-0.644
N3925 X43.219 Y17.221 Z-0.545
N3930 X43.199 Y17.216 Z-0.444
N3935 X43.193 Y17.215 Z-0.34
N3940 G0 Z5.
N3945 G1 X42.904 Y-22.255 F500.
N3950 G0 Z0.454
N3955 G1 Z-0.34 F3152.09
N3960 X42.908 Y-22.249 Z-0.444
N3965 X42.918 Y-22.232 Z-0.545
N3970 X42.935 Y-22.203 Z-0.644
N3975 X42.959 Y-22.163 Z-0.737
N3980 X42.988 Y-22.114 Z-0.823
N3985 X43.023 Y-22.055 Z-0.901
N3990 X43.063 Y-21.988 Z-0.97
N3995 X43.107 Y-21.914 Z-1.027
N4000 X43.155 Y-21.834 Z-1.073
N4005 X43.205 Y-21.749 Z-1.107
N4010 X43.257 Y-21.662 Z-1.127
N4015 X43.31 Y-21.573 Z-1.134
N4020 G3 X43.531 Y-20.819 I-1.36 J0.809
N4025 G1 Y-20.125 F3151.86
N4030 X43.544 Y-19.894
N4035 X43.579 Y-19.431
N4040 X43.627 Y-19.2
N4045 X43.743 Y-18.737
N4050 X43.79 Y-18.61
N4055 X43.846 Y-18.43
N4060 X43.897 Y-18.185
N4065 X43.928 Y-17.887
N4070 X43.931 Y-17.554
N4075 X43.898 Y-17.193
N4080 X43.816 Y-16.769
N4085 X43.689 Y-16.342
N4090 X43.489 Y-15.849
N4095 X43.225 Y-15.348
N4100 X42.859 Y-14.794
N4105 X42.408 Y-14.239
N4110 X41.818 Y-13.642
N4115 X41.073 Y-13.026
N4120 X40.227 Y-12.455
N4125 X39.334 Y-11.962
N4130 X38.406 Y-11.539
N4135 X37.452 Y-11.177
N4140 X36.48 Y-10.867
N4145 X35.495 Y-10.603
N4150 X34.499 Y-10.379
N4155 X33.497 Y-10.189
N4160 X32.489 Y-10.029
N4165 X31.478 Y-9.894
N4170 X30.464 Y-9.78
N4175 X29.448 Y-9.686
N4180 X28.431 Y-9.607
N4185 X27.413 Y-9.541
N4190 X26.394 Y-9.487
N4195 X25.375 Y-9.442
N4200 X24.355 Y-9.405
N4205 X23.335 Y-9.374
N4210 X22.315 Y-9.349
N4215 X21.295 Y-9.329
N4220 X20.275 Y-9.312
N4225 X19.255 Y-9.298
N4230 X18.235 Y-9.287
N4235 X17.215 Y-9.278
N4240 X16.195 Y-9.271
N4245 X15.174 Y-9.265
N4250 X13.134 Y-9.257
N4255 X11.093 Y-9.251
N4260 X8.033 Y-9.246
N4265 X2.931 Y-9.243
N4270 X-2.17 Y-9.242
N4275 X-51.142
N4280 X-51.651 Y-9.216
N4285 X-52.641 Y-8.969
N4290 X-53.492 Y-8.405
N4295 X-54.184 Y-7.656
N4300 X-54.738 Y-6.799
N4305 X-55.176 Y-5.878
N4310 X-55.52 Y-4.917
N4315 X-55.789 Y-3.933
N4320 X-56. Y-2.935
N4325 X-56.165 Y-1.928
N4330 X-56.293 Y-0.916
N4335 X-56.393 Y0.099
N4340 X-56.47 Y1.117
N4345 X-56.531 Y2.135
N4350 X-56.578 Y3.154
N4355 X-56.615 Y4.174
N4360 X-56.495 Y4.67
N4365 X-56.08 Y5.602
N4370 X-55.414 Y6.374
N4375 X-54.604 Y6.994
N4380 X-53.71 Y7.486
N4385 X-52.766 Y7.873
N4390 X-51.791 Y8.176
N4395 X-50.799 Y8.412
N4400 X-49.795 Y8.597
N4405 X-48.785 Y8.741
N4410 X-47.771 Y8.852
N4415 X-46.755 Y8.939
N4420 X-45.737 Y9.007
N4425 X-44.718 Y9.06
N4430 X-43.698 Y9.1
N4435 X-42.679 Y9.132
N4440 X-41.659 Y9.157
N4445 X-40.639 Y9.176
N4450 X-39.619 Y9.191
N4455 X-38.598 Y9.202
N4460 X-37.578 Y9.211
N4465 X-36.558 Y9.218
N4470 X-35.538 Y9.223
N4475 X-33.497 Y9.231
N4480 X-31.457 Y9.235
N4485 X-28.396 Y9.239
N4490 X-22.275 Y9.241
N4495 X28.738 Y9.242
N4500 X30.778
N4505 X31.799 Y9.243
N4510 X32.819 Y9.246
N4515 X33.839 Y9.253
N4520 X34.859 Y9.268
N4525 X35.879 Y9.294
N4530 X36.898 Y9.337
N4535 X37.916 Y9.404
N4540 X38.932 Y9.499
N4545 X39.944 Y9.629
N4550 X40.949 Y9.805
N4555 X41.943 Y10.037
N4560 X42.918 Y10.336
N4565 X43.868 Y10.709
N4570 X44.698 Y11.121
N4575 X45.339 Y11.523
N4580 X45.888 Y11.947
N4585 X46.338 Y12.371
N4590 X46.713 Y12.803
N4595 X47.034 Y13.254
N4600 X47.286 Y13.695
N4605 X47.495 Y14.162
N4610 X47.576 Y14.403
N4615 X47.64 Y14.715
N4620 X47.629 Y15.033
N4625 X47.544 Y15.34
N4630 X47.389 Y15.618
N4635 X47.173 Y15.852
N4640 X46.907 Y16.028
N4645 X46.608 Y16.137
N4650 G3 X45.888 Y15.915 I-0.154 J-0.779 F3152.09
N4655 G1 X45.815 Y15.841 Z-1.127
N4660 X45.744 Y15.768 Z-1.107
N4665 X45.675 Y15.698 Z-1.073
N4670 X45.61 Y15.632 Z-1.027
N4675 X45.549 Y15.57 Z-0.97
N4680 X45.494 Y15.515 Z-0.901
N4685 X45.446 Y15.466 Z-0.823
N4690 X45.406 Y15.425 Z-0.737
N4695 X45.374 Y15.392 Z-0.644
N4700 X45.35 Y15.368 Z-0.545
N4705 X45.336 Y15.354 Z-0.444
N4710 X45.331 Y15.349 Z-0.34
N4715 G0 Z5.
N4720 G1 X42.706 Y-19.741 F500.
N4725 G0 Z0.454
N4730 G1 Z-0.34 F3152.09
N4735 X42.711 Y-19.737 Z-0.444
N4740 X42.727 Y-19.724 Z-0.545
N4745 X42.753 Y-19.703 Z-0.644
N4750 X42.788 Y-19.674 Z-0.737
N4755 X42.833 Y-19.638 Z-0.823
N4760 X42.886 Y-19.595 Z-0.901
N4765 X42.947 Y-19.545 Z-0.97
N4770 X43.014 Y-19.491 Z-1.027
N4775 X43.086 Y-19.432 Z-1.073
N4780 X43.163 Y-19.37 Z-1.107
N4785 X43.242 Y-19.306 Z-1.127
N4790 X43.322 Y-19.241 Z-1.134
N4795 G3 X43.79 Y-18.61 I-0.997 J1.229
N4800 G1 X43.828 Y-18.506 F3151.86
N4805 X43.891 Y-18.353
N4810 X44.049 Y-18.043
N4815 X44.122 Y-17.923
N4820 X44.195 Y-17.812
N4825 X44.354 Y-17.588
N4830 X44.548 Y-17.349
N4835 X44.586 Y-17.31
N4840 X44.686 Y-17.198
N4845 X44.81 Y-17.019
N4850 X44.932 Y-16.801
N4855 X45.039 Y-16.554
N4860 X45.137 Y-16.254
N4865 X45.207 Y-15.931
N4870 X45.252 Y-15.545
N4875 X45.259 Y-15.142
N4880 X45.22 Y-14.668
N4885 X45.132 Y-14.183
N4890 X44.972 Y-13.621
N4895 X44.749 Y-13.057
N4900 X44.421 Y-12.419
N4905 X44.015 Y-11.789
N4910 X43.474 Y-11.109
N4915 X42.789 Y-10.403
N4920 X42.01 Y-9.744
N4925 X41.176 Y-9.157
N4930 X40.297 Y-8.639
N4935 X39.385 Y-8.182
N4940 X38.447 Y-7.781
N4945 X37.489 Y-7.429
N4950 X36.516 Y-7.122
N4955 X35.531 Y-6.855
N4960 X34.538 Y-6.623
N4965 X33.538 Y-6.422
N4970 X32.532 Y-6.249
N4975 X31.523 Y-6.101
N4980 X30.51 Y-5.974
N4985 X29.496 Y-5.866
N4990 X28.48 Y-5.774
N4995 X27.462 Y-5.696
N5000 X26.444 Y-5.63
N5005 X25.426 Y-5.575
N5010 X24.406 Y-5.528
N5015 X23.387 Y-5.489
N5020 X22.367 Y-5.457
N5025 X21.347 Y-5.43
N5030 X20.327 Y-5.407
N5035 X19.307 Y-5.389
N5040 X18.287 Y-5.373
N5045 X17.267 Y-5.36
N5050 X16.247 Y-5.35
N5055 X15.227 Y-5.341
N5060 X14.206 Y-5.334
N5065 X13.186 Y-5.329
N5070 X11.146 Y-5.32
N5075 X9.105 Y-5.315
N5080 X6.044 Y-5.309
N5085 X0.943 Y-5.306
N5090 X-10.28 Y-5.304
N5095 X-47.519
N5100 X-48.02 Y-5.211
N5105 X-48.973 Y-4.847
N5110 X-49.773 Y-4.213
N5115 X-50.42 Y-3.425
N5120 X-50.935 Y-2.544
N5125 X-51.342 Y-1.608
N5130 X-51.662 Y-0.64
N5135 X-51.788 Y-0.145
N5140 X-51.84 Y0.362
N5145 X-51.742 Y0.863
N5150 X-51.336 Y1.799
N5155 X-50.659 Y2.562
N5160 X-49.838 Y3.168
N5165 X-48.936 Y3.644
N5170 X-47.986 Y4.015
N5175 X-47.007 Y4.304
N5180 X-46.012 Y4.529
N5185 X-45.007 Y4.703
N5190 X-43.995 Y4.838
N5195 X-42.981 Y4.943
N5200 X-41.964 Y5.025
N5205 X-40.945 Y5.088
N5210 X-39.926 Y5.136
N5215 X-38.907 Y5.174
N5220 X-37.887 Y5.204
N5225 X-36.867 Y5.226
N5230 X-35.847 Y5.244
N5235 X-34.827 Y5.257
N5240 X-33.806 Y5.268
N5245 X-32.786 Y5.276
N5250 X-31.766 Y5.282
N5255 X-30.746 Y5.287
N5260 X-28.705 Y5.294
N5265 X-25.645 Y5.299
N5270 X-21.564 Y5.302
N5275 X-11.361 Y5.304
N5280 X-8.3
N5285 X28.429
N5290 X29.449 Y5.305
N5295 X30.469 Y5.307
N5300 X31.489 Y5.311
N5305 X32.509 Y5.32
N5310 X33.53 Y5.335
N5315 X34.55 Y5.359
N5320 X35.569 Y5.397
N5325 X36.588 Y5.451
N5330 X37.606 Y5.525
N5335 X38.621 Y5.624
N5340 X39.633 Y5.756
N5345 X40.639 Y5.924
N5350 X41.638 Y6.133
N5355 X42.626 Y6.386
N5360 X43.599 Y6.692
N5365 X44.552 Y7.056
N5370 X45.478 Y7.484
N5375 X46.37 Y7.981
N5380 X47.216 Y8.55
N5385 X48.009 Y9.192
N5390 X48.7 Y9.875
N5395 X49.257 Y10.545
N5400 X49.691 Y11.186
N5405 X50.012 Y11.779
N5410 X50.246 Y12.336
N5415 X50.419 Y12.897
N5420 X50.525 Y13.414
N5425 X50.579 Y13.944
N5430 X50.581 Y14.427
N5435 X50.558 Y14.676
N5440 X50.494 Y14.978
N5445 X50.362 Y15.258
N5450 X50.17 Y15.5
N5455 X49.927 Y15.692
N5460 X49.647 Y15.824
N5465 X49.345 Y15.888
N5470 X48.989 Y15.92
N5475 X47.598 Y16.015
N5480 X47.367 Y16.036
N5485 X46.903 Y16.087
N5490 X46.671 Y16.122
N5495 X46.608 Y16.137
N5500 G3 X45.888 Y15.915 I-0.154 J-0.779 F3152.09
N5505 G1 X45.815 Y15.841 Z-1.127
N5510 X45.744 Y15.768 Z-1.107
N5515 X45.675 Y15.698 Z-1.073
N5520 X45.61 Y15.632 Z-1.027
N5525 X45.549 Y15.57 Z-0.97
N5530 X45.494 Y15.515 Z-0.901
N5535 X45.446 Y15.466 Z-0.823
N5540 X45.406 Y15.425 Z-0.737
N5545 X45.374 Y15.392 Z-0.644
N5550 X45.35 Y15.368 Z-0.545
N5555 X45.336 Y15.354 Z-0.444
N5560 X45.331 Y15.349 Z-0.34
N5565 G0 Z5.
N5570 G1 X43.132 Y-17.892 F500.
N5575 G0 Z0.454
N5580 G1 Z-0.34 F3152.09
N5585 X43.138 Y-17.891 Z-0.444
N5590 X43.158 Y-17.886 Z-0.545
N5595 X43.19 Y-17.877 Z-0.644
N5600 X43.234 Y-17.865 Z-0.737
N5605 X43.29 Y-17.851 Z-0.823
N5610 X43.356 Y-17.833 Z-0.901
N5615 X43.432 Y-17.814 Z-0.97
N5620 X43.515 Y-17.792 Z-1.027
N5625 X43.605 Y-17.768 Z-1.073
N5630 X43.701 Y-17.743 Z-1.107
N5635 X43.799 Y-17.717 Z-1.127
N5640 X43.899 Y-17.691 Z-1.134
N5645 G3 X44.586 Y-17.31 I-0.401 J1.531
N5650 G1 X44.775 Y-17.118 F3151.86
N5655 X45.04 Y-16.887
N5660 X45.281 Y-16.712
N5665 X45.365 Y-16.655
N5670 X45.513 Y-16.57
N5675 X45.745 Y-16.442
N5680 X45.876 Y-16.37
N5685 X46.006 Y-16.295
N5690 X46.13 Y-16.211
N5695 X46.248 Y-16.119
N5700 X46.361 Y-16.019
N5705 X46.466 Y-15.913
N5710 X46.566 Y-15.8
N5715 X46.659 Y-15.683
N5720 X46.747 Y-15.561
N5725 X46.828 Y-15.435
N5730 X46.904 Y-15.306
N5735 X46.974 Y-15.173
N5740 X47.038 Y-15.038
N5745 X47.097 Y-14.9
N5750 X47.151 Y-14.76
N5755 X47.198 Y-14.617
N5760 X47.241 Y-14.474
N5765 X47.279 Y-14.329
N5770 X47.312 Y-14.182
N5775 X47.34 Y-14.035
N5780 X47.364 Y-13.887
N5785 X47.382 Y-13.738
N5790 X47.396 Y-13.589
N5795 X47.406 Y-13.439
N5800 X47.412 Y-13.289
N5805 X47.414 Y-13.139
N5810 X47.411 Y-12.989
N5815 X47.404 Y-12.839
N5820 X47.394 Y-12.69
N5825 X47.379 Y-12.54
N5830 X47.362 Y-12.391
N5835 X47.34 Y-12.243
N5840 X47.316 Y-12.095
N5845 X47.287 Y-11.948
N5850 X47.255 Y-11.801
N5855 X47.22 Y-11.655
N5860 X47.182 Y-11.51
N5865 X47.141 Y-11.366
N5870 X47.097 Y-11.222
N5875 X47.051 Y-11.08
N5880 X47.001 Y-10.938
N5885 X46.949 Y-10.798
N5890 X46.894 Y-10.658
N5895 X46.836 Y-10.52
N5900 X46.775 Y-10.382
N5905 X46.713 Y-10.246
N5910 X46.647 Y-10.111
N5915 X46.58 Y-9.977
N5920 X46.511 Y-9.844
N5925 X46.439 Y-9.712
N5930 X46.365 Y-9.582
N5935 X46.288 Y-9.453
N5940 X46.21 Y-9.325
N5945 X46.129 Y-9.199
N5950 X46.047 Y-9.073
N5955 X45.963 Y-8.949
N5960 X45.877 Y-8.826
N5965 X45.789 Y-8.704
N5970 X45.699 Y-8.584
N5975 X45.608 Y-8.465
N5980 X45.515 Y-8.348
N5985 X45.42 Y-8.231
N5990 X45.324 Y-8.117
N5995 X45.226 Y-8.003
N6000 X45.126 Y-7.89
N6005 X45.026 Y-7.779
N6010 X44.924 Y-7.669
N6015 X44.82 Y-7.561
N6020 X44.715 Y-7.454
N6025 X44.609 Y-7.348
N6030 X44.501 Y-7.244
N6035 X44.392 Y-7.14
N6040 X44.282 Y-7.038
N6045 X44.171 Y-6.938
N6050 X44.059 Y-6.838
N6055 X43.945 Y-6.74
N6060 X43.831 Y-6.643
N6065 X43.715 Y-6.548
N6070 X43.598 Y-6.453
N6075 X43.481 Y-6.36
N6080 X43.362 Y-6.269
N6085 X43.243 Y-6.178
N6090 X43.122 Y-6.088
N6095 X43.001 Y-6.
N6100 X42.879 Y-5.913
N6105 X42.755 Y-5.828
N6110 X42.631 Y-5.743
N6115 X42.505 Y-5.659
N6120 X42.373 Y-5.573
N6125 X42.245 Y-5.49
N6130 X42.118 Y-5.41
N6135 X41.99 Y-5.332
N6140 X41.86 Y-5.253
N6145 X41.725 Y-5.173
N6150 X41.582 Y-5.091
N6155 X41.433 Y-5.006
N6160 X41.279 Y-4.921
N6165 X41.138 Y-4.845
N6170 X40.996 Y-4.769
N6175 X40.847 Y-4.692
N6180 X40.691 Y-4.612
N6185 X40.526 Y-4.531
N6190 X40.353 Y-4.446
N6195 X40.179 Y-4.364
N6200 X40.019 Y-4.29
N6205 X39.852 Y-4.214
N6210 X39.675 Y-4.136
N6215 X39.488 Y-4.056
N6220 X39.291 Y-3.973
N6225 X39.096 Y-3.893
N6230 X38.912 Y-3.82
N6235 X38.717 Y-3.744
N6240 X38.511 Y-3.666
N6245 X38.292 Y-3.586
N6250 X38.066 Y-3.505
N6255 X37.859 Y-3.433
N6260 X37.638 Y-3.359
N6265 X37.403 Y-3.282
N6270 X37.152 Y-3.202
N6275 X36.907 Y-3.127
N6280 X36.665 Y-3.055
N6285 X36.407 Y-2.981
N6290 X36.128 Y-2.904
N6295 X35.849 Y-2.829
N6300 X35.576 Y-2.758
N6305 X35.281 Y-2.685
N6310 X34.962 Y-2.609
N6315 X34.732 Y-2.557
N6320 X34.42 Y-2.487
N6325 X34.079 Y-2.415
N6330 X33.722 Y-2.342
N6335 X33.373 Y-2.274
N6340 X32.989 Y-2.204
N6345 X32.591 Y-2.134
N6350 X32.186 Y-2.067
N6355 X31.735 Y-1.996
N6360 X31.295 Y-1.931
N6365 X30.804 Y-1.863
N6370 X30.298 Y-1.798
N6375 X29.746 Y-1.732
N6380 X29.17 Y-1.669
N6385 X28.525 Y-1.603
N6390 X27.858 Y-1.542
N6395 X27.109 Y-1.48
N6400 X26.276 Y-1.418
N6405 X25.344 Y-1.358
N6410 X24.325 Y-1.301
N6415 X23.306 Y-1.253
N6420 X22.286 Y-1.213
N6425 X21.267 Y-1.179
N6430 X20.247 Y-1.151
N6435 X19.227 Y-1.127
N6440 X18.207 Y-1.107
N6445 X17.187 Y-1.09
N6450 X16.167 Y-1.077
N6455 X15.146 Y-1.065
N6460 X14.126 Y-1.056
N6465 X13.106 Y-1.048
N6470 X12.086 Y-1.041
N6475 X10.045 Y-1.032
N6480 X8.005 Y-1.025
N6485 X5.964 Y-1.021
N6490 X1.883 Y-1.016
N6495 X-4.238 Y-1.013
N6500 X-28.724 Y-1.012
N6505 X-43.518
N6510 X-43.643 Y-0.988
N6515 X-43.767 Y-0.957
N6520 G3 X-44.489 Y-1.171 I-0.163 J-0.777 F3152.09
N6525 G1 X-44.563 Y-1.244 Z-1.127
N6530 X-44.635 Y-1.316 Z-1.107
N6535 X-44.705 Y-1.385 Z-1.073
N6540 X-44.771 Y-1.451 Z-1.027
N6545 X-44.832 Y-1.512 Z-0.97
N6550 X-44.888 Y-1.567 Z-0.901
N6555 X-44.936 Y-1.615 Z-0.823
N6560 X-44.977 Y-1.655 Z-0.737
N6565 X-45.01 Y-1.688 Z-0.644
N6570 X-45.033 Y-1.711 Z-0.545
N6575 X-45.048 Y-1.726 Z-0.444
N6580 X-45.053 Y-1.73 Z-0.34
N6585 G0 Z5.
N6590 G1 X44.178 Y-16.487 F500.
N6595 G0 Z0.454
N6600 G1 Z-0.34 F3152.09
N6605 X44.185 Z-0.444
N6610 X44.205 Y-16.489 Z-0.545
N6615 X44.239 Y-16.492 Z-0.644
N6620 X44.284 Y-16.497 Z-0.737
N6625 X44.342 Y-16.502 Z-0.823
N6630 X44.41 Y-16.509 Z-0.901
N6635 X44.488 Y-16.516 Z-0.97
N6640 X44.573 Y-16.525 Z-1.027
N6645 X44.666 Y-16.534 Z-1.073
N6650 X44.764 Y-16.543 Z-1.107
N6655 X44.865 Y-16.553 Z-1.127
N6660 X44.968 Y-16.563 Z-1.134
N6665 G3 X45.745 Y-16.442 I0.152 J1.575
N6670 G1 X45.783 Y-16.424 F3151.86
N6675 X45.976 Y-16.34
N6680 X46.208 Y-16.252
N6685 X46.388 Y-16.193
N6690 X46.44 Y-16.177
N6695 X46.671 Y-16.122
N6700 X46.903 Y-16.087
N6705 X47.135 Y-16.061
N6710 X47.341 Y-16.028
N6715 X47.536 Y-15.977
N6720 X47.747 Y-15.898
N6725 X47.972 Y-15.788
N6730 X48.208 Y-15.642
N6735 X48.45 Y-15.458
N6740 X48.694 Y-15.23
N6745 X48.936 Y-14.955
N6750 X49.17 Y-14.63
N6755 X49.389 Y-14.252
N6760 X49.586 Y-13.818
N6765 X49.754 Y-13.325
N6770 X49.883 Y-12.774
N6775 X49.964 Y-12.161
N6780 X49.987 Y-11.486
N6785 X49.938 Y-10.752
N6790 X49.807 Y-9.957
N6795 X49.579 Y-9.107
N6800 X49.238 Y-8.204
N6805 X48.786 Y-7.29
N6810 X48.249 Y-6.422
N6815 X47.64 Y-5.604
N6820 X46.97 Y-4.835
N6825 X46.246 Y-4.116
N6830 X45.476 Y-3.446
N6835 X44.667 Y-2.825
N6840 X43.824 Y-2.25
N6845 X42.952 Y-1.72
N6850 X42.84 Y-1.659
N6855 X41.942 Y-1.176
N6860 X41.022 Y-0.734
N6865 X40.085 Y-0.33
N6870 X39.133 Y0.037
N6875 X38.892 Y0.12
N6880 G3 X37.903 Y-0.409 Z-0.934 I-0.23 J-0.76 F3152.09
N6885 X37.974 Y-1.035 I0.76 J-0.231
N6890 G1 X46.211 Y-15.358
N6895 X46.388 Y-15.665 Z-0.991
N6900 G3 X47.135 Y-16.061 Z-1.134 I0.688 J0.396
N6905 G1 X47.367 Y-16.036 F3151.86
N6910 X47.598 Y-16.015
N6915 X48.989 Y-15.92
N6920 X49.221 Y-15.899
N6925 X49.538 Y-15.853
N6930 X49.686 Y-15.831
N6935 X49.833 Y-15.799
N6940 X49.977 Y-15.76
N6945 X50.12 Y-15.712
N6950 X50.259 Y-15.657
N6955 X50.396 Y-15.595
N6960 X50.53 Y-15.528
N6965 X50.661 Y-15.454
N6970 X50.788 Y-15.375
N6975 X50.912 Y-15.29
N6980 X51.032 Y-15.201
N6985 X51.149 Y-15.107
N6990 X51.263 Y-15.009
N6995 X51.373 Y-14.907
N7000 X51.479 Y-14.801
N7005 X51.582 Y-14.692
N7010 X51.681 Y-14.579
N7015 X51.776 Y-14.463
N7020 X51.868 Y-14.345
N7025 X51.956 Y-14.223
N7030 X52.041 Y-14.099
N7035 X52.122 Y-13.973
N7040 X52.199 Y-13.845
N7045 X52.274 Y-13.715
N7050 X52.344 Y-13.582
N7055 X52.411 Y-13.448
N7060 X52.474 Y-13.312
N7065 X52.535 Y-13.175
N7070 X52.592 Y-13.036
N7075 X52.645 Y-12.896
N7080 X52.696 Y-12.755
N7085 X52.743 Y-12.612
N7090 X52.787 Y-12.469
N7095 X52.827 Y-12.324
N7100 X52.865 Y-12.179
N7105 X52.899 Y-12.033
N7110 X52.931 Y-11.886
N7115 X52.96 Y-11.739
N7120 X52.985 Y-11.591
N7125 X53.008 Y-11.443
N7130 X53.028 Y-11.294
N7135 X53.045 Y-11.145
N7140 X53.059 Y-10.996
N7145 X53.07 Y-10.846
N7150 X53.079 Y-10.697
N7155 X53.085 Y-10.547
N7160 X53.089 Y-10.397
N7165 X53.09 Y-10.247
N7170 X53.088 Y-10.097
N7175 X53.084 Y-9.947
N7180 X53.077 Y-9.797
N7185 X53.068 Y-9.647
N7190 X53.056 Y-9.498
N7195 X53.042 Y-9.348
N7200 X53.027 Y-9.199
N7205 X53.008 Y-9.05
N7210 X52.988 Y-8.902
N7215 X52.965 Y-8.754
N7220 X52.94 Y-8.606
N7225 X52.912 Y-8.458
N7230 X52.883 Y-8.311
N7235 X52.851 Y-8.165
N7240 X52.818 Y-8.018
N7245 X52.782 Y-7.873
N7250 X52.745 Y-7.727
N7255 X52.705 Y-7.583
N7260 X52.664 Y-7.439
N7265 X52.62 Y-7.295
N7270 X52.575 Y-7.152
N7275 X52.527 Y-7.01
N7280 X52.478 Y-6.868
N7285 X52.428 Y-6.727
N7290 X52.376 Y-6.586
N7295 X52.321 Y-6.446
N7300 X52.265 Y-6.307
N7305 X52.208 Y-6.169
N7310 X52.148 Y-6.031
N7315 X52.087 Y-5.894
N7320 X52.025 Y-5.758
N7325 X51.96 Y-5.622
N7330 X51.895 Y-5.487
N7335 X51.828 Y-5.353
N7340 X51.759 Y-5.219
N7345 X51.689 Y-5.087
N7350 X51.617 Y-4.955
N7355 X51.544 Y-4.824
N7360 X51.47 Y-4.694
N7365 X51.394 Y-4.565
N7370 X51.316 Y-4.436
N7375 X51.238 Y-4.308
N7380 X51.158 Y-4.181
N7385 X51.077 Y-4.055
N7390 X50.995 Y-3.93
N7395 X50.911 Y-3.805
N7400 X50.826 Y-3.682
N7405 X50.739 Y-3.559
N7410 X50.65 Y-3.434
N7415 X50.562 Y-3.313
N7420 X50.472 Y-3.193
N7425 X50.381 Y-3.074
N7430 X50.289 Y-2.955
N7435 X50.196 Y-2.838
N7440 X50.1 Y-2.719
N7445 X50. Y-2.597
N7450 X49.894 Y-2.471
N7455 X49.792 Y-2.352
N7460 X49.694 Y-2.239
N7465 X49.594 Y-2.127
N7470 X49.493 Y-2.015
N7475 X49.386 Y-1.899
N7480 X49.274 Y-1.779
N7485 X49.156 Y-1.655
N7490 X49.032 Y-1.528
N7495 X48.919 Y-1.414
N7500 X48.811 Y-1.307
N7505 X48.697 Y-1.196
N7510 X48.577 Y-1.081
N7515 X48.451 Y-0.962
N7520 X48.318 Y-0.84
N7525 X48.178 Y-0.712
N7530 X48.046 Y-0.596
N7535 X47.924 Y-0.488
N7540 X47.797 Y-0.38
N7545 X47.665 Y-0.268
N7550 X47.45 Y-0.092
N7555 X47.298 Y0.03
N7560 X47.137 Y0.157
N7565 X46.989 Y0.272
N7570 X46.847 Y0.38
N7575 X46.642 Y0.533
N7580 X46.471 Y0.721
N7585 X46.337 Y0.939
N7590 X46.248 Y1.177
N7595 X46.205 Y1.429
N7600 X46.21 Y1.684
N7605 X46.263 Y1.933
N7610 X46.363 Y2.168
N7615 X46.931 Y3.015
N7620 X47.585 Y3.5
N7625 X47.89 Y3.73
N7630 X48.121 Y3.908
N7635 X48.37 Y4.103
N7640 X48.638 Y4.317
N7645 X48.846 Y4.486
N7650 X49.001 Y4.615
N7655 X49.157 Y4.746
N7660 X49.32 Y4.887
N7665 X49.491 Y5.037
N7670 X49.665 Y5.191
N7675 X49.805 Y5.318
N7680 X49.923 Y5.428
N7685 X50.042 Y5.54
N7690 X50.165 Y5.658
N7695 X50.292 Y5.782
N7700 X50.424 Y5.913
N7705 X50.548 Y6.039
N7710 X50.653 Y6.148
N7715 X50.757 Y6.256
N7720 X50.859 Y6.366
N7725 X50.96 Y6.476
N7730 X51.062 Y6.59
N7735 X51.167 Y6.708
N7740 X51.265 Y6.822
N7745 X51.362 Y6.936
N7750 X51.458 Y7.051
N7755 X51.553 Y7.168
N7760 X51.646 Y7.285
N7765 X51.739 Y7.403
N7770 X51.83 Y7.523
N7775 X51.919 Y7.643
N7780 X52.008 Y7.764
N7785 X52.095 Y7.886
N7790 X52.181 Y8.009
N7795 X52.265 Y8.133
N7800 X52.347 Y8.258
N7805 X52.429 Y8.384
N7810 X52.509 Y8.511
N7815 X52.587 Y8.639
N7820 X52.663 Y8.768
N7825 X52.738 Y8.898
N7830 X52.812 Y9.029
N7835 X52.883 Y9.161
N7840 X52.954 Y9.293
N7845 X53.022 Y9.427
N7850 X53.088 Y9.561
N7855 X53.153 Y9.697
N7860 X53.216 Y9.833
N7865 X53.277 Y9.97
N7870 X53.336 Y10.108
N7875 X53.393 Y10.247
N7880 X53.448 Y10.386
N7885 X53.502 Y10.526
N7890 X53.553 Y10.667
N7895 X53.602 Y10.809
N7900 X53.65 Y10.951
N7905 X53.695 Y11.094
N7910 X53.738 Y11.238
N7915 X53.778 Y11.382
N7920 X53.817 Y11.527
N7925 X53.853 Y11.673
N7930 X53.886 Y11.819
N7935 X53.917 Y11.966
N7940 X53.945 Y12.113
N7945 X53.971 Y12.261
N7950 X53.995 Y12.409
N7955 X54.015 Y12.558
N7960 X54.032 Y12.707
N7965 X54.046 Y12.856
N7970 X54.057 Y13.006
N7975 X54.065 Y13.156
N7980 X54.07 Y13.306
N7985 X54.071 Y13.456
N7990 X54.069 Y13.606
N7995 X54.063 Y13.763
N8000 X54.008 Y14.072
N8005 X53.883 Y14.359
N8010 X53.695 Y14.61
N8015 X53.453 Y14.81
N8020 X53.172 Y14.948
N8025 X52.233 Y15.282
N8030 X51.466 Y15.499
N8035 X51.306 Y15.535
N8040 X49.916 Y15.824
N8045 X49.684 Y15.856
N8050 X49.345 Y15.888
N8055 G3 X48.662 Y15.569 I-0.046 J-0.792 F3152.09
N8060 G1 X48.6 Y15.486 Z-1.127
N8065 X48.539 Y15.404 Z-1.107
N8070 X48.481 Y15.325 Z-1.073
N8075 X48.425 Y15.25 Z-1.027
N8080 X48.373 Y15.181 Z-0.97
N8085 X48.327 Y15.118 Z-0.901
N8090 X48.286 Y15.064 Z-0.823
N8095 X48.252 Y15.017 Z-0.737
N8100 X48.224 Y14.98 Z-0.644
N8105 X48.204 Y14.954 Z-0.545
N8110 X48.192 Y14.937 Z-0.444
N8115 X48.188 Y14.932 Z-0.34
N8120 G0 Z5.
N8125 G1 X47.734 Y-15.404 F500.
N8130 G0 Z0.454
N8135 G1 Z-0.34 F3152.09
N8140 X47.74 Y-15.407 Z-0.444
N8145 X47.759 Y-15.416 Z-0.545
N8150 X47.789 Y-15.43 Z-0.644
N8155 X47.83 Y-15.45 Z-0.737
N8160 X47.882 Y-15.475 Z-0.823
N8165 X47.944 Y-15.504 Z-0.901
N8170 X48.014 Y-15.538 Z-0.97
N8175 X48.092 Y-15.575 Z-1.027
N8180 X48.176 Y-15.616 Z-1.073
N8185 X48.265 Y-15.658 Z-1.107
N8190 X48.357 Y-15.702 Z-1.127
N8195 X48.45 Y-15.747 Z-1.134
N8200 G3 X49.221 Y-15.899 I0.683 J1.428
N8205 G1 X49.684 Y-15.856 F3151.86
N8210 X49.916 Y-15.824
N8215 X51.306 Y-15.535
N8220 X51.466 Y-15.499
N8225 X52.233 Y-15.282
N8230 X52.925 Y-15.036
N8235 X53.214 Y-14.917
N8240 X53.521 Y-14.753
N8245 X53.842 Y-14.539
N8250 X54.17 Y-14.27
N8255 X54.501 Y-13.939
N8260 X54.829 Y-13.539
N8265 X55.144 Y-13.068
N8270 X55.438 Y-12.517
N8275 X55.701 Y-11.881
N8280 X55.919 Y-11.158
N8285 X56.08 Y-10.342
N8290 X56.168 Y-9.432
N8295 X56.166 Y-8.426
N8300 X56.063 Y-7.41
N8305 X55.87 Y-6.409
N8310 X55.595 Y-5.426
N8315 X55.246 Y-4.467
N8320 X54.831 Y-3.535
N8325 X54.356 Y-2.633
N8330 X53.825 Y-1.761
N8335 X53.681 Y-1.551
N8340 X53.475 Y-1.084
N8345 X53.338 Y-0.073
N8350 X53.484 Y0.936
N8355 X53.783 Y1.912
N8360 X54.17 Y2.856
N8365 X54.605 Y3.779
N8370 X55.059 Y4.692
N8375 X55.512 Y5.607
N8380 X55.948 Y6.529
N8385 X56.354 Y7.465
N8390 X56.719 Y8.418
N8395 X57.032 Y9.389
N8400 X57.283 Y10.378
N8405 X57.453 Y11.348
N8410 X57.481 Y11.721
N8415 X57.473 Y11.995
N8420 X57.41 Y12.263
N8425 X57.294 Y12.511
N8430 X57.129 Y12.732
N8435 X56.923 Y12.914
N8440 X55.941 Y13.607
N8445 X55.87 Y13.648
N8450 X55.456 Y13.879
N8455 X55.246 Y13.989
N8460 X54.551 Y14.35
N8465 X54.319 Y14.468
N8470 X53.856 Y14.702
N8475 X53.624 Y14.788
N8480 X53.172 Y14.948
N8485 G3 X52.432 Y14.807 I-0.24 J-0.757 F3152.09
N8490 G1 X52.351 Y14.742 Z-1.127
N8495 X52.272 Y14.678 Z-1.107
N8500 X52.196 Y14.616 Z-1.073
N8505 X52.124 Y14.557 Z-1.027
N8510 X52.057 Y14.502 Z-0.97
N8515 X51.996 Y14.453 Z-0.901
N8520 X51.943 Y14.41 Z-0.823
N8525 X51.898 Y14.373 Z-0.737
N8530 X51.863 Y14.344 Z-0.644
N8535 X51.837 Y14.323 Z-0.545
N8540 X51.821 Y14.311 Z-0.444
N8545 X51.816 Y14.306 Z-0.34
N8550 G0 Z5.
N8555 G1 X51.558 Y-14.915 F500.
N8560 G0 Z0.454
N8565 G1 Z-0.34 F3152.09
N8570 X51.565 Y-14.916 Z-0.444
N8575 X51.585 Y-14.92 Z-0.545
N8580 X51.618 Y-14.927 Z-0.644
N8585 X51.663 Y-14.936 Z-0.737
N8590 X51.719 Y-14.947 Z-0.823
N8595 X51.786 Y-14.96 Z-0.901
N8600 X51.863 Y-14.975 Z-0.97
N8605 X51.948 Y-14.992 Z-1.027
N8610 X52.039 Y-15.01 Z-1.073
N8615 X52.136 Y-15.029 Z-1.107
N8620 X52.235 Y-15.049 Z-1.127
N8625 X52.337 Y-15.069 Z-1.134
N8630 G3 X52.925 Y-15.036 I0.23 J1.164
N8635 G1 X53.624 Y-14.788 F3151.86
N8640 X53.856 Y-14.702
N8645 X54.319 Y-14.468
N8650 X54.565 Y-14.342
N8655 X55.246 Y-13.989
N8660 X55.456 Y-13.879
N8665 X55.87 Y-13.648
N8670 X55.941 Y-13.607
N8675 X56.867 Y-12.954
N8680 X57.214 Y-12.682
N8685 X57.528 Y-12.381
N8690 X57.834 Y-12.025
N8695 X58.151 Y-11.573
N8700 X58.432 Y-11.073
N8705 X58.705 Y-10.451
N8710 X58.928 Y-9.766
N8715 X59.105 Y-8.966
N8720 X59.215 Y-8.041
N8725 X59.236 Y-7.021
N8730 X59.156 Y-6.004
N8735 X58.987 Y-4.998
N8740 X58.74 Y-4.008
N8745 X58.423 Y-3.038
N8750 X58.213 Y-2.04
N8755 X58.181 Y-1.02
N8760 X58.284 Y-0.005
N8765 X58.483 Y0.996
N8770 X58.744 Y1.982
N8775 X59.045 Y2.957
N8780 X59.364 Y3.926
N8785 X59.688 Y4.894
N8790 X60.002 Y5.864
N8795 X60.299 Y6.841
N8800 X60.564 Y7.826
N8805 X60.67 Y8.307
N8810 X60.702 Y8.583
N8815 X60.676 Y8.86
N8820 X60.593 Y9.126
N8825 X60.457 Y9.369
N8830 X60.344 Y9.53
N8835 X60.202 Y9.716
N8840 X59.449 Y10.641
N8845 X59.417 Y10.676
N8850 X58.954 Y11.169
N8855 X58.782 Y11.335
N8860 X58.027 Y12.04
N8865 X57.795 Y12.25
N8870 X57.1 Y12.787
N8875 X56.923 Y12.914
N8880 G3 X55.823 Y12.692 Z-0.934 I-0.439 J-0.661 F3152.09
N8885 X55.69 Y12.254 I0.661 J-0.44
N8890 G1 X55.638 Y-12.288
N8895 G3 X55.768 Y-12.725 I0.794 J-0.002
N8900 X56.867 Y-12.954 Z-1.134 I0.664 J0.435
N8905 G1 X57.1 Y-12.787 F3151.86
N8910 X57.795 Y-12.25
N8915 X58.039 Y-12.029
N8920 X58.782 Y-11.335
N8925 X58.954 Y-11.169
N8930 X59.417 Y-10.676
N8935 X59.449 Y-10.641
N8940 X60.202 Y-9.716
N8945 X60.344 Y-9.53
N8950 X60.808 Y-8.871
N8955 X61.2 Y-8.231
N8960 X61.436 Y-7.741
N8965 X61.64 Y-7.188
N8970 X61.812 Y-6.524
N8975 X61.944 Y-5.682
N8980 X62.002 Y-4.663
N8985 X62.046 Y-3.644
N8990 X62.131 Y-2.627
N8995 X62.266 Y-1.616
N9000 X62.447 Y-0.612
N9005 X62.665 Y0.385
N9010 X62.909 Y1.375
N9015 X63.192 Y2.446
N9020 X63.227 Y2.622
N9025 X63.238 Y2.8
N9030 X63.225 Y2.979
N9035 X63.222 Y3.007
N9040 X63.185 Y3.239
N9045 X62.998 Y3.932
N9050 X62.869 Y4.395
N9055 X62.662 Y5.134
N9060 X62.597 Y5.32
N9065 X62.512 Y5.552
N9070 X62.43 Y5.75
N9075 X61.813 Y7.171
N9080 X61.735 Y7.315
N9085 X61.42 Y7.865
N9090 X61.271 Y8.118
N9095 X60.863 Y8.79
N9100 X60.808 Y8.871
N9105 X60.457 Y9.369
N9110 G3 X59.346 Y9.523 Z-0.934 I-0.633 J-0.479 F3152.09
N9115 X59.031 Y8.874 I0.478 J-0.633
N9120 G1 X59.381 Y-8.408
N9125 G3 X59.696 Y-9.025 I0.794 J0.016
N9130 X60.808 Y-8.871 Z-1.134 I0.478 J0.633
N9135 G1 X60.863 Y-8.79 F3151.86
N9140 X61.285 Y-8.096
N9145 X61.42 Y-7.865
N9150 X61.735 Y-7.315
N9155 X61.813 Y-7.171
N9160 X62.43 Y-5.75
N9165 X62.512 Y-5.552
N9170 X62.597 Y-5.32
N9175 X62.662 Y-5.134
N9180 X62.934 Y-4.164
N9185 X62.998 Y-3.932
N9190 X63.185 Y-3.239
N9195 X63.222 Y-3.007
N9200 X63.444 Y-1.388
N9205 X63.476 Y-0.925
N9210 X63.485 Y-0.694
N9215 Y0.694
N9220 X63.476 Y0.925
N9225 X63.444 Y1.388
N9230 X63.225 Y2.979
N9235 X63.198 Y3.059 Z-1.129 F3152.09
N9240 X63.171 Y3.138 Z-1.115
N9245 X63.144 Y3.216 Z-1.092
N9250 X63.091 Y3.287 Z-1.056
N9255 X63.04 Y3.354 Z-1.009
N9260 X62.994 Y3.415 Z-0.952
N9265 X62.938 Y3.454 Z-0.888
N9270 X62.89 Y3.488 Z-0.817
N9275 X62.848 Y3.517 Z-0.74
N9280 X62.814 Y3.54 Z-0.657
N9285 X62.789 Y3.558 Z-0.57
N9290 X62.773 Y3.566 Z-0.497
N9295 X62.763 Y3.57 Z-0.423
N9300 X62.76 Y3.572 Z-0.348
N9305 G0 Z5.
N9310 G1 X42.549 Y30.002 F500.
N9315 G0 Z-0.68
N9320 G1 Z-1.474 F3152.09
N9325 X42.556 Y30. Z-1.577
N9330 X42.575 Y29.994 Z-1.679
N9335 X42.607 Y29.985 Z-1.777
N9340 X42.651 Y29.971 Z-1.871
N9345 X42.706 Y29.954 Z-1.957
N9350 X42.772 Y29.935 Z-2.035
N9355 X42.847 Y29.912 Z-2.103
N9360 X42.929 Y29.887 Z-2.161
N9365 X43.018 Y29.86 Z-2.207
N9370 X43.112 Y29.831 Z-2.24
N9375 X43.21 Y29.802 Z-2.261
N9380 X43.309 Y29.771 Z-2.267
N9385 G3 X47.598 Y28.96 I5.89 J19.389
N9390 G1 X48.062 Y28.939 F3151.86
N9395 X48.294 Y28.927
N9400 X50.379 Y28.795
N9405 X50.611 Y28.778
N9410 X51.075 Y28.74
N9415 X51.306 Y28.714
N9420 X52.697 Y28.45
N9425 X54.087 Y28.184
N9430 X54.319 Y28.136
N9435 X54.928 Y27.99
N9440 X55.014 Y27.966
N9445 X57.563 Y27.137
N9450 X57.795 Y27.062
N9455 X58.027 Y26.984
N9460 X58.722 Y26.68
N9465 X58.889 Y26.602
N9470 X59.832 Y26.214
N9475 X60.803 Y25.9
N9480 X61.796 Y25.666
N9485 X62.801 Y25.493
N9490 X63.814 Y25.364
N9495 X64.829 Y25.268
N9500 X65.847 Y25.197
N9505 X66.866 Y25.144
N9510 X67.885 Y25.105
N9515 X68.395 Y25.09
N9520 X68.65 Y25.084
N9525 X68.899 Y25.03
N9530 X69.368 Y24.829
N9535 X70.168 Y24.195
N9540 X70.764 Y23.367
N9545 X71.207 Y22.448
N9550 X71.537 Y21.483
N9555 X71.782 Y20.492
N9560 X71.964 Y19.488
N9565 X72.1 Y18.477
N9570 X72.201 Y17.462
N9575 X72.275 Y16.444
N9580 X72.331 Y15.426
N9585 X72.343 Y15.133
N9590 X72.367 Y14.928
N9595 X72.422 Y14.729
N9600 X72.508 Y14.54
N9605 X73.38 Y12.954
N9610 X73.502 Y12.723
N9615 X73.785 Y12.154
N9620 X73.841 Y12.029
N9625 X74.757 Y9.716
N9630 X74.944 Y9.237
N9635 X75.024 Y9.022
N9640 X75.219 Y8.328
N9645 X75.813 Y6.014
N9650 X75.972 Y5.32
N9655 X76.005 Y5.089
N9660 X76.103 Y4.326
N9665 X76.357 Y2.313
N9670 X76.377 Y2.082
N9675 X76.412 Y1.619
N9680 X76.419 Y1.388
N9685 Y-1.388
N9690 X76.412 Y-1.619
N9695 X76.377 Y-2.082
N9700 X76.357 Y-2.313
N9705 X76.065 Y-4.626
N9710 X76.005 Y-5.089
N9715 X75.972 Y-5.32
N9720 X75.813 Y-6.014
N9725 X75.219 Y-8.328
N9730 X75.024 Y-9.022
N9735 X74.938 Y-9.253
N9740 X74.665 Y-9.947
N9745 X73.933 Y-11.797
N9750 X73.605 Y-12.764
N9755 X73.318 Y-13.743
N9760 X73.106 Y-14.741
N9765 X72.948 Y-15.749
N9770 X72.83 Y-16.762
N9775 X72.743 Y-17.779
N9780 X72.679 Y-18.797
N9785 X72.63 Y-19.816
N9790 X72.595 Y-20.836
N9795 X72.588 Y-21.09
N9800 X72.479 Y-21.589
N9805 X71.947 Y-22.46
N9810 X71.16 Y-23.109
N9815 X70.262 Y-23.592
N9820 X69.307 Y-23.951
N9825 X68.322 Y-24.218
N9830 X67.321 Y-24.417
N9835 X66.312 Y-24.565
N9840 X65.298 Y-24.674
N9845 X64.281 Y-24.756
N9850 X63.262 Y-24.816
N9855 X62.658 Y-24.843
N9860 X62.427 Y-24.874
N9865 X62.205 Y-24.944
N9870 X61.998 Y-25.051
N9875 X61.733 Y-25.214
N9880 X61.04 Y-25.59
N9885 X58.889 Y-26.602
N9890 X58.722 Y-26.68
N9895 X58.027 Y-26.984
N9900 X57.785 Y-27.065
N9905 X56.868 Y-27.364
N9910 X55.014 Y-27.966
N9915 X54.928 Y-27.99
N9920 X54.319 Y-28.136
N9925 X54.087 Y-28.184
N9930 X51.538 Y-28.67
N9935 X51.306 Y-28.714
N9940 X51.075 Y-28.74
N9945 X50.611 Y-28.778
N9950 X50.379 Y-28.795
N9955 X48.525 Y-28.912
N9960 G3 X47.813 Y-29.779 Z-2.067 I0.077 J-0.79 F3152.09
N9965 X49.043 Y-30.363 I0.79 J0.077
N9970 G1 X51.187 Y-28.935
N9975 G2 X51.311 Y-29.987 I0.329 J-0.494
N9980 G3 X48.304 Y-29.137 I-6.997 J-19.018
N9985 X47.075 Y-28.929 Z-2.267 I-3.99 J-19.868
N9990 G1 X46.903 Y-28.912 F3151.86
N9995 X46.671 Y-28.873
N10000 X46.208 Y-28.748
N10005 X46.032 Y-28.684
N10010 X45.745 Y-28.558
N10015 X45.513 Y-28.43
N10020 X45.281 Y-28.279
N10025 X45.049 Y-28.114
N10030 X44.896 Y-27.99
N10035 X44.818 Y-27.921
N10040 X44.661 Y-27.759
N10045 X44.432 Y-27.526
N10050 X44.06 Y-27.216
N10055 X43.572 Y-26.884
N10060 X42.928 Y-26.534
N10065 X42.062 Y-26.168
N10070 X41.088 Y-25.865
N10075 X40.093 Y-25.64
N10080 X39.086 Y-25.474
N10085 X38.074 Y-25.35
N10090 X37.057 Y-25.258
N10095 X36.039 Y-25.189
N10100 X35.021 Y-25.138
N10105 X34.001 Y-25.101
N10110 X32.981 Y-25.073
N10115 X31.961 Y-25.052
N10120 X30.941 Y-25.036
N10125 X29.921 Y-25.025
N10130 X28.901 Y-25.016
N10135 X27.88 Y-25.01
N10140 X26.86 Y-25.005
N10145 X24.82 Y-24.999
N10150 X21.759 Y-24.995
N10155 X16.658 Y-24.992
N10160 X-4.768
N10165 X-55.78
N10170 X-68.533
N10175 X-68.786 Y-24.957
N10180 X-69.269 Y-24.793
N10185 X-70.094 Y-24.193
N10190 X-70.709 Y-23.379
N10195 X-71.166 Y-22.467
N10200 X-71.506 Y-21.505
N10205 X-71.759 Y-20.517
N10210 X-71.948 Y-19.514
N10215 X-72.087 Y-18.503
N10220 X-72.191 Y-17.488
N10225 X-72.268 Y-16.471
N10230 X-72.326 Y-15.452
N10235 X-72.368 Y-14.433
N10240 X-72.4 Y-13.413
N10245 X-72.424 Y-12.393
N10250 X-72.441 Y-11.373
N10255 X-72.454 Y-10.353
N10260 X-72.464 Y-9.333
N10265 X-72.471 Y-8.313
N10270 X-72.476 Y-7.292
N10275 X-72.48 Y-6.272
N10280 X-72.485 Y-4.232
N10285 X-72.489 Y-1.171
N10290 X-72.491 Y4.951
N10295 Y11.072
N10300 X-72.492 Y21.019
N10305 X-72.463 Y21.273
N10310 X-72.312 Y21.76
N10315 X-71.715 Y22.588
N10320 X-70.902 Y23.204
N10325 X-69.991 Y23.663
N10330 X-69.029 Y24.004
N10335 X-68.041 Y24.257
N10340 X-67.039 Y24.446
N10345 X-66.028 Y24.586
N10350 X-65.013 Y24.69
N10355 X-63.996 Y24.768
N10360 X-62.977 Y24.825
N10365 X-61.958 Y24.868
N10370 X-60.938 Y24.9
N10375 X-59.918 Y24.923
N10380 X-58.898 Y24.941
N10385 X-57.878 Y24.954
N10390 X-56.858 Y24.964
N10395 X-55.837 Y24.971
N10400 X-54.817 Y24.976
N10405 X-53.797 Y24.98
N10410 X-51.756 Y24.985
N10415 X-48.696 Y24.989
N10420 X-42.574 Y24.991
N10425 X-33.392 Y24.992
N10430 X17.62
N10435 X42.367
N10440 X42.664 Y25.025
N10445 X42.946 Y25.123
N10450 X43.199 Y25.28
N10455 X43.412 Y25.49
N10460 X43.572 Y25.741
N10465 X43.674 Y26.022
N10470 G3 X43.455 Y26.743 I-0.778 J0.158 F3152.09
N10475 G1 X43.382 Y26.816 Z-2.261
N10480 X43.309 Y26.888 Z-2.24
N10485 X43.24 Y26.957 Z-2.207
N10490 X43.174 Y27.023 Z-2.161
N10495 X43.112 Y27.084 Z-2.103
N10500 X43.057 Y27.139 Z-2.035
N10505 X43.008 Y27.187 Z-1.957
N10510 X42.967 Y27.228 Z-1.871
N10515 X42.935 Y27.26 Z-1.777
N10520 X42.911 Y27.283 Z-1.679
N10525 X42.897 Y27.298 Z-1.577
N10530 X42.892 Y27.303 Z-1.474
N10535 G0 Z5.
N10540 G1 X57.857 Y27.781 F500.
N10545 G0 Z-0.68
N10550 G1 Z-1.474 F3152.09
N10555 X57.86 Y27.775 Z-1.577
N10560 X57.872 Y27.758 Z-1.679
N10565 X57.89 Y27.731 Z-1.777
N10570 X57.916 Y27.693 Z-1.871
N10575 X57.948 Y27.645 Z-1.957
N10580 X57.987 Y27.588 Z-2.035
N10585 X58.03 Y27.524 Z-2.103
N10590 X58.079 Y27.452 Z-2.161
N10595 X58.131 Y27.375 Z-2.207
N10600 X58.186 Y27.293 Z-2.24
N10605 X58.243 Y27.209 Z-2.261
N10610 X58.301 Y27.123 Z-2.267
N10615 G3 X58.889 Y26.602 I1.311 J0.886
N10620 G1 X61.04 Y25.59 F3151.86
N10625 X61.735 Y25.213
N10630 X61.966 Y25.071
N10635 X64.052 Y23.747
N10640 X64.516 Y23.442
N10645 X64.62 Y23.364
N10650 X64.747 Y23.263
N10655 X64.979 Y23.073
N10660 X67.065 Y21.347
N10665 X67.142 Y21.282
N10670 X67.297 Y21.147
N10675 X67.839 Y20.588
N10680 X69.382 Y18.944
N10685 X69.614 Y18.693
N10690 X69.786 Y18.506
N10695 X69.964 Y18.275
N10700 X70.077 Y18.125
N10705 X71.7 Y15.893
N10710 X71.805 Y15.73
N10715 X72.163 Y15.161
N10720 X72.235 Y15.036
N10725 X72.508 Y14.54
N10730 X72.881 Y13.861 Z-2.143 F3152.09
N10735 X73.108 Y13.448 Z-2.067 F3151.86
N10740 X73.38 Y12.954
N10745 X73.502 Y12.723
N10750 X73.785 Y12.154
N10755 X73.841 Y12.029
N10760 X74.712 Y9.828
N10765 X74.944 Y9.237
N10770 X75.024 Y9.022
N10775 X75.219 Y8.328
N10780 X75.754 Y6.246
N10785 X75.813 Y6.014
N10790 X75.972 Y5.32
N10795 X76.005 Y5.089
N10800 X76.065 Y4.626
N10805 X76.357 Y2.313
N10810 X76.377 Y2.082
N10815 X76.412 Y1.619
N10820 X76.419 Y1.388
N10825 Y-1.388
N10830 X76.412 Y-1.619
N10835 X76.377 Y-2.082
N10840 X76.357 Y-2.313
N10845 X76.065 Y-4.626
N10850 X76.005 Y-5.089
N10855 X75.972 Y-5.32
N10860 X75.813 Y-6.014
N10865 X75.754 Y-6.246
N10870 X75.219 Y-8.328
N10875 X75.024 Y-9.022
N10880 X74.944 Y-9.237
N10885 X74.712 Y-9.828
N10890 X74.391 Y-10.639
N10895 X74.218 Y-11.076 Z-2.143
N10900 X73.933 Y-11.797 Z-2.267 F3152.09
N10905 X73.841 Y-12.029 F3151.86
N10910 X73.785 Y-12.154
N10915 X73.502 Y-12.723
N10920 X73.38 Y-12.954
N10925 X72.235 Y-15.036
N10930 X72.163 Y-15.161
N10935 X71.805 Y-15.73
N10940 X71.7 Y-15.893
N10945 X70.077 Y-18.125
N10950 X69.846 Y-18.428
N10955 X69.786 Y-18.506
N10960 X69.574 Y-18.737
N10965 X69.359 Y-18.968
N10970 X67.839 Y-20.588
N10975 X67.297 Y-21.147
N10980 X67.142 Y-21.282
N10985 X67.065 Y-21.347
N10990 X64.907 Y-23.132
N10995 X64.747 Y-23.263
N11000 X64.62 Y-23.364
N11005 X64.516 Y-23.442
N11010 X64.052 Y-23.747
N11015 X61.998 Y-25.051
N11020 G0 Z5.
N11025 G1 X45.147 Y-29.248 F500.
N11030 G0 Z-0.68
N11035 G1 Z-1.474 F3152.09
N11040 X45.146 Y-29.242 Z-1.577
N11045 X45.142 Y-29.222 Z-1.679
N11050 X45.135 Y-29.189 Z-1.777
N11055 X45.127 Y-29.144 Z-1.871
N11060 X45.116 Y-29.087 Z-1.957
N11065 X45.103 Y-29.02 Z-2.035
N11070 X45.088 Y-28.943 Z-2.103
N11075 X45.072 Y-28.859 Z-2.161
N11080 X45.054 Y-28.767 Z-2.207
N11085 X45.035 Y-28.671 Z-2.24
N11090 X45.016 Y-28.571 Z-2.261
N11095 X44.996 Y-28.469 Z-2.267
N11100 G3 X44.661 Y-27.759 I-1.554 J-0.3
N11105 G1 X44.354 Y-27.414 F3151.86
N11110 X44.271 Y-27.296
N11115 X44.116 Y-27.065
N11120 X43.984 Y-26.833
N11125 X43.891 Y-26.641
N11130 X43.777 Y-26.371
N11135 X43.702 Y-26.139
N11140 X43.659 Y-25.96
N11145 X43.624 Y-25.814
N11150 X43.525 Y-25.546
N11155 X43.382 Y-25.251
N11160 X43.177 Y-24.917
N11165 X42.918 Y-24.575
N11170 X42.566 Y-24.196
N11175 X42.13 Y-23.809
N11180 X41.563 Y-23.399
N11185 X40.835 Y-22.974
N11190 X39.908 Y-22.549
N11195 X38.944 Y-22.215
N11200 X37.958 Y-21.955
N11205 X36.958 Y-21.751
N11210 X35.95 Y-21.593
N11215 X34.937 Y-21.47
N11220 X33.921 Y-21.374
N11225 X32.904 Y-21.301
N11230 X31.885 Y-21.244
N11235 X30.866 Y-21.2
N11240 X29.846 Y-21.166
N11245 X28.826 Y-21.14
N11250 X27.806 Y-21.12
N11255 X26.786 Y-21.104
N11260 X25.766 Y-21.092
N11265 X24.746 Y-21.083
N11270 X23.725 Y-21.076
N11275 X22.705 Y-21.071
N11280 X20.665 Y-21.064
N11285 X18.624 Y-21.06
N11290 X15.563 Y-21.057
N11295 X8.422 Y-21.054
N11300 X-4.841
N11305 X-55.854
N11310 X-64.016
N11315 X-64.506 Y-20.911
N11320 X-65.408 Y-20.435
N11325 X-66.129 Y-19.713
N11330 X-66.692 Y-18.862
N11335 X-67.129 Y-17.94
N11340 X-67.464 Y-16.977
N11345 X-67.722 Y-15.99
N11350 X-67.92 Y-14.989
N11355 X-68.071 Y-13.98
N11360 X-68.186 Y-12.966
N11365 X-68.274 Y-11.95
N11370 X-68.341 Y-10.932
N11375 X-68.392 Y-9.913
N11380 X-68.431 Y-8.893
N11385 X-68.461 Y-7.873
N11390 X-68.483 Y-6.853
N11395 X-68.5 Y-5.833
N11400 X-68.513 Y-4.813
N11405 X-68.523 Y-3.793
N11410 X-68.531 Y-2.773
N11415 X-68.536 Y-1.752
N11420 X-68.541 Y-0.732
N11425 X-68.546 Y1.308
N11430 X-68.551 Y4.369
N11435 X-68.553 Y9.47
N11440 X-68.554 Y16.612
N11445 X-68.391 Y17.095
N11450 X-67.886 Y17.982
N11455 X-67.148 Y18.687
N11460 X-66.29 Y19.238
N11465 X-65.362 Y19.664
N11470 X-64.396 Y19.991
N11475 X-63.407 Y20.243
N11480 X-62.406 Y20.435
N11485 X-61.396 Y20.583
N11490 X-60.382 Y20.695
N11495 X-59.365 Y20.781
N11500 X-58.347 Y20.846
N11505 X-57.328 Y20.896
N11510 X-56.309 Y20.934
N11515 X-55.289 Y20.963
N11520 X-54.269 Y20.985
N11525 X-53.249 Y21.002
N11530 X-52.228 Y21.014
N11535 X-51.208 Y21.024
N11540 X-50.188 Y21.031
N11545 X-49.168 Y21.037
N11550 X-48.148 Y21.041
N11555 X-46.107 Y21.047
N11560 X-43.046 Y21.051
N11565 X-37.945 Y21.053
N11570 X-15.5 Y21.054
N11575 X35.513
N11580 X38.573
N11585 X39.594 Y21.055
N11590 X40.613 Y21.09
N11595 X41.522 Y21.191
N11600 X42.26 Y21.348
N11605 X42.594 Y21.454
N11610 X42.853 Y21.567
N11615 X43.082 Y21.732
N11620 X43.272 Y21.941
N11625 X43.414 Y22.185
N11630 X43.502 Y22.454
N11635 X43.531 Y22.734
N11640 Y24.52
N11645 X43.534 Y24.752
N11650 X43.54 Y24.983
N11655 G3 X43.178 Y25.644 I-0.794 J-0.005 F3152.09
N11660 G1 X43.091 Y25.7 Z-2.261
N11665 X43.005 Y25.756 Z-2.24
N11670 X42.923 Y25.809 Z-2.207
N11675 X42.845 Y25.86 Z-2.161
N11680 X42.772 Y25.907 Z-2.103
N11685 X42.707 Y25.949 Z-2.035
N11690 X42.649 Y25.986 Z-1.957
N11695 X42.601 Y26.018 Z-1.871
N11700 X42.562 Y26.042 Z-1.777
N11705 X42.534 Y26.061 Z-1.679
N11710 X42.517 Y26.072 Z-1.577
N11715 X42.512 Y26.075 Z-1.474
N11720 G0 Z5.
N11725 G1 X43.305 Y-27.486 F500.
N11730 G0 Z-0.68
N11735 G1 Z-1.474 F3152.09
N11740 X43.307 Y-27.479 Z-1.577
N11745 X43.314 Y-27.46 Z-1.679
N11750 X43.326 Y-27.429 Z-1.777
N11755 X43.342 Y-27.386 Z-1.871
N11760 X43.362 Y-27.332 Z-1.957
N11765 X43.385 Y-27.268 Z-2.035
N11770 X43.412 Y-27.194 Z-2.103
N11775 X43.442 Y-27.113 Z-2.161
N11780 X43.474 Y-27.026 Z-2.207
N11785 X43.508 Y-26.934 Z-2.24
N11790 X43.543 Y-26.838 Z-2.261
N11795 X43.579 Y-26.741 Z-2.267
N11800 G3 X43.659 Y-25.96 I-1.485 J0.546
N11805 G1 X43.563 Y-25.446 F3151.86
N11810 X43.547 Y-25.214
N11815 X43.534 Y-24.752
N11820 X43.531 Y-24.52
N11825 Y-23.826
N11830 X43.517 Y-23.549
N11835 X43.471 Y-23.242
N11840 X43.391 Y-22.922
N11845 X43.256 Y-22.547
N11850 X43.072 Y-22.16
N11855 X42.822 Y-21.746
N11860 X42.491 Y-21.302
N11865 X42.073 Y-20.843
N11870 X41.544 Y-20.366
N11875 X40.869 Y-19.87
N11880 X40.022 Y-19.366
N11885 X39.098 Y-18.933
N11890 X38.141 Y-18.579
N11895 X37.162 Y-18.291
N11900 X36.169 Y-18.057
N11905 X35.166 Y-17.868
N11910 X34.158 Y-17.715
N11915 X33.145 Y-17.593
N11920 X32.129 Y-17.494
N11925 X31.112 Y-17.416
N11930 X30.094 Y-17.353
N11935 X29.075 Y-17.303
N11940 X28.055 Y-17.263
N11945 X27.035 Y-17.232
N11950 X26.015 Y-17.207
N11955 X24.995 Y-17.188
N11960 X23.975 Y-17.172
N11965 X22.955 Y-17.16
N11970 X21.935 Y-17.15
N11975 X20.915 Y-17.143
N11980 X19.894 Y-17.137
N11985 X18.874 Y-17.133
N11990 X16.834 Y-17.126
N11995 X13.773 Y-17.121
N12000 X9.692 Y-17.118
N12005 X-1.531 Y-17.117
N12010 X-4.591
N12015 X-55.604
N12020 X-59.685
N12025 X-60.181 Y-17.
N12030 X-61.112 Y-16.582
N12035 X-61.876 Y-15.906
N12040 X-62.486 Y-15.088
N12045 X-62.965 Y-14.187
N12050 X-63.339 Y-13.238
N12055 X-63.629 Y-12.26
N12060 X-63.855 Y-11.265
N12065 X-64.029 Y-10.259
N12070 X-64.164 Y-9.248
N12075 X-64.268 Y-8.233
N12080 X-64.348 Y-7.216
N12085 X-64.41 Y-6.198
N12090 X-64.458 Y-5.179
N12095 X-64.495 Y-4.159
N12100 X-64.523 Y-3.139
N12105 X-64.545 Y-2.119
N12110 X-64.562 Y-1.099
N12115 X-64.574 Y-0.079
N12120 X-64.584 Y0.941
N12125 X-64.592 Y1.962
N12130 X-64.598 Y2.982
N12135 X-64.602 Y4.002
N12140 X-64.608 Y6.043
N12145 X-64.613 Y9.103
N12150 X-64.615 Y12.164
N12155 X-64.504 Y12.662
N12160 X-64.093 Y13.596
N12165 X-63.421 Y14.364
N12170 X-62.605 Y14.976
N12175 X-61.706 Y15.457
N12180 X-60.757 Y15.833
N12185 X-59.779 Y16.125
N12190 X-58.785 Y16.351
N12195 X-57.78 Y16.527
N12200 X-56.768 Y16.662
N12205 X-55.753 Y16.767
N12210 X-54.736 Y16.847
N12215 X-53.718 Y16.91
N12220 X-52.699 Y16.958
N12225 X-51.679 Y16.994
N12230 X-50.66 Y17.023
N12235 X-49.64 Y17.045
N12240 X-48.619 Y17.061
N12245 X-47.599 Y17.074
N12250 X-46.579 Y17.084
N12255 X-45.559 Y17.092
N12260 X-44.539 Y17.098
N12265 X-43.518 Y17.102
N12270 X-41.478 Y17.108
N12275 X-38.417 Y17.113
N12280 X-33.316 Y17.116
N12285 X-12.911 Y17.117
N12290 X0.352
N12295 X36.061
N12300 X37.081 Y17.12
N12305 X38.101 Y17.135
N12310 X39.121 Y17.175
N12315 X40.138 Y17.257
N12320 X41.148 Y17.397
N12325 X41.999 Y17.59
N12330 X42.695 Y17.822
N12335 X42.822 Y17.879
N12340 X43.083 Y18.033
N12345 X43.303 Y18.241
N12350 X43.47 Y18.493
N12355 X43.577 Y18.776
N12360 X43.617 Y19.076
N12365 X43.59 Y19.378
N12370 X43.579 Y19.431
N12375 X43.544 Y19.894
N12380 X43.531 Y20.125
N12385 Y22.734
N12390 G3 X43.15 Y23.385 I-0.793 J-0.028 F3152.09
N12395 G1 X43.062 Y23.439 Z-2.261
N12400 X42.975 Y23.492 Z-2.24
N12405 X42.891 Y23.543 Z-2.207
N12410 X42.811 Y23.591 Z-2.161
N12415 X42.738 Y23.636 Z-2.103
N12420 X42.671 Y23.677 Z-2.035
N12425 X42.612 Y23.712 Z-1.957
N12430 X42.563 Y23.742 Z-1.871
N12435 X42.524 Y23.766 Z-1.777
N12440 X42.495 Y23.783 Z-1.679
N12445 X42.478 Y23.794 Z-1.577
N12450 X42.472 Y23.797 Z-1.474
N12455 G0 Z5.
N12460 G1 X42.904 Y-25.262 F500.
N12465 G0 Z-0.68
N12470 G1 Z-1.474 F3152.09
N12475 X42.908 Y-25.256 Z-1.577
N12480 X42.918 Y-25.239 Z-1.679
N12485 X42.935 Y-25.21 Z-1.777
N12490 X42.959 Y-25.171 Z-1.871
N12495 X42.988 Y-25.121 Z-1.957
N12500 X43.023 Y-25.062 Z-2.035
N12505 X43.063 Y-24.995 Z-2.103
N12510 X43.107 Y-24.921 Z-2.161
N12515 X43.155 Y-24.841 Z-2.207
N12520 X43.205 Y-24.756 Z-2.24
N12525 X43.257 Y-24.669 Z-2.261
N12530 X43.31 Y-24.58 Z-2.267
N12535 G3 X43.531 Y-23.826 I-1.36 J0.809
N12540 G1 Y-20.819 F3151.86
N12545 X43.511 Y-20.423
N12550 X43.462 Y-20.091
N12555 X43.363 Y-19.699
N12560 X43.217 Y-19.292
N12565 X43.006 Y-18.85
N12570 X42.719 Y-18.373
N12575 X42.35 Y-17.878
N12580 X41.877 Y-17.359
N12585 X41.268 Y-16.811
N12590 X40.519 Y-16.259
N12595 X39.642 Y-15.738
N12600 X38.722 Y-15.298
N12605 X37.77 Y-14.929
N12610 X36.798 Y-14.62
N12615 X35.811 Y-14.363
N12620 X34.813 Y-14.149
N12625 X33.809 Y-13.971
N12630 X32.799 Y-13.824
N12635 X31.786 Y-13.703
N12640 X30.771 Y-13.604
N12645 X29.754 Y-13.523
N12650 X28.736 Y-13.456
N12655 X27.717 Y-13.402
N12660 X26.697 Y-13.359
N12665 X25.678 Y-13.323
N12670 X24.658 Y-13.294
N12675 X23.638 Y-13.271
N12680 X22.618 Y-13.252
N12685 X21.598 Y-13.237
N12690 X20.578 Y-13.226
N12695 X19.557 Y-13.216
N12700 X18.537 Y-13.208
N12705 X17.517 Y-13.202
N12710 X15.476 Y-13.193
N12715 X13.436 Y-13.188
N12720 X10.375 Y-13.183
N12725 X5.274 Y-13.18
N12730 X-3.908 Y-13.179
N12735 X-54.921
N12740 X-55.431
N12745 X-55.935 Y-13.1
N12750 X-56.893 Y-12.751
N12755 X-57.696 Y-12.121
N12760 X-58.343 Y-11.333
N12765 X-58.857 Y-10.451
N12770 X-59.26 Y-9.514
N12775 X-59.576 Y-8.544
N12780 X-59.823 Y-7.554
N12785 X-60.015 Y-6.552
N12790 X-60.164 Y-5.543
N12795 X-60.28 Y-4.529
N12800 X-60.37 Y-3.513
N12805 X-60.44 Y-2.495
N12810 X-60.494 Y-1.476
N12815 X-60.536 Y-0.457
N12820 X-60.568 Y0.563
N12825 X-60.594 Y1.583
N12830 X-60.613 Y2.603
N12835 X-60.628 Y3.623
N12840 X-60.64 Y4.643
N12845 X-60.649 Y5.664
N12850 X-60.656 Y6.684
N12855 X-60.661 Y7.704
N12860 X-60.629 Y8.213
N12865 X-60.363 Y9.198
N12870 X-59.782 Y10.037
N12875 X-59.021 Y10.716
N12880 X-58.155 Y11.255
N12885 X-57.228 Y11.681
N12890 X-56.263 Y12.014
N12895 X-55.277 Y12.275
N12900 X-54.277 Y12.477
N12905 X-53.269 Y12.635
N12910 X-52.256 Y12.757
N12915 X-51.24 Y12.853
N12920 X-50.223 Y12.926
N12925 X-49.204 Y12.984
N12930 X-48.185 Y13.028
N12935 X-47.165 Y13.062
N12940 X-46.145 Y13.089
N12945 X-45.125 Y13.109
N12950 X-44.105 Y13.125
N12955 X-43.085 Y13.138
N12960 X-42.065 Y13.147
N12965 X-41.045 Y13.154
N12970 X-40.024 Y13.16
N12975 X-37.984 Y13.168
N12980 X-35.943 Y13.172
N12985 X-32.883 Y13.176
N12990 X-26.761 Y13.178
N12995 X15.069 Y13.179
N13000 X33.433
N13005 X34.454 Y13.181
N13010 X35.474 Y13.188
N13015 X36.494 Y13.204
N13020 X37.514 Y13.237
N13025 X38.532 Y13.296
N13030 X39.548 Y13.39
N13035 X40.559 Y13.53
N13040 X41.56 Y13.726
N13045 X42.381 Y13.964
N13050 X43.062 Y14.235
N13055 X43.656 Y14.543
N13060 X44.151 Y14.865
N13065 X44.602 Y15.226
N13070 X44.674 Y15.296
N13075 X44.865 Y15.53
N13080 X44.999 Y15.8
N13085 X45.069 Y16.094
N13090 X45.072 Y16.396
N13095 X45.008 Y16.69
N13100 X44.879 Y16.963
N13105 X44.693 Y17.201
N13110 G3 X43.965 Y17.397 I-0.546 J-0.576 F3152.09
N13115 G1 X43.864 Y17.373 Z-2.261
N13120 X43.765 Y17.35 Z-2.24
N13125 X43.67 Y17.327 Z-2.207
N13130 X43.579 Y17.306 Z-2.161
N13135 X43.495 Y17.286 Z-2.103
N13140 X43.419 Y17.268 Z-2.035
N13145 X43.352 Y17.252 Z-1.957
N13150 X43.296 Y17.239 Z-1.871
N13155 X43.251 Y17.229 Z-1.777
N13160 X43.219 Y17.221 Z-1.679
N13165 X43.199 Y17.216 Z-1.577
N13170 X43.193 Y17.215 Z-1.474
N13175 G0 Z5.
N13180 G1 X42.904 Y-22.255 F500.
N13185 G0 Z-0.68
N13190 G1 Z-1.474 F3152.09
N13195 X42.908 Y-22.249 Z-1.577
N13200 X42.918 Y-22.232 Z-1.679
N13205 X42.935 Y-22.203 Z-1.777
N13210 X42.959 Y-22.163 Z-1.871
N13215 X42.988 Y-22.114 Z-1.957
N13220 X43.023 Y-22.055 Z-2.035
N13225 X43.063 Y-21.988 Z-2.103
N13230 X43.107 Y-21.914 Z-2.161
N13235 X43.155 Y-21.834 Z-2.207
N13240 X43.205 Y-21.749 Z-2.24
N13245 X43.257 Y-21.662 Z-2.261
N13250 X43.31 Y-21.573 Z-2.267
N13255 G3 X43.531 Y-20.819 I-1.36 J0.809
N13260 G1 Y-20.125 F3151.86
N13265 X43.544 Y-19.894
N13270 X43.579 Y-19.431
N13275 X43.627 Y-19.2
N13280 X43.743 Y-18.737
N13285 X43.79 Y-18.61
N13290 X43.846 Y-18.43
N13295 X43.897 Y-18.185
N13300 X43.928 Y-17.887
N13305 X43.931 Y-17.554
N13310 X43.898 Y-17.193
N13315 X43.816 Y-16.769
N13320 X43.689 Y-16.342
N13325 X43.489 Y-15.849
N13330 X43.225 Y-15.348
N13335 X42.859 Y-14.794
N13340 X42.408 Y-14.239
N13345 X41.818 Y-13.642
N13350 X41.073 Y-13.026
N13355 X40.227 Y-12.455
N13360 X39.334 Y-11.962
N13365 X38.406 Y-11.539
N13370 X37.452 Y-11.177
N13375 X36.48 Y-10.867
N13380 X35.495 Y-10.603
N13385 X34.499 Y-10.379
N13390 X33.497 Y-10.189
N13395 X32.489 Y-10.029
N13400 X31.478 Y-9.894
N13405 X30.464 Y-9.78
N13410 X29.448 Y-9.686
N13415 X28.431 Y-9.607
N13420 X27.413 Y-9.541
N13425 X26.394 Y-9.487
N13430 X25.375 Y-9.442
N13435 X24.355 Y-9.405
N13440 X23.335 Y-9.374
N13445 X22.315 Y-9.349
N13450 X21.295 Y-9.329
N13455 X20.275 Y-9.312
N13460 X19.255 Y-9.298
N13465 X18.235 Y-9.287
N13470 X17.215 Y-9.278
N13475 X16.195 Y-9.271
N13480 X15.174 Y-9.265
N13485 X13.134 Y-9.257
N13490 X11.093 Y-9.251
N13495 X8.033 Y-9.246
N13500 X2.931 Y-9.243
N13505 X-2.17 Y-9.242
N13510 X-51.142
N13515 X-51.651 Y-9.216
N13520 X-52.641 Y-8.969
N13525 X-53.492 Y-8.405
N13530 X-54.184 Y-7.656
N13535 X-54.738 Y-6.799
N13540 X-55.176 Y-5.878
N13545 X-55.52 Y-4.917
N13550 X-55.789 Y-3.933
N13555 X-56. Y-2.935
N13560 X-56.165 Y-1.928
N13565 X-56.293 Y-0.916
N13570 X-56.393 Y0.099
N13575 X-56.47 Y1.117
N13580 X-56.531 Y2.135
N13585 X-56.578 Y3.154
N13590 X-56.615 Y4.174
N13595 X-56.495 Y4.67
N13600 X-56.08 Y5.602
N13605 X-55.414 Y6.374
N13610 X-54.604 Y6.994
N13615 X-53.71 Y7.486
N13620 X-52.766 Y7.873
N13625 X-51.791 Y8.176
N13630 X-50.799 Y8.412
N13635 X-49.795 Y8.597
N13640 X-48.785 Y8.741
N13645 X-47.771 Y8.852
N13650 X-46.755 Y8.939
N13655 X-45.737 Y9.007
N13660 X-44.718 Y9.06
N13665 X-43.698 Y9.1
N13670 X-42.679 Y9.132
N13675 X-41.659 Y9.157
N13680 X-40.639 Y9.176
N13685 X-39.619 Y9.191
N13690 X-38.598 Y9.202
N13695 X-37.578 Y9.211
N13700 X-36.558 Y9.218
N13705 X-35.538 Y9.223
N13710 X-33.497 Y9.231
N13715 X-31.457 Y9.235
N13720 X-28.396 Y9.239
N13725 X-22.275 Y9.241
N13730 X28.738 Y9.242
N13735 X30.778
N13740 X31.799 Y9.243
N13745 X32.819 Y9.246
N13750 X33.839 Y9.253
N13755 X34.859 Y9.268
N13760 X35.879 Y9.294
N13765 X36.898 Y9.337
N13770 X37.916 Y9.404
N13775 X38.932 Y9.499
N13780 X39.944 Y9.629
N13785 X40.949 Y9.805
N13790 X41.943 Y10.037
N13795 X42.918 Y10.336
N13800 X43.868 Y10.709
N13805 X44.698 Y11.121
N13810 X45.339 Y11.523
N13815 X45.888 Y11.947
N13820 X46.338 Y12.371
N13825 X46.713 Y12.803
N13830 X47.034 Y13.254
N13835 X47.286 Y13.695
N13840 X47.495 Y14.162
N13845 X47.576 Y14.403
N13850 X47.64 Y14.715
N13855 X47.629 Y15.033
N13860 X47.544 Y15.34
N13865 X47.389 Y15.618
N13870 X47.173 Y15.852
N13875 X46.907 Y16.028
N13880 X46.608 Y16.137
N13885 G3 X45.888 Y15.915 I-0.154 J-0.779 F3152.09
N13890 G1 X45.815 Y15.841 Z-2.261
N13895 X45.744 Y15.768 Z-2.24
N13900 X45.675 Y15.698 Z-2.207
N13905 X45.61 Y15.632 Z-2.161
N13910 X45.549 Y15.57 Z-2.103
N13915 X45.494 Y15.515 Z-2.035
N13920 X45.446 Y15.466 Z-1.957
N13925 X45.406 Y15.425 Z-1.871
N13930 X45.374 Y15.392 Z-1.777
N13935 X45.35 Y15.368 Z-1.679
N13940 X45.336 Y15.354 Z-1.577
N13945 X45.331 Y15.349 Z-1.474
N13950 G0 Z5.
N13955 G1 X42.706 Y-19.741 F500.
N13960 G0 Z-0.68
N13965 G1 Z-1.474 F3152.09
N13970 X42.711 Y-19.737 Z-1.577
N13975 X42.727 Y-19.724 Z-1.679
N13980 X42.753 Y-19.703 Z-1.777
N13985 X42.788 Y-19.674 Z-1.871
N13990 X42.833 Y-19.638 Z-1.957
N13995 X42.886 Y-19.595 Z-2.035
N14000 X42.947 Y-19.545 Z-2.103
N14005 X43.014 Y-19.491 Z-2.161
N14010 X43.086 Y-19.432 Z-2.207
N14015 X43.163 Y-19.37 Z-2.24
N14020 X43.242 Y-19.306 Z-2.261
N14025 X43.322 Y-19.241 Z-2.267
N14030 G3 X43.79 Y-18.61 I-0.997 J1.229
N14035 G1 X43.828 Y-18.506 F3151.86
N14040 X43.891 Y-18.353
N14045 X44.049 Y-18.043
N14050 X44.122 Y-17.923
N14055 X44.195 Y-17.812
N14060 X44.354 Y-17.588
N14065 X44.548 Y-17.349
N14070 X44.586 Y-17.31
N14075 X44.686 Y-17.198
N14080 X44.81 Y-17.019
N14085 X44.932 Y-16.801
N14090 X45.039 Y-16.554
N14095 X45.137 Y-16.254
N14100 X45.207 Y-15.931
N14105 X45.252 Y-15.545
N14110 X45.259 Y-15.142
N14115 X45.22 Y-14.668
N14120 X45.132 Y-14.183
N14125 X44.972 Y-13.621
N14130 X44.749 Y-13.057
N14135 X44.421 Y-12.419
N14140 X44.015 Y-11.789
N14145 X43.474 Y-11.109
N14150 X42.789 Y-10.403
N14155 X42.01 Y-9.744
N14160 X41.176 Y-9.157
N14165 X40.297 Y-8.639
N14170 X39.385 Y-8.182
N14175 X38.447 Y-7.781
N14180 X37.489 Y-7.429
N14185 X36.516 Y-7.122
N14190 X35.531 Y-6.855
N14195 X34.538 Y-6.623
N14200 X33.538 Y-6.422
N14205 X32.532 Y-6.249
N14210 X31.523 Y-6.101
N14215 X30.51 Y-5.974
N14220 X29.496 Y-5.866
N14225 X28.48 Y-5.774
N14230 X27.462 Y-5.696
N14235 X26.444 Y-5.63
N14240 X25.426 Y-5.575
N14245 X24.406 Y-5.528
N14250 X23.387 Y-5.489
N14255 X22.367 Y-5.457
N14260 X21.347 Y-5.43
N14265 X20.327 Y-5.407
N14270 X19.307 Y-5.389
N14275 X18.287 Y-5.373
N14280 X17.267 Y-5.36
N14285 X16.247 Y-5.35
N14290 X15.227 Y-5.341
N14295 X14.206 Y-5.334
N14300 X13.186 Y-5.329
N14305 X11.146 Y-5.32
N14310 X9.105 Y-5.315
N14315 X6.044 Y-5.309
N14320 X0.943 Y-5.306
N14325 X-10.28 Y-5.304
N14330 X-47.519
N14335 X-48.02 Y-5.211
N14340 X-48.973 Y-4.847
N14345 X-49.773 Y-4.213
N14350 X-50.42 Y-3.425
N14355 X-50.935 Y-2.544
N14360 X-51.342 Y-1.608
N14365 X-51.662 Y-0.64
N14370 X-51.788 Y-0.145
N14375 X-51.84 Y0.362
N14380 X-51.742 Y0.863
N14385 X-51.336 Y1.799
N14390 X-50.659 Y2.562
N14395 X-49.838 Y3.168
N14400 X-48.936 Y3.644
N14405 X-47.986 Y4.015
N14410 X-47.007 Y4.304
N14415 X-46.012 Y4.529
N14420 X-45.007 Y4.703
N14425 X-43.995 Y4.838
N14430 X-42.981 Y4.943
N14435 X-41.964 Y5.025
N14440 X-40.945 Y5.088
N14445 X-39.926 Y5.136
N14450 X-38.907 Y5.174
N14455 X-37.887 Y5.204
N14460 X-36.867 Y5.226
N14465 X-35.847 Y5.244
N14470 X-34.827 Y5.257
N14475 X-33.806 Y5.268
N14480 X-32.786 Y5.276
N14485 X-31.766 Y5.282
N14490 X-30.746 Y5.287
N14495 X-28.705 Y5.294
N14500 X-25.645 Y5.299
N14505 X-21.564 Y5.302
N14510 X-11.361 Y5.304
N14515 X-8.3
N14520 X28.429
N14525 X29.449 Y5.305
N14530 X30.469 Y5.307
N14535 X31.489 Y5.311
N14540 X32.509 Y5.32
N14545 X33.53 Y5.335
N14550 X34.55 Y5.359
N14555 X35.569 Y5.397
N14560 X36.588 Y5.451
N14565 X37.606 Y5.525
N14570 X38.621 Y5.624
N14575 X39.633 Y5.756
N14580 X40.639 Y5.924
N14585 X41.638 Y6.133
N14590 X42.626 Y6.386
N14595 X43.599 Y6.692
N14600 X44.552 Y7.056
N14605 X45.478 Y7.484
N14610 X46.37 Y7.981
N14615 X47.216 Y8.55
N14620 X48.009 Y9.192
N14625 X48.7 Y9.875
N14630 X49.257 Y10.545
N14635 X49.691 Y11.186
N14640 X50.012 Y11.779
N14645 X50.246 Y12.336
N14650 X50.419 Y12.897
N14655 X50.525 Y13.414
N14660 X50.579 Y13.944
N14665 X50.581 Y14.427
N14670 X50.558 Y14.676
N14675 X50.494 Y14.978
N14680 X50.362 Y15.258
N14685 X50.17 Y15.5
N14690 X49.927 Y15.692
N14695 X49.647 Y15.824
N14700 X49.345 Y15.888
N14705 X48.989 Y15.92
N14710 X47.598 Y16.015
N14715 X47.367 Y16.036
N14720 X46.903 Y16.087
N14725 X46.671 Y16.122
N14730 X46.608 Y16.137
N14735 G3 X45.888 Y15.915 I-0.154 J-0.779 F3152.09
N14740 G1 X45.815 Y15.841 Z-2.261
N14745 X45.744 Y15.768 Z-2.24
N14750 X45.675 Y15.698 Z-2.207
N14755 X45.61 Y15.632 Z-2.161
N14760 X45.549 Y15.57 Z-2.103
N14765 X45.494 Y15.515 Z-2.035
N14770 X45.446 Y15.466 Z-1.957
N14775 X45.406 Y15.425 Z-1.871
N14780 X45.374 Y15.392 Z-1.777
N14785 X45.35 Y15.368 Z-1.679
N14790 X45.336 Y15.354 Z-1.577
N14795 X45.331 Y15.349 Z-1.474
N14800 G0 Z5.
N14805 G1 X43.132 Y-17.892 F500.
N14810 G0 Z-0.68
N14815 G1 Z-1.474 F3152.09
N14820 X43.138 Y-17.891 Z-1.577
N14825 X43.158 Y-17.886 Z-1.679
N14830 X43.19 Y-17.877 Z-1.777
N14835 X43.234 Y-17.865 Z-1.871
N14840 X43.29 Y-17.851 Z-1.957
N14845 X43.356 Y-17.833 Z-2.035
N14850 X43.432 Y-17.814 Z-2.103
N14855 X43.515 Y-17.792 Z-2.161
N14860 X43.605 Y-17.768 Z-2.207
N14865 X43.701 Y-17.743 Z-2.24
N14870 X43.799 Y-17.717 Z-2.261
N14875 X43.899 Y-17.691 Z-2.267
N14880 G3 X44.586 Y-17.31 I-0.401 J1.531
N14885 G1 X44.775 Y-17.118 F3151.86
N14890 X45.04 Y-16.887
N14895 X45.281 Y-16.712
N14900 X45.365 Y-16.655
N14905 X45.513 Y-16.57
N14910 X45.745 Y-16.442
N14915 X45.876 Y-16.37
N14920 X46.006 Y-16.295
N14925 X46.13 Y-16.211
N14930 X46.248 Y-16.119
N14935 X46.361 Y-16.019
N14940 X46.466 Y-15.913
N14945 X46.566 Y-15.8
N14950 X46.659 Y-15.683
N14955 X46.747 Y-15.561
N14960 X46.828 Y-15.435
N14965 X46.904 Y-15.306
N14970 X46.974 Y-15.173
N14975 X47.038 Y-15.038
N14980 X47.097 Y-14.9
N14985 X47.151 Y-14.76
N14990 X47.198 Y-14.617
N14995 X47.241 Y-14.474
N15000 X47.279 Y-14.329
N15005 X47.312 Y-14.182
N15010 X47.34 Y-14.035
N15015 X47.364 Y-13.887
N15020 X47.382 Y-13.738
N15025 X47.396 Y-13.589
N15030 X47.406 Y-13.439
N15035 X47.412 Y-13.289
N15040 X47.414 Y-13.139
N15045 X47.411 Y-12.989
N15050 X47.404 Y-12.839
N15055 X47.394 Y-12.69
N15060 X47.379 Y-12.54
N15065 X47.362 Y-12.391
N15070 X47.34 Y-12.243
N15075 X47.316 Y-12.095
N15080 X47.287 Y-11.948
N15085 X47.255 Y-11.801
N15090 X47.22 Y-11.655
N15095 X47.182 Y-11.51
N15100 X47.141 Y-11.366
N15105 X47.097 Y-11.222
N15110 X47.051 Y-11.08
N15115 X47.001 Y-10.938
N15120 X46.949 Y-10.798
N15125 X46.894 Y-10.658
N15130 X46.836 Y-10.52
N15135 X46.775 Y-10.382
N15140 X46.713 Y-10.246
N15145 X46.647 Y-10.111
N15150 X46.58 Y-9.977
N15155 X46.511 Y-9.844
N15160 X46.439 Y-9.712
N15165 X46.365 Y-9.582
N15170 X46.288 Y-9.453
N15175 X46.21 Y-9.325
N15180 X46.129 Y-9.199
N15185 X46.047 Y-9.073
N15190 X45.963 Y-8.949
N15195 X45.877 Y-8.826
N15200 X45.789 Y-8.704
N15205 X45.699 Y-8.584
N15210 X45.608 Y-8.465
N15215 X45.515 Y-8.348
N15220 X45.42 Y-8.231
N15225 X45.324 Y-8.117
N15230 X45.226 Y-8.003
N15235 X45.126 Y-7.89
N15240 X45.026 Y-7.779
N15245 X44.924 Y-7.669
N15250 X44.82 Y-7.561
N15255 X44.715 Y-7.454
N15260 X44.609 Y-7.348
N15265 X44.501 Y-7.244
N15270 X44.392 Y-7.14
N15275 X44.282 Y-7.038
N15280 X44.171 Y-6.938
N15285 X44.059 Y-6.838
N15290 X43.945 Y-6.74
N15295 X43.831 Y-6.643
N15300 X43.715 Y-6.548
N15305 X43.598 Y-6.453
N15310 X43.481 Y-6.36
N15315 X43.362 Y-6.269
N15320 X43.243 Y-6.178
N15325 X43.122 Y-6.088
N15330 X43.001 Y-6.
N15335 X42.879 Y-5.913
N15340 X42.755 Y-5.828
N15345 X42.631 Y-5.743
N15350 X42.505 Y-5.659
N15355 X42.373 Y-5.573
N15360 X42.245 Y-5.49
N15365 X42.118 Y-5.41
N15370 X41.99 Y-5.332
N15375 X41.86 Y-5.253
N15380 X41.725 Y-5.173
N15385 X41.582 Y-5.091
N15390 X41.433 Y-5.006
N15395 X41.279 Y-4.921
N15400 X41.138 Y-4.845
N15405 X40.996 Y-4.769
N15410 X40.847 Y-4.692
N15415 X40.691 Y-4.612
N15420 X40.526 Y-4.531
N15425 X40.353 Y-4.446
N15430 X40.179 Y-4.364
N15435 X40.019 Y-4.29
N15440 X39.852 Y-4.214
N15445 X39.675 Y-4.136
N15450 X39.488 Y-4.056
N15455 X39.291 Y-3.973
N15460 X39.096 Y-3.893
N15465 X38.912 Y-3.82
N15470 X38.717 Y-3.744
N15475 X38.511 Y-3.666
N15480 X38.292 Y-3.586
N15485 X38.066 Y-3.505
N15490 X37.859 Y-3.433
N15495 X37.638 Y-3.359
N15500 X37.403 Y-3.282
N15505 X37.152 Y-3.202
N15510 X36.907 Y-3.127
N15515 X36.665 Y-3.055
N15520 X36.407 Y-2.981
N15525 X36.128 Y-2.904
N15530 X35.849 Y-2.829
N15535 X35.576 Y-2.758
N15540 X35.281 Y-2.685
N15545 X34.962 Y-2.609
N15550 X34.732 Y-2.557
N15555 X34.42 Y-2.487
N15560 X34.079 Y-2.415
N15565 X33.722 Y-2.342
N15570 X33.373 Y-2.274
N15575 X32.989 Y-2.204
N15580 X32.591 Y-2.134
N15585 X32.186 Y-2.067
N15590 X31.735 Y-1.996
N15595 X31.295 Y-1.931
N15600 X30.804 Y-1.863
N15605 X30.298 Y-1.798
N15610 X29.746 Y-1.732
N15615 X29.17 Y-1.669
N15620 X28.525 Y-1.603
N15625 X27.858 Y-1.542
N15630 X27.109 Y-1.48
N15635 X26.276 Y-1.418
N15640 X25.344 Y-1.358
N15645 X24.325 Y-1.301
N15650 X23.306 Y-1.253
N15655 X22.286 Y-1.213
N15660 X21.267 Y-1.179
N15665 X20.247 Y-1.151
N15670 X19.227 Y-1.127
N15675 X18.207 Y-1.107
N15680 X17.187 Y-1.09
N15685 X16.167 Y-1.077
N15690 X15.146 Y-1.065
N15695 X14.126 Y-1.056
N15700 X13.106 Y-1.048
N15705 X12.086 Y-1.041
N15710 X10.045 Y-1.032
N15715 X8.005 Y-1.025
N15720 X5.964 Y-1.021
N15725 X1.883 Y-1.016
N15730 X-4.238 Y-1.013
N15735 X-28.724 Y-1.012
N15740 X-43.518
N15745 X-43.643 Y-0.988
N15750 X-43.767 Y-0.957
N15755 G3 X-44.489 Y-1.171 I-0.163 J-0.777 F3152.09
N15760 G1 X-44.563 Y-1.244 Z-2.261
N15765 X-44.635 Y-1.316 Z-2.24
N15770 X-44.705 Y-1.385 Z-2.207
N15775 X-44.771 Y-1.451 Z-2.161
N15780 X-44.832 Y-1.512 Z-2.103
N15785 X-44.888 Y-1.567 Z-2.035
N15790 X-44.936 Y-1.615 Z-1.957
N15795 X-44.977 Y-1.655 Z-1.871
N15800 X-45.01 Y-1.688 Z-1.777
N15805 X-45.033 Y-1.711 Z-1.679
N15810 X-45.048 Y-1.726 Z-1.577
N15815 X-45.053 Y-1.73 Z-1.474
N15820 G0 Z5.
N15825 G1 X44.178 Y-16.487 F500.
N15830 G0 Z-0.68
N15835 G1 Z-1.474 F3152.09
N15840 X44.185 Z-1.577
N15845 X44.205 Y-16.489 Z-1.679
N15850 X44.239 Y-16.492 Z-1.777
N15855 X44.284 Y-16.497 Z-1.871
N15860 X44.342 Y-16.502 Z-1.957
N15865 X44.41 Y-16.509 Z-2.035
N15870 X44.488 Y-16.516 Z-2.103
N15875 X44.573 Y-16.525 Z-2.161
N15880 X44.666 Y-16.534 Z-2.207
N15885 X44.764 Y-16.543 Z-2.24
N15890 X44.865 Y-16.553 Z-2.261
N15895 X44.968 Y-16.563 Z-2.267
N15900 G3 X45.745 Y-16.442 I0.152 J1.575
N15905 G1 X45.783 Y-16.424 F3151.86
N15910 X45.976 Y-16.34
N15915 X46.208 Y-16.252
N15920 X46.388 Y-16.193
N15925 X46.44 Y-16.177
N15930 X46.671 Y-16.122
N15935 X46.903 Y-16.087
N15940 X47.135 Y-16.061
N15945 X47.341 Y-16.028
N15950 X47.536 Y-15.977
N15955 X47.747 Y-15.898
N15960 X47.972 Y-15.788
N15965 X48.208 Y-15.642
N15970 X48.45 Y-15.458
N15975 X48.694 Y-15.23
N15980 X48.936 Y-14.955
N15985 X49.17 Y-14.63
N15990 X49.389 Y-14.252
N15995 X49.586 Y-13.818
N16000 X49.754 Y-13.325
N16005 X49.883 Y-12.774
N16010 X49.964 Y-12.161
N16015 X49.987 Y-11.486
N16020 X49.938 Y-10.752
N16025 X49.807 Y-9.957
N16030 X49.579 Y-9.107
N16035 X49.238 Y-8.204
N16040 X48.786 Y-7.29
N16045 X48.249 Y-6.422
N16050 X47.64 Y-5.604
N16055 X46.97 Y-4.835
N16060 X46.246 Y-4.116
N16065 X45.476 Y-3.446
N16070 X44.667 Y-2.825
N16075 X43.824 Y-2.25
N16080 X42.952 Y-1.72
N16085 X42.84 Y-1.659
N16090 X41.942 Y-1.176
N16095 X41.022 Y-0.734
N16100 X40.085 Y-0.33
N16105 X39.133 Y0.037
N16110 X38.892 Y0.12
N16115 G3 X37.903 Y-0.409 Z-2.067 I-0.23 J-0.76 F3152.09
N16120 X37.974 Y-1.035 I0.76 J-0.231
N16125 G1 X46.211 Y-15.358
N16130 X46.388 Y-15.665 Z-2.124
N16135 G3 X47.135 Y-16.061 Z-2.267 I0.688 J0.396
N16140 G1 X47.367 Y-16.036 F3151.86
N16145 X47.598 Y-16.015
N16150 X48.989 Y-15.92
N16155 X49.221 Y-15.899
N16160 X49.538 Y-15.853
N16165 X49.686 Y-15.831
N16170 X49.833 Y-15.799
N16175 X49.977 Y-15.76
N16180 X50.12 Y-15.712
N16185 X50.259 Y-15.657
N16190 X50.396 Y-15.595
N16195 X50.53 Y-15.528
N16200 X50.661 Y-15.454
N16205 X50.788 Y-15.375
N16210 X50.912 Y-15.29
N16215 X51.032 Y-15.201
N16220 X51.149 Y-15.107
N16225 X51.263 Y-15.009
N16230 X51.373 Y-14.907
N16235 X51.479 Y-14.801
N16240 X51.582 Y-14.692
N16245 X51.681 Y-14.579
N16250 X51.776 Y-14.463
N16255 X51.868 Y-14.345
N16260 X51.956 Y-14.223
N16265 X52.041 Y-14.099
N16270 X52.122 Y-13.973
N16275 X52.199 Y-13.845
N16280 X52.274 Y-13.715
N16285 X52.344 Y-13.582
N16290 X52.411 Y-13.448
N16295 X52.474 Y-13.312
N16300 X52.535 Y-13.175
N16305 X52.592 Y-13.036
N16310 X52.645 Y-12.896
N16315 X52.696 Y-12.755
N16320 X52.743 Y-12.612
N16325 X52.787 Y-12.469
N16330 X52.827 Y-12.324
N16335 X52.865 Y-12.179
N16340 X52.899 Y-12.033
N16345 X52.931 Y-11.886
N16350 X52.96 Y-11.739
N16355 X52.985 Y-11.591
N16360 X53.008 Y-11.443
N16365 X53.028 Y-11.294
N16370 X53.045 Y-11.145
N16375 X53.059 Y-10.996
N16380 X53.07 Y-10.846
N16385 X53.079 Y-10.697
N16390 X53.085 Y-10.547
N16395 X53.089 Y-10.397
N16400 X53.09 Y-10.247
N16405 X53.088 Y-10.097
N16410 X53.084 Y-9.947
N16415 X53.077 Y-9.797
N16420 X53.068 Y-9.647
N16425 X53.056 Y-9.498
N16430 X53.042 Y-9.348
N16435 X53.027 Y-9.199
N16440 X53.008 Y-9.05
N16445 X52.988 Y-8.902
N16450 X52.965 Y-8.754
N16455 X52.94 Y-8.606
N16460 X52.912 Y-8.458
N16465 X52.883 Y-8.311
N16470 X52.851 Y-8.165
N16475 X52.818 Y-8.018
N16480 X52.782 Y-7.873
N16485 X52.745 Y-7.727
N16490 X52.705 Y-7.583
N16495 X52.664 Y-7.439
N16500 X52.62 Y-7.295
N16505 X52.575 Y-7.152
N16510 X52.527 Y-7.01
N16515 X52.478 Y-6.868
N16520 X52.428 Y-6.727
N16525 X52.376 Y-6.586
N16530 X52.321 Y-6.446
N16535 X52.265 Y-6.307
N16540 X52.208 Y-6.169
N16545 X52.148 Y-6.031
N16550 X52.087 Y-5.894
N16555 X52.025 Y-5.758
N16560 X51.96 Y-5.622
N16565 X51.895 Y-5.487
N16570 X51.828 Y-5.353
N16575 X51.759 Y-5.219
N16580 X51.689 Y-5.087
N16585 X51.617 Y-4.955
N16590 X51.544 Y-4.824
N16595 X51.47 Y-4.694
N16600 X51.394 Y-4.565
N16605 X51.316 Y-4.436
N16610 X51.238 Y-4.308
N16615 X51.158 Y-4.181
N16620 X51.077 Y-4.055
N16625 X50.995 Y-3.93
N16630 X50.911 Y-3.805
N16635 X50.826 Y-3.682
N16640 X50.739 Y-3.559
N16645 X50.65 Y-3.434
N16650 X50.562 Y-3.313
N16655 X50.472 Y-3.193
N16660 X50.381 Y-3.074
N16665 X50.289 Y-2.955
N16670 X50.196 Y-2.838
N16675 X50.1 Y-2.719
N16680 X50. Y-2.597
N16685 X49.894 Y-2.471
N16690 X49.792 Y-2.352
N16695 X49.694 Y-2.239
N16700 X49.594 Y-2.127
N16705 X49.493 Y-2.015
N16710 X49.386 Y-1.899
N16715 X49.274 Y-1.779
N16720 X49.156 Y-1.655
N16725 X49.032 Y-1.528
N16730 X48.919 Y-1.414
N16735 X48.811 Y-1.307
N16740 X48.697 Y-1.196
N16745 X48.577 Y-1.081
N16750 X48.451 Y-0.962
N16755 X48.318 Y-0.84
N16760 X48.178 Y-0.712
N16765 X48.046 Y-0.596
N16770 X47.924 Y-0.488
N16775 X47.797 Y-0.38
N16780 X47.665 Y-0.268
N16785 X47.45 Y-0.092
N16790 X47.298 Y0.03
N16795 X47.137 Y0.157
N16800 X46.989 Y0.272
N16805 X46.847 Y0.38
N16810 X46.642 Y0.533
N16815 X46.471 Y0.721
N16820 X46.337 Y0.939
N16825 X46.248 Y1.177
N16830 X46.205 Y1.429
N16835 X46.21 Y1.684
N16840 X46.263 Y1.933
N16845 X46.363 Y2.168
N16850 X46.931 Y3.015
N16855 X47.585 Y3.5
N16860 X47.89 Y3.73
N16865 X48.121 Y3.908
N16870 X48.37 Y4.103
N16875 X48.638 Y4.317
N16880 X48.846 Y4.486
N16885 X49.001 Y4.615
N16890 X49.157 Y4.746
N16895 X49.32 Y4.887
N16900 X49.491 Y5.037
N16905 X49.665 Y5.191
N16910 X49.805 Y5.318
N16915 X49.923 Y5.428
N16920 X50.042 Y5.54
N16925 X50.165 Y5.658
N16930 X50.292 Y5.782
N16935 X50.424 Y5.913
N16940 X50.548 Y6.039
N16945 X50.653 Y6.148
N16950 X50.757 Y6.256
N16955 X50.859 Y6.366
N16960 X50.96 Y6.476
N16965 X51.062 Y6.59
N16970 X51.167 Y6.708
N16975 X51.265 Y6.822
N16980 X51.362 Y6.936
N16985 X51.458 Y7.051
N16990 X51.553 Y7.168
N16995 X51.646 Y7.285
N17000 X51.739 Y7.403
N17005 X51.83 Y7.523
N17010 X51.919 Y7.643
N17015 X52.008 Y7.764
N17020 X52.095 Y7.886
N17025 X52.181 Y8.009
N17030 X52.265 Y8.133
N17035 X52.347 Y8.258
N17040 X52.429 Y8.384
N17045 X52.509 Y8.511
N17050 X52.587 Y8.639
N17055 X52.663 Y8.768
N17060 X52.738 Y8.898
N17065 X52.812 Y9.029
N17070 X52.883 Y9.161
N17075 X52.954 Y9.293
N17080 X53.022 Y9.427
N17085 X53.088 Y9.561
N17090 X53.153 Y9.697
N17095 X53.216 Y9.833
N17100 X53.277 Y9.97
N17105 X53.336 Y10.108
N17110 X53.393 Y10.247
N17115 X53.448 Y10.386
N17120 X53.502 Y10.526
N17125 X53.553 Y10.667
N17130 X53.602 Y10.809
N17135 X53.65 Y10.951
N17140 X53.695 Y11.094
N17145 X53.738 Y11.238
N17150 X53.778 Y11.382
N17155 X53.817 Y11.527
N17160 X53.853 Y11.673
N17165 X53.886 Y11.819
N17170 X53.917 Y11.966
N17175 X53.945 Y12.113
N17180 X53.971 Y12.261
N17185 X53.995 Y12.409
N17190 X54.015 Y12.558
N17195 X54.032 Y12.707
N17200 X54.046 Y12.856
N17205 X54.057 Y13.006
N17210 X54.065 Y13.156
N17215 X54.07 Y13.306
N17220 X54.071 Y13.456
N17225 X54.069 Y13.606
N17230 X54.063 Y13.763
N17235 X54.008 Y14.072
N17240 X53.883 Y14.359
N17245 X53.695 Y14.61
N17250 X53.453 Y14.81
N17255 X53.172 Y14.948
N17260 X52.233 Y15.282
N17265 X51.466 Y15.499
N17270 X51.306 Y15.535
N17275 X49.916 Y15.824
N17280 X49.684 Y15.856
N17285 X49.345 Y15.888
N17290 G3 X48.662 Y15.569 I-0.046 J-0.792 F3152.09
N17295 G1 X48.6 Y15.486 Z-2.261
N17300 X48.539 Y15.404 Z-2.24
N17305 X48.481 Y15.325 Z-2.207
N17310 X48.425 Y15.25 Z-2.161
N17315 X48.373 Y15.181 Z-2.103
N17320 X48.327 Y15.118 Z-2.035
N17325 X48.286 Y15.064 Z-1.957
N17330 X48.252 Y15.017 Z-1.871
N17335 X48.224 Y14.98 Z-1.777
N17340 X48.204 Y14.954 Z-1.679
N17345 X48.192 Y14.937 Z-1.577
N17350 X48.188 Y14.932 Z-1.474
N17355 G0 Z5.
N17360 G1 X47.734 Y-15.404 F500.
N17365 G0 Z-0.68
N17370 G1 Z-1.474 F3152.09
N17375 X47.74 Y-15.407 Z-1.577
N17380 X47.759 Y-15.416 Z-1.679
N17385 X47.789 Y-15.43 Z-1.777
N17390 X47.83 Y-15.45 Z-1.871
N17395 X47.882 Y-15.475 Z-1.957
N17400 X47.944 Y-15.504 Z-2.035
N17405 X48.014 Y-15.538 Z-2.103
N17410 X48.092 Y-15.575 Z-2.161
N17415 X48.176 Y-15.616 Z-2.207
N17420 X48.265 Y-15.658 Z-2.24
N17425 X48.357 Y-15.702 Z-2.261
N17430 X48.45 Y-15.747 Z-2.267
N17435 G3 X49.221 Y-15.899 I0.683 J1.428
N17440 G1 X49.684 Y-15.856 F3151.86
N17445 X49.916 Y-15.824
N17450 X51.306 Y-15.535
N17455 X51.466 Y-15.499
N17460 X52.233 Y-15.282
N17465 X52.925 Y-15.036
N17470 X53.214 Y-14.917
N17475 X53.521 Y-14.753
N17480 X53.842 Y-14.539
N17485 X54.17 Y-14.27
N17490 X54.501 Y-13.939
N17495 X54.829 Y-13.539
N17500 X55.144 Y-13.068
N17505 X55.438 Y-12.517
N17510 X55.701 Y-11.881
N17515 X55.919 Y-11.158
N17520 X56.08 Y-10.342
N17525 X56.168 Y-9.432
N17530 X56.166 Y-8.426
N17535 X56.063 Y-7.41
N17540 X55.87 Y-6.409
N17545 X55.595 Y-5.426
N17550 X55.246 Y-4.467
N17555 X54.831 Y-3.535
N17560 X54.356 Y-2.633
N17565 X53.825 Y-1.761
N17570 X53.681 Y-1.551
N17575 X53.475 Y-1.084
N17580 X53.338 Y-0.073
N17585 X53.484 Y0.936
N17590 X53.783 Y1.912
N17595 X54.17 Y2.856
N17600 X54.605 Y3.779
N17605 X55.059 Y4.692
N17610 X55.512 Y5.607
N17615 X55.948 Y6.529
N17620 X56.354 Y7.465
N17625 X56.719 Y8.418
N17630 X57.032 Y9.389
N17635 X57.283 Y10.378
N17640 X57.453 Y11.348
N17645 X57.481 Y11.721
N17650 X57.473 Y11.995
N17655 X57.41 Y12.263
N17660 X57.294 Y12.511
N17665 X57.129 Y12.732
N17670 X56.923 Y12.914
N17675 X55.941 Y13.607
N17680 X55.87 Y13.648
N17685 X55.456 Y13.879
N17690 X55.246 Y13.989
N17695 X54.551 Y14.35
N17700 X54.319 Y14.468
N17705 X53.856 Y14.702
N17710 X53.624 Y14.788
N17715 X53.172 Y14.948
N17720 G3 X52.432 Y14.807 I-0.24 J-0.757 F3152.09
N17725 G1 X52.351 Y14.742 Z-2.261
N17730 X52.272 Y14.678 Z-2.24
N17735 X52.196 Y14.616 Z-2.207
N17740 X52.124 Y14.557 Z-2.161
N17745 X52.057 Y14.502 Z-2.103
N17750 X51.996 Y14.453 Z-2.035
N17755 X51.943 Y14.41 Z-1.957
N17760 X51.898 Y14.373 Z-1.871
N17765 X51.863 Y14.344 Z-1.777
N17770 X51.837 Y14.323 Z-1.679
N17775 X51.821 Y14.311 Z-1.577
N17780 X51.816 Y14.306 Z-1.474
N17785 G0 Z5.
N17790 G1 X51.558 Y-14.915 F500.
N17795 G0 Z-0.68
N17800 G1 Z-1.474 F3152.09
N17805 X51.565 Y-14.916 Z-1.577
N17810 X51.585 Y-14.92 Z-1.679
N17815 X51.618 Y-14.927 Z-1.777
N17820 X51.663 Y-14.936 Z-1.871
N17825 X51.719 Y-14.947 Z-1.957
N17830 X51.786 Y-14.96 Z-2.035
N17835 X51.863 Y-14.975 Z-2.103
N17840 X51.948 Y-14.992 Z-2.161
N17845 X52.039 Y-15.01 Z-2.207
N17850 X52.136 Y-15.029 Z-2.24
N17855 X52.235 Y-15.049 Z-2.261
N17860 X52.337 Y-15.069 Z-2.267
N17865 G3 X52.925 Y-15.036 I0.23 J1.164
N17870 G1 X53.624 Y-14.788 F3151.86
N17875 X53.856 Y-14.702
N17880 X54.319 Y-14.468
N17885 X54.565 Y-14.342
N17890 X55.246 Y-13.989
N17895 X55.456 Y-13.879
N17900 X55.87 Y-13.648
N17905 X55.941 Y-13.607
N17910 X56.867 Y-12.954
N17915 X57.214 Y-12.682
N17920 X57.528 Y-12.381
N17925 X57.834 Y-12.025
N17930 X58.151 Y-11.573
N17935 X58.432 Y-11.073
N17940 X58.705 Y-10.451
N17945 X58.928 Y-9.766
N17950 X59.105 Y-8.966
N17955 X59.215 Y-8.041
N17960 X59.236 Y-7.021
N17965 X59.156 Y-6.004
N17970 X58.987 Y-4.998
N17975 X58.74 Y-4.008
N17980 X58.423 Y-3.038
N17985 X58.213 Y-2.04
N17990 X58.181 Y-1.02
N17995 X58.284 Y-0.005
N18000 X58.483 Y0.996
N18005 X58.744 Y1.982
N18010 X59.045 Y2.957
N18015 X59.364 Y3.926
N18020 X59.688 Y4.894
N18025 X60.002 Y5.864
N18030 X60.299 Y6.841
N18035 X60.564 Y7.826
N18040 X60.67 Y8.307
N18045 X60.702 Y8.583
N18050 X60.676 Y8.86
N18055 X60.593 Y9.126
N18060 X60.457 Y9.369
N18065 X60.344 Y9.53
N18070 X60.202 Y9.716
N18075 X59.449 Y10.641
N18080 X59.417 Y10.676
N18085 X58.954 Y11.169
N18090 X58.782 Y11.335
N18095 X58.027 Y12.04
N18100 X57.795 Y12.25
N18105 X57.1 Y12.787
N18110 X56.923 Y12.914
N18115 G3 X55.823 Y12.692 Z-2.067 I-0.439 J-0.661 F3152.09
N18120 X55.69 Y12.254 I0.661 J-0.44
N18125 G1 X55.638 Y-12.288
N18130 G3 X55.768 Y-12.725 I0.794 J-0.002
N18135 X56.867 Y-12.954 Z-2.267 I0.664 J0.435
N18140 G1 X57.1 Y-12.787 F3151.86
N18145 X57.795 Y-12.25
N18150 X58.039 Y-12.029
N18155 X58.782 Y-11.335
N18160 X58.954 Y-11.169
N18165 X59.417 Y-10.676
N18170 X59.449 Y-10.641
N18175 X60.202 Y-9.716
N18180 X60.344 Y-9.53
N18185 X60.808 Y-8.871
N18190 X61.2 Y-8.231
N18195 X61.436 Y-7.741
N18200 X61.64 Y-7.188
N18205 X61.812 Y-6.524
N18210 X61.944 Y-5.682
N18215 X62.002 Y-4.663
N18220 X62.046 Y-3.644
N18225 X62.131 Y-2.627
N18230 X62.266 Y-1.616
N18235 X62.447 Y-0.612
N18240 X62.665 Y0.385
N18245 X62.909 Y1.375
N18250 X63.192 Y2.446
N18255 X63.227 Y2.622
N18260 X63.238 Y2.8
N18265 X63.225 Y2.979
N18270 X63.222 Y3.007
N18275 X63.185 Y3.239
N18280 X62.998 Y3.932
N18285 X62.869 Y4.395
N18290 X62.662 Y5.134
N18295 X62.597 Y5.32
N18300 X62.512 Y5.552
N18305 X62.43 Y5.75
N18310 X61.813 Y7.171
N18315 X61.735 Y7.315
N18320 X61.42 Y7.865
N18325 X61.271 Y8.118
N18330 X60.863 Y8.79
N18335 X60.808 Y8.871
N18340 X60.457 Y9.369
N18345 G3 X59.346 Y9.523 Z-2.067 I-0.633 J-0.479 F3152.09
N18350 X59.031 Y8.874 I0.478 J-0.633
N18355 G1 X59.381 Y-8.408
N18360 G3 X59.696 Y-9.025 I0.794 J0.016
N18365 X60.808 Y-8.871 Z-2.267 I0.478 J0.633
N18370 G1 X60.863 Y-8.79 F3151.86
N18375 X61.285 Y-8.096
N18380 X61.42 Y-7.865
N18385 X61.735 Y-7.315
N18390 X61.813 Y-7.171
N18395 X62.43 Y-5.75
N18400 X62.512 Y-5.552
N18405 X62.597 Y-5.32
N18410 X62.662 Y-5.134
N18415 X62.934 Y-4.164
N18420 X62.998 Y-3.932
N18425 X63.185 Y-3.239
N18430 X63.222 Y-3.007
N18435 X63.444 Y-1.388
N18440 X63.476 Y-0.925
N18445 X63.485 Y-0.694
N18450 Y0.694
N18455 X63.476 Y0.925
N18460 X63.444 Y1.388
N18465 X63.225 Y2.979
N18470 X63.198 Y3.059 Z-2.263 F3152.09
N18475 X63.171 Y3.138 Z-2.249
N18480 X63.144 Y3.216 Z-2.226
N18485 X63.091 Y3.287 Z-2.19
N18490 X63.04 Y3.354 Z-2.143
N18495 X62.994 Y3.415 Z-2.086
N18500 X62.938 Y3.454 Z-2.022
N18505 X62.89 Y3.488 Z-1.951
N18510 X62.848 Y3.517 Z-1.874
N18515 X62.814 Y3.54 Z-1.791
N18520 X62.789 Y3.558 Z-1.703
N18525 X62.773 Y3.566 Z-1.631
N18530 X62.763 Y3.57 Z-1.557
N18535 X62.76 Y3.572 Z-1.482
N18540 G0 Z5.
N18545 G1 X42.549 Y30.002 F500.
N18550 G0 Z-1.814
N18555 G1 Z-2.607 F3152.09
N18560 X42.556 Y30. Z-2.711
N18565 X42.575 Y29.994 Z-2.813
N18570 X42.607 Y29.985 Z-2.911
N18575 X42.651 Y29.971 Z-3.004
N18580 X42.706 Y29.954 Z-3.091
N18585 X42.772 Y29.935 Z-3.169
N18590 X42.847 Y29.912 Z-3.237
N18595 X42.929 Y29.887 Z-3.295
N18600 X43.018 Y29.86 Z-3.341
N18605 X43.112 Y29.831 Z-3.374
N18610 X43.21 Y29.802 Z-3.394
N18615 X43.309 Y29.771 Z-3.401
N18620 G3 X47.598 Y28.96 I5.89 J19.389
N18625 G1 X48.062 Y28.939 F3151.86
N18630 X48.294 Y28.927
N18635 X50.379 Y28.795
N18640 X50.611 Y28.778
N18645 X51.075 Y28.74
N18650 X51.306 Y28.714
N18655 X52.697 Y28.45
N18660 X54.087 Y28.184
N18665 X54.319 Y28.136
N18670 X54.928 Y27.99
N18675 X55.014 Y27.966
N18680 X57.563 Y27.137
N18685 X57.795 Y27.062
N18690 X58.027 Y26.984
N18695 X58.722 Y26.68
N18700 X58.889 Y26.602
N18705 X59.832 Y26.214
N18710 X60.803 Y25.9
N18715 X61.796 Y25.666
N18720 X62.801 Y25.493
N18725 X63.814 Y25.364
N18730 X64.829 Y25.268
N18735 X65.847 Y25.197
N18740 X66.866 Y25.144
N18745 X67.885 Y25.105
N18750 X68.395 Y25.09
N18755 X68.65 Y25.084
N18760 X68.899 Y25.03
N18765 X69.368 Y24.829
N18770 X70.168 Y24.195
N18775 X70.764 Y23.367
N18780 X71.207 Y22.448
N18785 X71.537 Y21.483
N18790 X71.782 Y20.492
N18795 X71.964 Y19.488
N18800 X72.1 Y18.477
N18805 X72.201 Y17.462
N18810 X72.275 Y16.444
N18815 X72.331 Y15.426
N18820 X72.343 Y15.133
N18825 X72.367 Y14.928
N18830 X72.422 Y14.729
N18835 X72.508 Y14.54
N18840 X73.38 Y12.954
N18845 X73.502 Y12.723
N18850 X73.785 Y12.154
N18855 X73.841 Y12.029
N18860 X74.757 Y9.716
N18865 X74.944 Y9.237
N18870 X75.024 Y9.022
N18875 X75.219 Y8.328
N18880 X75.813 Y6.014
N18885 X75.972 Y5.32
N18890 X76.005 Y5.089
N18895 X76.103 Y4.326
N18900 X76.357 Y2.313
N18905 X76.377 Y2.082
N18910 X76.412 Y1.619
N18915 X76.419 Y1.388
N18920 Y-1.388
N18925 X76.412 Y-1.619
N18930 X76.377 Y-2.082
N18935 X76.357 Y-2.313
N18940 X76.065 Y-4.626
N18945 X76.005 Y-5.089
N18950 X75.972 Y-5.32
N18955 X75.813 Y-6.014
N18960 X75.219 Y-8.328
N18965 X75.024 Y-9.022
N18970 X74.938 Y-9.253
N18975 X74.665 Y-9.947
N18980 X73.933 Y-11.797
N18985 X73.605 Y-12.764
N18990 X73.318 Y-13.743
N18995 X73.106 Y-14.741
N19000 X72.948 Y-15.749
N19005 X72.83 Y-16.762
N19010 X72.743 Y-17.779
N19015 X72.679 Y-18.797
N19020 X72.63 Y-19.816
N19025 X72.595 Y-20.836
N19030 X72.588 Y-21.09
N19035 X72.479 Y-21.589
N19040 X71.947 Y-22.46
N19045 X71.16 Y-23.109
N19050 X70.262 Y-23.592
N19055 X69.307 Y-23.951
N19060 X68.322 Y-24.218
N19065 X67.321 Y-24.417
N19070 X66.312 Y-24.565
N19075 X65.298 Y-24.674
N19080 X64.281 Y-24.756
N19085 X63.262 Y-24.816
N19090 X62.658 Y-24.843
N19095 X62.427 Y-24.874
N19100 X62.205 Y-24.944
N19105 X61.998 Y-25.051
N19110 X61.733 Y-25.214
N19115 X61.04 Y-25.59
N19120 X58.889 Y-26.602
N19125 X58.722 Y-26.68
N19130 X58.027 Y-26.984
N19135 X57.785 Y-27.065
N19140 X56.868 Y-27.364
N19145 X55.014 Y-27.966
N19150 X54.928 Y-27.99
N19155 X54.319 Y-28.136
N19160 X54.087 Y-28.184
N19165 X51.538 Y-28.67
N19170 X51.306 Y-28.714
N19175 X51.075 Y-28.74
N19180 X50.611 Y-28.778
N19185 X50.379 Y-28.795
N19190 X48.525 Y-28.912
N19195 G3 X47.813 Y-29.779 Z-3.201 I0.077 J-0.79 F3152.09
N19200 X49.043 Y-30.363 I0.79 J0.077
N19205 G1 X51.187 Y-28.935
N19210 G2 X51.311 Y-29.987 I0.329 J-0.494
N19215 G3 X48.304 Y-29.137 I-6.997 J-19.018
N19220 X47.075 Y-28.929 Z-3.401 I-3.99 J-19.868
N19225 G1 X46.903 Y-28.912 F3151.86
N19230 X46.671 Y-28.873
N19235 X46.208 Y-28.748
N19240 X46.032 Y-28.684
N19245 X45.745 Y-28.558
N19250 X45.513 Y-28.43
N19255 X45.281 Y-28.279
N19260 X45.049 Y-28.114
N19265 X44.896 Y-27.99
N19270 X44.818 Y-27.921
N19275 X44.661 Y-27.759
N19280 X44.432 Y-27.526
N19285 X44.06 Y-27.216
N19290 X43.572 Y-26.884
N19295 X42.928 Y-26.534
N19300 X42.062 Y-26.168
N19305 X41.088 Y-25.865
N19310 X40.093 Y-25.64
N19315 X39.086 Y-25.474
N19320 X38.074 Y-25.35
N19325 X37.057 Y-25.258
N19330 X36.039 Y-25.189
N19335 X35.021 Y-25.138
N19340 X34.001 Y-25.101
N19345 X32.981 Y-25.073
N19350 X31.961 Y-25.052
N19355 X30.941 Y-25.036
N19360 X29.921 Y-25.025
N19365 X28.901 Y-25.016
N19370 X27.88 Y-25.01
N19375 X26.86 Y-25.005
N19380 X24.82 Y-24.999
N19385 X21.759 Y-24.995
N19390 X16.658 Y-24.992
N19395 X-4.768
N19400 X-55.78
N19405 X-68.533
N19410 X-68.786 Y-24.957
N19415 X-69.269 Y-24.793
N19420 X-70.094 Y-24.193
N19425 X-70.709 Y-23.379
N19430 X-71.166 Y-22.467
N19435 X-71.506 Y-21.505
N19440 X-71.759 Y-20.517
N19445 X-71.948 Y-19.514
N19450 X-72.087 Y-18.503
N19455 X-72.191 Y-17.488
N19460 X-72.268 Y-16.471
N19465 X-72.326 Y-15.452
N19470 X-72.368 Y-14.433
N19475 X-72.4 Y-13.413
N19480 X-72.424 Y-12.393
N19485 X-72.441 Y-11.373
N19490 X-72.454 Y-10.353
N19495 X-72.464 Y-9.333
N19500 X-72.471 Y-8.313
N19505 X-72.476 Y-7.292
N19510 X-72.48 Y-6.272
N19515 X-72.485 Y-4.232
N19520 X-72.489 Y-1.171
N19525 X-72.491 Y4.951
N19530 Y11.072
N19535 X-72.492 Y21.019
N19540 X-72.463 Y21.273
N19545 X-72.312 Y21.76
N19550 X-71.715 Y22.588
N19555 X-70.902 Y23.204
N19560 X-69.991 Y23.663
N19565 X-69.029 Y24.004
N19570 X-68.041 Y24.257
N19575 X-67.039 Y24.446
N19580 X-66.028 Y24.586
N19585 X-65.013 Y24.69
N19590 X-63.996 Y24.768
N19595 X-62.977 Y24.825
N19600 X-61.958 Y24.868
N19605 X-60.938 Y24.9
N19610 X-59.918 Y24.923
N19615 X-58.898 Y24.941
N19620 X-57.878 Y24.954
N19625 X-56.858 Y24.964
N19630 X-55.837 Y24.971
N19635 X-54.817 Y24.976
N19640 X-53.797 Y24.98
N19645 X-51.756 Y24.985
N19650 X-48.696 Y24.989
N19655 X-42.574 Y24.991
N19660 X-33.392 Y24.992
N19665 X17.62
N19670 X42.367
N19675 X42.664 Y25.025
N19680 X42.946 Y25.123
N19685 X43.199 Y25.28
N19690 X43.412 Y25.49
N19695 X43.572 Y25.741
N19700 X43.674 Y26.022
N19705 G3 X43.455 Y26.743 I-0.778 J0.158 F3152.09
N19710 G1 X43.382 Y26.816 Z-3.394
N19715 X43.309 Y26.888 Z-3.374
N19720 X43.24 Y26.957 Z-3.341
N19725 X43.174 Y27.023 Z-3.295
N19730 X43.112 Y27.084 Z-3.237
N19735 X43.057 Y27.139 Z-3.169
N19740 X43.008 Y27.187 Z-3.091
N19745 X42.967 Y27.228 Z-3.004
N19750 X42.935 Y27.26 Z-2.911
N19755 X42.911 Y27.283 Z-2.813
N19760 X42.897 Y27.298 Z-2.711
N19765 X42.892 Y27.303 Z-2.607
N19770 G0 Z5.
N19775 G1 X57.857 Y27.781 F500.
N19780 G0 Z-1.814
N19785 G1 Z-2.607 F3152.09
N19790 X57.86 Y27.775 Z-2.711
N19795 X57.872 Y27.758 Z-2.813
N19800 X57.89 Y27.731 Z-2.911
N19805 X57.916 Y27.693 Z-3.004
N19810 X57.948 Y27.645 Z-3.091
N19815 X57.987 Y27.588 Z-3.169
N19820 X58.03 Y27.524 Z-3.237
N19825 X58.079 Y27.452 Z-3.295
N19830 X58.131 Y27.375 Z-3.341
N19835 X58.186 Y27.293 Z-3.374
N19840 X58.243 Y27.209 Z-3.394
N19845 X58.301 Y27.123 Z-3.401
N19850 G3 X58.889 Y26.602 I1.311 J0.886
N19855 G1 X61.04 Y25.59 F3151.86
N19860 X61.735 Y25.213
N19865 X61.966 Y25.071
N19870 X64.052 Y23.747
N19875 X64.516 Y23.442
N19880 X64.62 Y23.364
N19885 X64.747 Y23.263
N19890 X64.979 Y23.073
N19895 X67.065 Y21.347
N19900 X67.142 Y21.282
N19905 X67.297 Y21.147
N19910 X67.839 Y20.588
N19915 X69.382 Y18.944
N19920 X69.614 Y18.693
N19925 X69.786 Y18.506
N19930 X69.964 Y18.275
N19935 X70.077 Y18.125
N19940 X71.7 Y15.893
N19945 X71.805 Y15.73
N19950 X72.163 Y15.161
N19955 X72.235 Y15.036
N19960 X72.508 Y14.54
N19965 X72.881 Y13.861 Z-3.277 F3152.09
N19970 X73.108 Y13.448 Z-3.201 F3151.86
N19975 X73.38 Y12.954
N19980 X73.502 Y12.723
N19985 X73.785 Y12.154
N19990 X73.841 Y12.029
N19995 X74.712 Y9.828
N20000 X74.944 Y9.237
N20005 X75.024 Y9.022
N20010 X75.219 Y8.328
N20015 X75.754 Y6.246
N20020 X75.813 Y6.014
N20025 X75.972 Y5.32
N20030 X76.005 Y5.089
N20035 X76.065 Y4.626
N20040 X76.357 Y2.313
N20045 X76.377 Y2.082
N20050 X76.412 Y1.619
N20055 X76.419 Y1.388
N20060 Y-1.388
N20065 X76.412 Y-1.619
N20070 X76.377 Y-2.082
N20075 X76.357 Y-2.313
N20080 X76.065 Y-4.626
N20085 X76.005 Y-5.089
N20090 X75.972 Y-5.32
N20095 X75.813 Y-6.014
N20100 X75.754 Y-6.246
N20105 X75.219 Y-8.328
N20110 X75.024 Y-9.022
N20115 X74.944 Y-9.237
N20120 X74.712 Y-9.828
N20125 X74.391 Y-10.639
N20130 X74.218 Y-11.076 Z-3.277
N20135 X73.933 Y-11.797 Z-3.401 F3152.09
N20140 X73.841 Y-12.029 F3151.86
N20145 X73.785 Y-12.154
N20150 X73.502 Y-12.723
N20155 X73.38 Y-12.954
N20160 X72.235 Y-15.036
N20165 X72.163 Y-15.161
N20170 X71.805 Y-15.73
N20175 X71.7 Y-15.893
N20180 X70.077 Y-18.125
N20185 X69.846 Y-18.428
N20190 X69.786 Y-18.506
N20195 X69.574 Y-18.737
N20200 X69.359 Y-18.968
N20205 X67.839 Y-20.588
N20210 X67.297 Y-21.147
N20215 X67.142 Y-21.282
N20220 X67.065 Y-21.347
N20225 X64.907 Y-23.132
N20230 X64.747 Y-23.263
N20235 X64.62 Y-23.364
N20240 X64.516 Y-23.442
N20245 X64.052 Y-23.747
N20250 X61.998 Y-25.051
N20255 G0 Z5.
N20260 G1 X45.147 Y-29.248 F500.
N20265 G0 Z-1.814
N20270 G1 Z-2.607 F3152.09
N20275 X45.146 Y-29.242 Z-2.711
N20280 X45.142 Y-29.222 Z-2.813
N20285 X45.135 Y-29.189 Z-2.911
N20290 X45.127 Y-29.144 Z-3.004
N20295 X45.116 Y-29.087 Z-3.091
N20300 X45.103 Y-29.02 Z-3.169
N20305 X45.088 Y-28.943 Z-3.237
N20310 X45.072 Y-28.859 Z-3.295
N20315 X45.054 Y-28.767 Z-3.341
N20320 X45.035 Y-28.671 Z-3.374
N20325 X45.016 Y-28.571 Z-3.394
N20330 X44.996 Y-28.469 Z-3.401
N20335 G3 X44.661 Y-27.759 I-1.554 J-0.3
N20340 G1 X44.354 Y-27.414 F3151.86
N20345 X44.271 Y-27.296
N20350 X44.116 Y-27.065
N20355 X43.984 Y-26.833
N20360 X43.891 Y-26.641
N20365 X43.777 Y-26.371
N20370 X43.702 Y-26.139
N20375 X43.659 Y-25.96
N20380 X43.624 Y-25.814
N20385 X43.525 Y-25.546
N20390 X43.382 Y-25.251
N20395 X43.177 Y-24.917
N20400 X42.918 Y-24.575
N20405 X42.566 Y-24.196
N20410 X42.13 Y-23.809
N20415 X41.563 Y-23.399
N20420 X40.835 Y-22.974
N20425 X39.908 Y-22.549
N20430 X38.944 Y-22.215
N20435 X37.958 Y-21.955
N20440 X36.958 Y-21.751
N20445 X35.95 Y-21.593
N20450 X34.937 Y-21.47
N20455 X33.921 Y-21.374
N20460 X32.904 Y-21.301
N20465 X31.885 Y-21.244
N20470 X30.866 Y-21.2
N20475 X29.846 Y-21.166
N20480 X28.826 Y-21.14
N20485 X27.806 Y-21.12
N20490 X26.786 Y-21.104
N20495 X25.766 Y-21.092
N20500 X24.746 Y-21.083
N20505 X23.725 Y-21.076
N20510 X22.705 Y-21.071
N20515 X20.665 Y-21.064
N20520 X18.624 Y-21.06
N20525 X15.563 Y-21.057
N20530 X8.422 Y-21.054
N20535 X-4.841
N20540 X-55.854
N20545 X-64.016
N20550 X-64.506 Y-20.911
N20555 X-65.408 Y-20.435
N20560 X-66.129 Y-19.713
N20565 X-66.692 Y-18.862
N20570 X-67.129 Y-17.94
N20575 X-67.464 Y-16.977
N20580 X-67.722 Y-15.99
N20585 X-67.92 Y-14.989
N20590 X-68.071 Y-13.98
N20595 X-68.186 Y-12.966
N20600 X-68.274 Y-11.95
N20605 X-68.341 Y-10.932
N20610 X-68.392 Y-9.913
N20615 X-68.431 Y-8.893
N20620 X-68.461 Y-7.873
N20625 X-68.483 Y-6.853
N20630 X-68.5 Y-5.833
N20635 X-68.513 Y-4.813
N20640 X-68.523 Y-3.793
N20645 X-68.531 Y-2.773
N20650 X-68.536 Y-1.752
N20655 X-68.541 Y-0.732
N20660 X-68.546 Y1.308
N20665 X-68.551 Y4.369
N20670 X-68.553 Y9.47
N20675 X-68.554 Y16.612
N20680 X-68.391 Y17.095
N20685 X-67.886 Y17.982
N20690 X-67.148 Y18.687
N20695 X-66.29 Y19.238
N20700 X-65.362 Y19.664
