%
O01003
(Using high feed G1 F500. instead of G0.)
(T1 D=50. CR=0. - face mill)
(T2 D=10. CR=0. - flat end mill)
(T3 D=3. CR=0. - flat end mill)
(T9 D=6. CR=0. - flat end mill)
N10 G90 G94 G17
N15 G21
N20 G53 G0 Z0.

(Pocket2)
N25 T1 M6
N30 S5000 M3
N35 G54
N40 M11
N45 G0 A0.
N50 M10
N55 M8
N60 G1 X134.5 Y-92.558 F500.
N65 G0 G43 Z15. H1
N70 T2
N75 G0 Z5.
N80 G1 Z3. F333.33
N85 G18 G3 X129.5 Z-2. I-5. K0. F1000.
N90 G1 X127.01
N95 X-127.01
N100 G17 G2 Y-58.467 I0. J17.046
N105 G1 X127.01
N110 G3 Y-24.375 I0. J17.046
N115 G1 X-127.01
N120 G2 Y9.717 I0. J17.046
N125 G1 X127.01
N130 G3 Y43.808 I0. J17.046
N135 G1 X-127.01
N140 G2 Y77.9 I0. J17.046
N145 G1 X127.01
N150 G18 G2 X132.01 Z3. I0. K5.
N155 G0 Z15.
N160 M9
N165 M5
N170 G53 G0 Z0.

(2D Contour1)
N175 M1
N180 T2 M6
N185 S5000 M3
N190 G54
N195 M11
N200 G0 A0.
N205 M10
N210 M8
N215 G17
N220 G1 X-108. Y-1. F500.
N225 G0 G43 Z15. H2
N230 T3
N235 G0 Z5.
N240 G1 Z1. F333.33
N245 Z-66.
N250 G18 G2 X-107. Z-67. I1. K0. F1000.
N255 G1 X-106.
N260 G17 G3 X-105. Y0. I0. J1.
N265 G2 X105. I105. J0.
N270 X-105. I-105. J0.
N275 G3 X-106. Y1. I-1. J0.
N280 G1 X-107.
N285 G18 G3 X-108. Z-66. I0. K1.
N290 G0 Z15.
N295 M9
N300 M5
N305 G53 G0 Z0.

(Pocket2)
N310 M1
N315 T3 M6
N320 S5000 M3
N325 G54
N330 M11
N335 G0 A0.
N340 M10
N345 M8
N350 G17
N355 G1 X94.967 Y28.388 F500.
N360 G0 G43 Z15. H3
N365 T9
N370 G0 Z2.415
N375 G1 Z1.785 F333.33
N380 X94.981 Y28.386 Z1.695
N385 X95.021 Y28.379 Z1.612
N390 X95.083 Y28.366 Z1.546
N395 X95.162 Y28.346 Z1.503
N400 X95.247 Y28.318 Z1.485
N405 G2 X95.129 Y28.355 Z1.177 I-0.483 J-1.341
N410 X95.007 Y28.382 Z0.869 I-0.364 J-1.378
N415 X94.884 Y28.397 Z0.56 I-0.243 J-1.404
N420 X94.76 Y28.402 Z0.252 I-0.12 J-1.42
N425 X94.636 Y28.397 Z-0.056 I0.005 J-1.425
N430 X94.512 Y28.38 Z-0.364 I0.129 J-1.419
N435 X94.391 Y28.353 Z-0.673 I0.252 J-1.403
N440 X96.132 Y27.377 Z-0.75 I0.373 J-1.375
N445 G1 X96.712 Y25.396 F1000.
N450 X96.839 Y24.924
N455 X97.403 Y22.434
N460 X98.185 Y18.949
N465 X99.152 Y12.984
N470 X99.747 Y7.003
N475 X99.78 Y6.533
N480 X99.998 Y0.554
N485 X99.846 Y-5.424
N490 X99.818 Y-5.894
N495 X99.29 Y-11.875
N500 X98.392 Y-17.846
N505 X98.297 Y-18.318
N510 X97.116 Y-23.819
N515 X97.017 Y-24.214
N520 X95.456 Y-29.783
N525 X95.304 Y-30.255
N530 X93.393 Y-35.739
N535 X91.097 Y-41.224
N540 X90.886 Y-41.697
N545 X89.653 Y-44.189
N550 X88.17 Y-47.174
N555 X86.063 Y-50.844
N560 X85.073 Y-52.554
N565 X81.734 Y-57.615
N570 X77.992 Y-62.587
N575 X74.161 Y-67.07
N580 X73.723 Y-67.549
N585 X69.651 Y-71.755
N590 X65.516 Y-75.526
N595 X64.978 Y-76.008
N600 X60.198 Y-79.849
N605 X55.223 Y-83.367
N610 X50.233 Y-86.455
N615 X49.757 Y-86.736
N620 X44.76 Y-89.412
N625 X44.285 Y-89.654
N630 X38.806 Y-92.163
N635 X32.974 Y-94.406
N640 X27.35 Y-96.179
N645 X26.878 Y-96.313
N650 X21.378 Y-97.68
N655 X20.905 Y-97.784
N660 X15.025 Y-98.863
N665 X15.004 Y-98.864
N670 X15. Y-59.91
N675 G3 X14.608 Y-59.116 I-1. J0.
N680 G1 X14.553 Y-59.074
N685 G3 X13.946 Y-58.869 I-0.608 J-0.794
N690 G1 X-13.946
N695 G3 X-14.553 Y-59.074 I0. J-1.
N700 G1 X-14.608 Y-59.116
N705 G3 X-15. Y-59.91 I0.608 J-0.794
N710 G1 X-15.004 Y-98.864
N715 X-15.025 Y-98.863
N720 X-20.905 Y-97.784
N725 X-21.378 Y-97.68
N730 X-26.878 Y-96.313
N735 X-27.35 Y-96.179
N740 X-32.974 Y-94.406
N745 X-38.806 Y-92.163
N750 X-44.287 Y-89.653
N755 X-44.704 Y-89.442
N760 X-49.757 Y-86.736
N765 X-50.224 Y-86.46
N770 X-55.223 Y-83.367
N775 X-60.198 Y-79.849
N780 X-64.985 Y-76.002
N785 X-65.162 Y-75.85
N790 X-69.651 Y-71.755
N795 X-73.641 Y-67.634
N800 X-74.123 Y-67.115
N805 X-77.992 Y-62.587
N810 X-81.734 Y-57.615
N815 X-85.019 Y-52.635
N820 X-85.307 Y-52.16
N825 X-88.173 Y-47.17
N830 X-88.413 Y-46.696
N835 X-90.888 Y-41.694
N840 X-91.038 Y-41.365
N845 X-93.393 Y-35.739
N850 X-95.304 Y-30.255
N855 X-95.456 Y-29.783
N860 X-96.996 Y-24.289
N865 X-97.117 Y-23.817
N870 X-97.974 Y-19.82
N875 X-98.392 Y-17.842
N880 X-99.29 Y-11.875
N885 X-99.5 Y-9.527
N890 X-99.818 Y-5.895
N895 X-99.846 Y-5.424
N900 X-99.998 Y0.554
N905 X-99.78 Y6.533
N910 X-99.747 Y7.003
N915 X-99.152 Y12.984
N920 X-98.185 Y18.954
N925 X-98.083 Y19.426
N930 X-96.839 Y24.924
N935 X-96.712 Y25.396
N940 X-95.247 Y30.403
N945 X-95.024 Y31.14
N950 X-92.963 Y36.848
N955 X-90.592 Y42.328
N960 X-90.368 Y42.802
N965 X-87.826 Y47.799
N970 X-87.569 Y48.273
N975 X-84.576 Y53.352
N980 X-81.093 Y58.512
N985 X-77.601 Y63.049
N990 X-77.118 Y63.65
N995 X-73.161 Y68.17
N1000 X-69.21 Y72.16
N1005 X-68.72 Y72.64
N1010 X-64.256 Y76.621
N1015 X-59.821 Y80.113
N1020 X-59.207 Y80.582
N1025 X-54.228 Y84.019
N1030 X-49.239 Y87.026
N1035 X-48.763 Y87.298
N1040 X-43.492 Y90.045
N1045 X-37.81 Y92.575
N1050 X-32.818 Y94.436
N1055 X-31.843 Y94.791
N1060 X-26.351 Y96.456
N1065 X-25.878 Y96.589
N1070 X-20.137 Y97.947
N1075 X-20.003 Y97.974
N1080 X-20.001 Y97.964
N1085 X-20. Y77.031
N1090 G3 X-19.707 Y76.324 I1. J0.
N1095 G1 X-19.656 Y76.273
N1100 G3 X-18.949 Y75.98 I0.707 J0.707
N1105 G1 X18.949
N1110 G3 X19.656 Y76.273 I0. J1.
N1115 G1 X19.707 Y76.324
N1120 G3 X20. Y77.031 I-0.707 J0.707
N1125 G1 Y96.468
N1130 X20.005 Y97.975
N1135 X20.012 Y97.974
N1140 X25.885 Y96.587
N1145 X26.164 Y96.512
N1150 X31.846 Y94.79
N1155 X32.319 Y94.622
N1160 X37.81 Y92.575
N1165 X43.492 Y90.045
N1170 X48.765 Y87.297
N1175 X49.165 Y87.07
N1180 X54.228 Y84.019
N1185 X59.189 Y80.595
N1190 X59.687 Y80.218
N1195 X64.178 Y76.687
N1200 X68.662 Y72.692
N1205 X69.142 Y72.228
N1210 X73.161 Y68.17
N1215 X77.087 Y63.686
N1220 X77.478 Y63.208
N1225 X81.093 Y58.512
N1230 X84.576 Y53.352
N1235 X87.566 Y48.278
N1240 X87.826 Y47.798
N1245 X90.117 Y43.295
N1250 X90.545 Y42.437
N1255 X92.963 Y36.848
N1260 X94.944 Y31.362
N1265 X95.105 Y30.889
N1270 X96.132 Y27.377
N1275 G2 X95.671 Y25.933 I-1.301 J-0.38
N1280 G3 X95.186 Y24.497 I0.86 J-1.09
N1285 G2 X98.287 Y0.545 I-95.19 J-24.5
N1290 X97.57 Y-11.527 I-93.253 J-0.519
N1295 X95.45 Y-23.432 I-115.342 J14.399
N1300 G1 X93.818 Y-29.29
N1305 X91.795 Y-35.127
N1310 G2 X90.609 Y-38.039 I-70.415 J26.98
N1315 G1 X89.527 Y-40.546
N1320 G2 X88.843 Y-41.997 I-22.513 J9.721
N1325 G3 X88.121 Y-43.43 I111.47 J-57.049
N1330 G2 X79.445 Y-57.816 I-91.355 J45.287
N1335 X68.459 Y-70.527 I-77.897 J56.223
N1340 X59.163 Y-78.516 I-70.521 J72.653
N1345 X48.918 Y-85.246 I-54.399 J71.651
N1350 X37.977 Y-90.667 I-56.554 J100.393
N1355 X26.439 Y-94.66 I-32.761 J75.998
N1360 G1 X17.183 Y-96.811
N1365 G2 X16.633 Y-96.352 I-0.084 J0.459
N1370 G1 X16.71 Y-59.91
N1375 G3 X13.946 Y-57.159 I-2.764 J-0.013
N1380 G1 X-13.946
N1385 G3 X-16.71 Y-59.91 I-0.013 J-2.751
N1390 G1 X-16.633 Y-96.352
N1395 G2 X-17.183 Y-96.811 I-0.466 J0.
N1400 X-48.918 Y-85.246 I19.21 J102.037
N1405 G1 X-54.279 Y-81.941
N1410 G2 X-64.079 Y-74.56 I55.823 J84.32
N1415 X-72.845 Y-65.977 I58.044 J68.054
N1420 X-89.379 Y-40.72 I76.59 J68.176
N1425 X-97.592 Y-11.671 I88.052 J40.582
N1430 X-97.886 Y-8.723 I74.513 J8.927
N1435 X-98.113 Y-5.769 I466.558 J37.289
N1440 G1 X-98.287 Y0.545
N1445 G2 X-97.445 Y12.621 I94.602 J-0.527
N1450 X-95.179 Y24.513 I109.698 J-14.746
N1455 X-94.424 Y27.223 I48.088 J-11.923
N1460 G3 X-93.608 Y29.916 I-249.107 J77.016
N1465 G1 X-91.373 Y36.217
N1470 G2 X-63.157 Y75.31 I91.295 J-36.164
N1475 X-42.748 Y88.504 I63.022 J-75.103
N1480 X-22.173 Y95.791 I43.883 J-91.21
N1485 X-21.63 Y95.362 I0.102 J-0.43
N1490 G1 X-21.71 Y77.03
N1495 G3 X-18.949 Y74.27 I2.761 J0.
N1500 G1 X18.949
N1505 G3 X21.71 Y77.031 I0. J2.761
N1510 G1 X21.629 Y95.36
N1515 G2 X22.172 Y95.79 I0.442 J0.
N1520 G1 X31.312 Y93.165
N1525 X37.163 Y90.991
N1530 X42.748 Y88.504
N1535 G2 X79.705 Y57.511 I-42.71 J-88.459
N1540 X95.186 Y24.497 I-79.709 J-57.514
N1545 X94.698 Y23.111 I-1.278 J-0.329
N1550 G3 X94.193 Y21.731 I0.805 J-1.077
N1555 G2 X96.666 Y0.536 I-94.196 J-21.734
N1560 X95.96 Y-11.347 I-91.681 J-0.511
N1565 X93.872 Y-23.065 I-113.707 J14.213
N1570 X87.871 Y-40.282 I-85.738 J20.231
N1575 X75.282 Y-60.546 I-92.621 J43.498
N1580 X58.192 Y-77.19 I-74.289 J59.186
N1585 X37.513 Y-89.092 I-58.078 J76.984
N1590 G1 X31.875 Y-91.261
N1595 G2 X29.146 Y-92.156 I-24.579 J70.304
N1600 X26.397 Y-92.988 I-113.319 J369.258
N1605 G1 X18.803 Y-94.867
N1610 G2 X18.252 Y-94.408 I-0.084 J0.459
N1615 G1 X18.33 Y-59.91
N1620 G3 X13.946 Y-55.539 I-4.384 J-0.013
N1625 G1 X-13.946
N1630 G3 X-18.33 Y-59.91 I-0.013 J-4.371
N1635 G1 X-18.252 Y-94.408
N1640 G2 X-18.803 Y-94.867 I-0.466 J0.
N1645 G1 X-26.023 Y-93.094
N1650 G2 X-37.367 Y-89.165 I20.802 J78.405
N1655 X-48.123 Y-83.834 I45.161 J104.632
N1660 G1 X-53.384 Y-80.589
N1665 G2 X-63.017 Y-73.336 I54.948 J82.999
N1670 X-71.635 Y-64.9 I56.97 J66.817
N1675 X-87.901 Y-40.054 I75.377 J67.096
N1680 X-95.983 Y-11.479 I86.58 J39.917
N1685 X-96.273 Y-8.567 I73.556 J8.812
N1690 X-96.497 Y-5.65 I461.623 J36.888
N1695 G1 X-96.666 Y0.536
N1700 G2 X-95.837 Y12.42 I93.016 J-0.518
N1705 X-93.606 Y24.123 I108.066 J-14.539
N1710 X-92.861 Y26.797 I47.171 J-11.696
N1715 G3 X-92.055 Y29.454 I-238.334 J73.773
N1720 G1 X-89.866 Y35.62
N1725 G2 X-62.116 Y74.068 I89.789 J-35.566
N1730 X-42.044 Y87.044 I61.981 J-73.861
N1735 G1 X-36.55 Y89.491
N1740 G2 X-34.117 Y90.422 I22.097 J-54.081
N1745 G3 X-31.668 Y91.311 I-92.081 J257.612
N1750 G1 X-23.793 Y93.743
N1755 G2 X-23.25 Y93.314 I0.102 J-0.43
N1760 G1 X-23.33 Y77.03
N1765 G3 X-18.949 Y72.65 I4.381 J0.
N1770 G1 X18.949
N1775 G3 X23.33 Y77.031 I0. J4.381
N1780 G1 X23.249 Y93.313
N1785 G2 X23.792 Y93.743 I0.442 J0.
N1790 G1 X30.805 Y91.625
N1795 X36.55 Y89.491
N1800 X42.044 Y87.044
N1805 G2 X78.391 Y56.563 I-42.005 J-87.
N1810 X94.193 Y21.731 I-78.394 J-56.565
N1815 X93.67 Y20.358 I-1.286 J-0.297
N1820 G3 X93.13 Y18.991 I0.778 J-1.098
N1825 G2 X95.046 Y0.527 I-93.133 J-18.994
N1830 X94.349 Y-11.167 I-90.109 J-0.502
N1835 X92.294 Y-22.699 I-112.073 J14.027
N1840 X91.55 Y-25.54 I-51.374 J11.935
N1845 X90.715 Y-28.356 I-337.288 J98.44
N1850 X89.793 Y-31.179 I-61.178 J18.412
N1855 X88.768 Y-33.967 I-103.438 J36.453
N1860 X87.609 Y-36.812 I-68.795 J26.359
N1865 G1 X86.552 Y-39.262
N1870 G2 X85.903 Y-40.635 I-20.665 J8.923
N1875 G3 X85.218 Y-41.991 I90.811 J-46.712
N1880 G2 X76.827 Y-55.906 I-88.404 J43.824
N1885 X66.201 Y-68.201 I-75.316 J54.351
N1890 X64.216 Y-70.045 I-43.062 J44.363
N1895 G3 X62.199 Y-71.852 I230.723 J-259.536
N1900 G2 X52.75 Y-79.063 I-48.259 J53.441
N1905 X42.468 Y-85.024 I-73.03 J114.126
N1910 X31.679 Y-89.619 I-34.45 J65.932
N1915 X20.422 Y-92.9 I-46.557 J138.768
N1920 X19.872 Y-92.47 I-0.107 J0.43
N1925 G1 X19.95 Y-59.909
N1930 G3 X13.946 Y-53.919 I-6.004 J-0.013
N1935 G1 X-13.946
N1940 G3 X-19.95 Y-59.909 I-0.013 J-5.991
N1945 G1 X-19.872 Y-92.47
N1950 G2 X-20.422 Y-92.9 I-0.443 J0.
N1955 X-23.018 Y-92.224 I28.992 J116.67
N1960 G3 X-25.608 Y-91.528 I-107.707 J-395.504
N1965 G2 X-36.757 Y-87.664 I20.393 J76.864
N1970 X-47.328 Y-82.422 I44.592 J103.203
N1975 G1 X-52.489 Y-79.238
N1980 G2 X-61.956 Y-72.111 I54.074 J81.678
N1985 X-70.424 Y-63.823 I55.895 J65.581
N1990 X-86.423 Y-39.389 I74.164 J66.017
N1995 X-94.373 Y-11.286 I85.108 J39.252
N2000 X-94.66 Y-8.412 I72.6 J8.698
N2005 X-94.881 Y-5.532 I456.69 J36.488
N2010 G1 X-95.046 Y0.527
N2015 G2 X-94.229 Y12.219 I91.431 J-0.509
N2020 X-92.033 Y23.733 I106.434 J-14.332
N2025 G1 X-90.324 Y29.582
N2030 G2 X-87.209 Y37.68 I87.388 J-28.964
N2035 X-83.443 Y45.497 I114.725 J-50.455
N2040 G1 X-80.388 Y50.708
N2045 G2 X-69.537 Y64.795 I80.613 J-50.878
N2050 X-51.542 Y79.858 I69.559 J-64.814
N2055 X-49.059 Y81.389 I37.921 J-58.743
N2060 G1 X-46.73 Y82.758
N2065 G2 X-36.331 Y87.839 I38.129 J-64.851
N2070 X-25.404 Y91.655 I51.312 J-129.401
N2075 X-24.87 Y91.259 I0.12 J-0.396
N2080 G1 X-24.95 Y77.03
N2085 G3 X-18.949 Y71.03 I6.001 J0.
N2090 G1 X18.949
N2095 G3 X24.95 Y77.031 I0. J6.001
N2100 G1 X24.869 Y91.259
N2105 G2 X25.403 Y91.655 I0.414 J0.
N2110 X28.618 Y90.639 I-41.728 J-137.647
N2115 G1 X30.299 Y90.086
N2120 X35.937 Y87.991
N2125 G2 X41.339 Y85.585 I-36.49 J-89.209
N2130 X77.076 Y55.614 I-41.301 J-85.54
N2135 X93.13 Y18.991 I-77.08 J-55.617
N2140 X92.572 Y17.632 I-1.292 J-0.264
N2145 G3 X91.997 Y16.281 I0.749 J-1.117
N2150 G2 X93.425 Y0.518 I-92.053 J-16.284
N2155 X92.739 Y-10.986 I-88.537 J-0.493
N2160 X90.716 Y-22.332 I-110.439 J13.842
N2165 X84.938 Y-38.904 I-82.591 J19.502
N2170 X72.766 Y-58.503 I-89.678 J42.116
N2175 X56.239 Y-74.602 I-71.783 J57.158
N2180 X36.256 Y-86.104 I-56.126 J74.397
N2185 X22.034 Y-90.83 I-37.646 J89.534
N2190 X21.492 Y-90.407 I-0.105 J0.423
N2195 G1 X21.57 Y-59.909
N2200 G3 X13.946 Y-52.299 I-7.624 J-0.014
N2205 G1 X-13.946
N2210 G3 X-21.57 Y-59.909 I-0.013 J-7.611
N2215 G1 X-21.492 Y-90.407
N2220 G2 X-22.034 Y-90.83 I-0.436 J0.
N2225 X-27.024 Y89.471 I22.132 J90.832
N2230 X-26.49 Y89.075 I0.12 J-0.396
N2235 G1 X-26.57 Y77.03
N2240 G3 X-18.949 Y69.41 I7.621 J0.
N2245 G1 X18.949
N2250 G3 X26.57 Y77.031 I0. J7.621
N2255 G1 X26.489 Y89.075
N2260 G2 X27.023 Y89.471 I0.414 J0.
N2265 X91.997 Y16.281 I-27.079 J-89.474
N2270 X91.404 Y14.935 I-1.3 J-0.23
N2275 G3 X90.793 Y13.598 I0.721 J-1.138
N2280 G2 X91.804 Y0.509 I-90.796 J-13.601
N2285 X91.128 Y-10.806 I-86.966 J-0.484
N2290 X89.137 Y-21.965 I-108.806 J13.657
N2295 X83.471 Y-38.215 I-81.018 J19.138
N2300 X71.508 Y-57.482 I-88.206 J41.424
N2305 X55.263 Y-73.308 I-70.53 J56.144
N2310 X35.628 Y-84.61 I-55.151 J73.104
N2315 X30.27 Y-86.671 I-36.133 J85.968
N2320 G1 X23.653 Y-88.758
N2325 G2 X23.112 Y-88.335 I-0.105 J0.423
N2330 G1 X23.19 Y-59.909
N2335 G3 X13.946 Y-50.679 I-9.244 J-0.014
N2340 G1 X-13.946
N2345 G3 X-23.19 Y-59.909 I-0.013 J-9.231
N2350 G1 X-23.112 Y-88.335
N2355 G2 X-23.653 Y-88.758 I-0.436 J0.
N2360 X-24.248 Y-88.596 I3.178 J12.788
N2365 G1 X-25.016 Y-88.366
N2370 G2 X-33.115 Y-85.65 I36.712 J122.88
N2375 X-40.921 Y-82.177 I24.236 J64.99
N2380 X-55.396 Y-73.156 I51.128 J98.161
N2385 X-68.004 Y-61.668 I48.461 J65.848
N2390 X-83.468 Y-38.058 I71.739 J63.858
N2395 X-91.155 Y-10.9 I82.164 J37.922
N2400 X-91.434 Y-8.1 I70.686 J8.468
N2405 X-91.65 Y-5.294 I446.838 J35.689
N2410 X-91.784 Y-2.394 I53.521 J3.937
N2415 X-91.804 Y0.509 I116.578 J2.253
N2420 X-91.013 Y11.817 I88.26 J-0.492
N2425 X-88.888 Y22.953 I103.172 J-13.919
N2430 X-88.172 Y25.519 I44.441 J-11.019
N2435 G3 X-87.397 Y28.069 I-208.635 J64.825
N2440 G1 X-85.346 Y33.828
N2445 G2 X-58.993 Y70.342 I85.268 J-33.774
N2450 X-39.93 Y82.665 I58.857 J-70.134
N2455 X-34.711 Y84.99 I40.003 J-82.806
N2460 G1 X-28.644 Y87.287
N2465 G2 X-28.11 Y86.891 I0.12 J-0.396
N2470 X-28.15 Y81.96 I-300.123 J-0.018
N2475 G3 X-28.19 Y77.03 I300.083 J-4.913
N2480 X-18.949 Y67.79 I9.241 J0.001
N2485 G1 X18.949
N2490 G3 X28.19 Y77.031 I0. J9.241
N2495 G1 X28.109 Y86.891
N2500 G2 X28.643 Y87.287 I0.414 J0.
N2505 X29.092 Y87.136 I-2.294 J-7.569
N2510 G3 X29.536 Y86.973 I31.591 J85.429
N2515 G2 X34.711 Y84.99 I-42.856 J-119.544
N2520 X39.93 Y82.665 I-35.255 J-86.189
N2525 X74.448 Y53.718 I-39.892 J-82.621
N2530 X90.793 Y13.598 I-74.45 J-53.721
N2535 X90.164 Y12.269 I-1.305 J-0.196
N2540 G3 X89.517 Y10.949 I0.691 J-1.157
N2545 G2 X90.183 Y0.5 I-89.52 J-10.952
N2550 X89.518 Y-10.626 I-85.394 J-0.476
N2555 X87.559 Y-21.599 I-107.173 J13.471
N2560 X82.005 Y-37.526 I-79.445 J18.773
N2565 X70.249 Y-56.46 I-86.735 J40.733
N2570 X54.287 Y-72.014 I-69.278 J55.13
N2575 X40.4 Y-80.564 I-52.104 J69.077
N2580 X25.264 Y-86.636 I-47.454 J96.39
N2585 X24.732 Y-86.245 I-0.123 J0.39
N2590 G1 X24.81 Y-59.909
N2595 G3 X13.946 Y-49.059 I-10.864 J-0.014
N2600 G1 X-13.946
N2605 G3 X-24.81 Y-59.909 I-0.013 J-10.851
N2610 G1 X-24.732 Y-86.245
N2615 G2 X-25.264 Y-86.636 I-0.409 J0.
N2620 X-32.847 Y-84.014 I44.083 J139.76
N2625 X-40.172 Y-80.74 I23.607 J62.661
N2630 X-54.4 Y-71.878 I50.399 J96.762
N2635 X-66.794 Y-60.591 I47.49 J64.592
N2640 X-81.991 Y-37.392 I70.526 J62.779
N2645 X-89.546 Y-10.707 I80.692 J37.257
N2650 X-89.821 Y-7.944 I69.73 J8.354
N2655 X-90.034 Y-5.175 I441.918 J35.29
N2660 X-90.165 Y-2.339 I51.818 J3.811
N2665 X-90.183 Y0.5 I116.567 J2.189
N2670 X-89.405 Y11.616 I86.676 J-0.483
N2675 X-87.315 Y22.563 I101.541 J-13.712
N2680 X-86.609 Y25.093 I43.538 J-10.795
N2685 G3 X-85.844 Y27.607 I-199.538 J62.08
N2690 G2 X-84.904 Y30.441 I45.754 J-13.607
N2695 X-83.839 Y33.23 I108.438 J-39.781
N2700 X-57.951 Y69.099 I83.762 J-33.177
N2705 X-39.226 Y81.206 I57.816 J-68.892
N2710 X-34.098 Y83.489 I39.302 J-81.356
N2715 X-32.182 Y84.264 I105.567 J-258.37
N2720 X-30.254 Y85.009 I32.428 J-81.076
N2725 X-29.729 Y84.644 I0.136 J-0.365
N2730 G1 X-29.81 Y77.03
N2735 G3 X-18.949 Y66.17 I10.861 J0.001
N2740 G1 X18.949
N2745 G3 X29.81 Y77.031 I0. J10.861
N2750 G1 X29.729 Y84.644
N2755 G2 X30.254 Y85.009 I0.389 J0.
N2760 X32.182 Y84.264 I-30.524 J-81.895
N2765 X34.098 Y83.489 I-103.103 J-257.821
N2770 X39.226 Y81.206 I-34.637 J-84.679
N2775 X73.133 Y52.77 I-39.188 J-81.161
N2780 X89.517 Y10.949 I-73.136 J-52.773
N2785 X88.853 Y9.637 I-1.31 J-0.16
N2790 G3 X88.171 Y8.335 I0.659 J-1.175
N2795 G2 X88.563 Y0.491 I-88.174 J-8.338
N2800 X87.908 Y-10.446 I-83.824 J-0.467
N2805 X85.981 Y-21.232 I-105.541 J13.286
N2810 X80.538 Y-36.838 I-77.871 J18.409
N2815 X68.991 Y-55.439 I-85.264 J40.043
N2820 X53.311 Y-70.72 I-68.025 J54.116
N2825 X48.91 Y-73.832 I-52.852 J70.072
N2830 X46.702 Y-75.23 I-35.626 J53.813
N2835 G1 X44.314 Y-76.676
N2840 G2 X41.842 Y-78.077 I-25.865 J42.733
N2845 X39.308 Y-79.361 I-36.005 J67.927
N2850 X33.188 Y-82.119 I-53.879 J111.411
N2855 X26.884 Y-84.426 I-28.586 J68.336
N2860 X26.351 Y-84.036 I-0.123 J0.39
N2865 G1 X26.43 Y-59.909
N2870 G3 X13.946 Y-47.439 I-12.484 J-0.014
N2875 G1 X-13.946
N2880 G3 X-26.43 Y-59.909 I-0.013 J-12.471
N2885 G1 X-26.351 Y-84.036
N2890 G2 X-26.884 Y-84.426 I-0.409 J0.
N2895 X-87.936 Y-10.515 I26.982 J84.458
N2900 X-88.208 Y-7.788 I68.773 J8.239
N2905 X-88.418 Y-5.056 I437.002 J34.891
N2910 X-88.545 Y-2.284 I50.126 J3.687
N2915 X-88.563 Y0.491 I116.679 J2.125
N2920 X-87.797 Y11.416 I85.091 J-0.474
N2925 X-85.743 Y22.173 I99.911 J-13.506
N2930 X-85.045 Y24.667 I42.639 J-10.572
N2935 G3 X-84.291 Y27.145 I-190.809 J59.446
N2940 G2 X-83.372 Y29.911 I44.155 J-13.131
N2945 X-82.333 Y32.633 I108.801 J-40.002
N2950 X-56.91 Y67.857 I82.255 J-32.579
N2955 X-38.521 Y79.746 I56.775 J-67.65
N2960 X-35.232 Y81.288 I69.874 J-144.783
N2965 X-31.874 Y82.676 I21.433 J-47.1
N2970 X-31.349 Y82.311 I0.136 J-0.365
N2975 X-31.39 Y79.671 I-86.112 J-0.005
N2980 G3 X-31.43 Y77.03 I86.071 J-2.636
N2985 X-18.949 Y64.55 I12.481 J0.001
N2990 G1 X18.949
N2995 G3 X31.43 Y77.031 I0. J12.481
N3000 X31.389 Y79.671 I-86.088 J0.
N3005 G2 X31.349 Y82.311 I86.048 J2.64
N3010 X31.874 Y82.676 I0.389 J0.
N3015 G1 X38.521 Y79.746
N3020 G2 X71.819 Y51.822 I-38.484 J-79.702
N3025 X88.171 Y8.335 I-71.821 J-51.825
N3030 X87.47 Y7.042 I-1.314 J-0.124
N3035 G3 X86.752 Y5.759 I0.627 J-1.194
N3040 G2 X86.942 Y0.481 I-86.755 J-5.762
N3045 X86.297 Y-10.266 I-82.253 J-0.458
N3050 X84.403 Y-20.865 I-103.91 J13.101
N3055 X79.071 Y-36.149 I-76.298 J18.045
N3060 X67.733 Y-54.418 I-83.792 J39.352
N3065 X52.335 Y-69.426 I-66.772 J53.102
N3070 X48.016 Y-72.481 I-51.875 J68.777
N3075 X45.834 Y-73.862 I-35.194 J53.16
N3080 G1 X43.475 Y-75.29
N3085 G2 X41.069 Y-76.654 I-25.008 J41.317
N3090 X38.603 Y-77.903 I-35.376 J66.801
N3095 G1 X31.216 Y-81.14
N3100 X30.118 Y-81.602
N3105 G2 X28.69 Y-82.151 I-9.581 J22.771
N3110 G1 X28.597 Y-82.185
N3115 X28.504 Y-82.217
N3120 G2 X27.971 Y-81.826 I-0.123 J0.39
N3125 G1 X28.05 Y-59.909
N3130 G3 X13.946 Y-45.819 I-14.104 J-0.014
N3135 G1 X-13.946
N3140 G3 X-28.05 Y-59.909 I-0.013 J-14.091
N3145 G1 X-27.971 Y-81.826
N3150 G2 X-28.504 Y-82.217 I-0.409 J0.
N3155 G1 X-28.597 Y-82.185
N3160 X-28.69 Y-82.151
N3165 G2 X-29.953 Y-81.646 I5.043 J14.424
N3170 G3 X-31.216 Y-81.14 I-6.306 J-13.919
N3175 G2 X-32.644 Y-80.591 I8.153 J23.32
N3180 G1 X-33.742 Y-80.129
N3185 G2 X-36.195 Y-79.043 I28.196 J67.013
N3190 X-38.619 Y-77.895 I80.946 J174.117
N3195 X-41.006 Y-76.667 I22.244 J46.15
N3200 X-43.353 Y-75.363 I114.186 J208.25
N3205 X-45.71 Y-73.963 I29.558 J52.491
N3210 X-48.016 Y-72.481 I54.952 J87.969
N3215 X-52.335 Y-69.426 I47.51 J71.767
N3220 X-56.576 Y-66.018 I52.292 J69.407
N3225 X-67.785 Y-54.416 I55.689 J65.015
N3230 X-76.689 Y-40.963 I70.841 J56.56
N3235 X-79.087 Y-36.117 I75.248 J40.26
N3240 X-86.327 Y-10.322 I79.247 J36.156
N3245 X-86.596 Y-7.632 I67.816 J8.125
N3250 X-86.802 Y-4.937 I432.091 J34.493
N3255 X-86.926 Y-2.229 I48.445 J3.563
N3260 X-86.942 Y0.481 I116.932 J2.059
N3265 X-86.189 Y11.215 I83.506 J-0.465
N3270 X-84.17 Y21.783 I98.28 J-13.299
N3275 X-83.482 Y24.241 I41.744 J-10.35
N3280 G3 X-82.738 Y26.684 I-182.433 J56.916
N3285 G2 X-81.841 Y29.381 I42.568 J-12.659
N3290 X-80.826 Y32.036 I109.345 J-40.295
N3295 X-55.869 Y66.615 I80.748 J-31.982
N3300 X-37.817 Y78.286 I55.734 J-66.408
N3305 X-33.485 Y80.304 I61.688 J-126.777
N3310 X-32.969 Y79.97 I0.149 J-0.335
N3315 X-33.01 Y78.5 I-26.694 J-0.002
N3320 G3 X-33.05 Y77.03 I26.653 J-1.468
N3325 X-18.949 Y62.93 I14.101 J0.001
N3330 G1 X18.949
N3335 G3 X33.05 Y77.031 I0. J14.101
N3340 X33.009 Y78.5 I-26.68 J0.
N3345 G2 X32.969 Y79.97 I26.64 J1.47
N3350 X33.485 Y80.304 I0.366 J0.
N3355 X37.817 Y78.286 I-71.298 J-158.729
N3360 X70.504 Y50.874 I-37.78 J-78.242
N3365 X86.752 Y5.759 I-70.507 J-50.876
N3370 X85.999 Y4.451 I-1.357 J-0.09
N3375 G3 X85.229 Y3.152 I0.615 J-1.241
N3380 G2 X84.717 Y-10.137 I-82.97 J-3.453
N3385 X79.688 Y-30.488 I-84.402 J10.062
N3390 X78.611 Y-33.132 I-63.935 J24.497
N3395 G1 X77.628 Y-35.408
N3400 G2 X76.479 Y-37.855 I-39.59 J17.095
N3405 X75.229 Y-40.251 I-115.166 J58.543
N3410 X74.304 Y-41.891 I-37.425 J20.021
N3415 G3 X73.354 Y-43.517 I128.192 J-76.075
N3420 G2 X65.341 Y-54.937 I-68.084 J39.249
N3425 X55.488 Y-64.814 I-63.965 J53.955
N3430 X30.114 Y-79.875 I-56.937 J67.02
N3435 X29.591 Y-79.515 I-0.138 J0.36
N3440 G1 X29.67 Y-59.908
N3445 G3 X13.946 Y-44.199 I-15.724 J-0.014
N3450 G1 X-13.946
N3455 G3 X-29.67 Y-59.908 I-0.013 J-15.711
N3460 G1 X-29.591 Y-79.515
N3465 G2 X-30.114 Y-79.875 I-0.385 J0.
N3470 X-75.263 Y-40.192 I31.086 J80.893
N3475 X-77.613 Y-35.444 I73.949 J39.547
N3480 X-84.718 Y-10.129 I77.77 J35.483
N3485 X-84.983 Y-7.476 I66.86 J8.01
N3490 X-85.186 Y-4.818 I427.185 J34.095
N3495 X-85.306 Y-2.174 I46.775 J3.441
N3500 X-85.321 Y0.472 I117.349 J1.993
N3505 X-84.581 Y11.014 I81.922 J-0.456
N3510 X-82.597 Y21.393 I96.651 J-13.093
N3515 X-81.895 Y23.972 I57.217 J-14.187
N3520 X-81.094 Y26.523 I80.977 J-24.023
N3525 X-78.261 Y33.878 I78.606 J-26.053
N3530 X-74.837 Y40.977 I105.598 J-46.559
N3535 X-73.546 Y43.274 I40.947 J-21.504
N3540 X-72.165 Y45.517 I99.853 J-59.928
N3545 X-62.42 Y58.167 I72.391 J-45.687
N3550 X-46.268 Y71.688 I62.444 J-58.189
N3555 X-40.804 Y74.964 I52.233 J-80.913
N3560 X-35.105 Y77.81 I35.119 J-63.218
N3565 X-34.589 Y77.475 I0.149 J-0.335
N3570 G1 X-34.596 Y77.252
N3575 X-34.603 Y77.03
N3580 G3 X-18.949 Y61.31 I15.654 J-0.066
N3585 G1 X18.949
N3590 G3 X34.603 Y77.031 I-0.067 J15.721
N3595 G1 X34.596 Y77.253
N3600 X34.589 Y77.475
N3605 G2 X35.105 Y77.81 I0.366 J0.
N3610 X36.115 Y77.331 I-9.634 J-21.633
N3615 G3 X37.117 Y76.837 I30.405 J60.43
N3620 G2 X69.19 Y49.925 I-37.155 J-76.847
N3625 X72.165 Y45.517 I-70.467 J-50.777
N3630 X78.249 Y33.849 I-67.469 J-42.597
N3635 X82.588 Y21.426 I-97.883 J-41.16
N3640 X82.855 Y20.32 I-14.492 J-4.074
N3645 G3 X83.092 Y19.207 I47.859 J9.625
N3650 G2 X85.156 Y4.605 I-88.55 J-19.966
N3655 X85.229 Y3.152 I-82.897 J-4.906
N3660 X84.469 Y1.915 I-1.298 J-0.054
N3665 G3 X83.688 Y0.691 I0.551 J-1.213
N3670 G2 X50.383 Y-66.838 I-83.725 J-0.685
N3675 X43.967 Y-71.177 I-45.171 J59.885
N3680 X37.216 Y-74.973 I-65.137 J107.944
N3685 G1 X31.734 Y-77.516
N3690 G2 X31.211 Y-77.157 I-0.138 J0.36
N3695 G1 X31.29 Y-59.908
N3700 G3 X13.946 Y-42.579 I-17.344 J-0.014
N3705 G1 X-13.946
N3710 G3 X-31.29 Y-59.908 I-0.013 J-17.331
N3715 G1 X-31.211 Y-77.157
N3720 G2 X-31.734 Y-77.516 I-0.385 J0.
N3725 G1 X-37.2 Y-74.982
N3730 G2 X-39.497 Y-73.79 I32.022 J64.554
N3735 X-41.763 Y-72.539 I74.957 J138.387
N3740 X-44.019 Y-71.198 I27.857 J49.471
N3745 X-46.226 Y-69.778 I54.163 J86.566
N3750 X-50.383 Y-66.838 I45.721 J69.065
N3755 X-54.467 Y-63.556 I50.359 J66.841
N3760 X-65.262 Y-52.38 I53.591 J62.566
N3765 X-73.838 Y-39.421 I68.307 J54.518
N3770 X-76.138 Y-34.771 I72.651 J38.835
N3775 X-83.569 Y-4.718 I76.122 J34.768
N3780 X-83.7 Y0.463 I83.706 J4.714
N3785 X-83.511 Y5.651 I82.748 J-0.423
N3790 X-82.991 Y10.873 I85.353 J-5.861
N3795 X-82.171 Y15.938 I82.082 J-10.696
N3800 X-53.787 Y64.131 I82.111 J-15.905
N3805 X-45.527 Y70.195 I51.225 J-61.114
N3810 X-36.659 Y75.328 I62.269 J-97.359
N3815 X-36.092 Y75.028 I0.18 J-0.345
N3820 G3 X-30.438 Y64.098 I17.314 J2.029
N3825 X-18.949 Y59.69 I11.489 J12.769
N3830 G1 X18.949
N3835 G3 X30.438 Y64.098 I0. J17.177
N3840 X36.092 Y75.028 I-11.66 J12.959
N3845 G2 X36.659 Y75.328 I0.387 J-0.045
N3850 X40.958 Y72.997 I-78.535 J-149.958
N3855 X45.389 Y70.327 I-40.988 J-73.028
N3860 X47.535 Y68.886 I-39.594 J-61.334
N3865 X49.643 Y67.39 I-85.233 J-122.303
N3870 X59.497 Y58.914 I-45.18 J-62.491
N3875 X67.875 Y48.977 I-61.423 J-60.287
N3880 X70.795 Y44.652 I-69.141 J-49.822
N3885 X83.688 Y0.691 I-70.832 J-44.645
N3890 X82.882 Y-0.533 I-1.316 J-0.011
N3895 G3 X82.057 Y-1.745 I0.521 J-1.241
N3900 G2 X49.407 Y-65.544 I-82.102 J1.762
N3905 X41.634 Y-70.735 I-48.991 J64.95
N3910 X33.345 Y-75.054 I-46.519 J79.162
N3915 X32.831 Y-74.724 I-0.151 J0.33
N3920 G1 X32.91 Y-59.908
N3925 G3 X13.946 Y-40.959 I-18.964 J-0.015
N3930 G1 X-13.946
N3935 G3 X-32.91 Y-59.908 I-0.013 J-18.951
N3940 G1 X-32.831 Y-74.724
N3945 G2 X-33.345 Y-75.054 I-0.363 J0.
N3950 X-55.866 Y-60.062 I35.819 J78.217
N3955 X-72.41 Y-38.654 I54.991 J59.595
N3960 X-37.913 Y72.848 I72.441 J38.675
N3965 X-37.292 Y72.566 I0.2 J-0.384
N3970 G3 X-30.626 Y62.147 I18.554 J4.529
N3975 X-18.949 Y58.07 I11.677 J14.682
N3980 G1 X18.949
N3985 G3 X30.626 Y62.147 I0. J18.76
N3990 X37.292 Y72.566 I-11.888 J14.947
N3995 G2 X37.913 Y72.848 I0.421 J-0.103
N4000 X76.306 Y30.244 I-38.094 J-72.929
N4005 X78.028 Y25.474 I-76.057 J-30.163
N4010 X79.457 Y20.591 I-78.008 J-25.469
N4015 X82.057 Y-1.745 I-79.502 J-20.574
N4020 X81.211 Y-2.948 I-1.32 J0.028
N4025 G3 X80.348 Y-4.139 I0.485 J-1.261
N4030 G2 X48.431 Y-64.25 I-80.392 J4.156
N4035 X44.437 Y-67.075 I-47.97 J63.599
N4040 X40.153 Y-69.725 I-44.505 J67.142
N4045 X37.987 Y-70.959 I-120.272 J208.697
N4050 X35.782 Y-72.125 I-23.528 J41.821
N4055 G3 X35.375 Y-72.331 I12.695 J-25.591
N4060 G2 X34.964 Y-72.531 I-4.454 J8.629
N4065 X34.45 Y-72.201 I-0.151 J0.33
N4070 X34.49 Y-66.054 I466.427 J0.047
N4075 G3 X34.53 Y-59.908 I-466.387 J6.099
N4080 X13.946 Y-39.339 I-20.584 J-0.015
N4085 G1 X-13.946
N4090 G3 X-34.53 Y-59.908 I-0.013 J-20.571
N4095 G1 X-34.45 Y-72.201
N4100 G2 X-34.964 Y-72.531 I-0.363 J0.
N4105 X-35.375 Y-72.331 I4.043 J8.829
N4110 G3 X-35.782 Y-72.125 I-13.102 J-25.385
N4115 G2 X-37.987 Y-70.959 I21.323 J42.985
N4120 X-40.153 Y-69.725 I118.115 J209.949
N4125 X-44.437 Y-67.075 I40.994 J71.042
N4130 X-48.431 Y-64.25 I43.933 J66.364
N4135 X-52.358 Y-61.094 I48.426 J64.276
N4140 X-80.333 Y-4.535 I52.352 J61.091
N4145 X-80.459 Y0.445 I80.464 J4.532
N4150 X-80.277 Y5.431 I79.53 J-0.407
N4155 X-79.777 Y10.453 I82.082 J-5.636
N4160 X-58.862 Y54.854 I79.863 J-10.493
N4165 X-43.631 Y67.603 I58.886 J-54.876
N4170 G1 X-41.859 Y68.747
N4175 G2 X-39.404 Y70.226 I25.122 J-38.917
N4180 G3 X-39.181 Y70.354 I-7.805 J13.91
N4185 G2 X-38.957 Y70.477 I2.74 J-4.705
N4190 X-38.278 Y70.21 I0.223 J-0.428
N4195 G3 X-30.8 Y60.259 I19.578 J6.927
N4200 X-18.949 Y56.45 I11.851 J16.531
N4205 G1 X18.949
N4210 G3 X30.8 Y60.259 I0. J20.34
N4215 X38.278 Y70.21 I-12.1 J16.878
N4220 G2 X38.957 Y70.477 I0.455 J-0.161
N4225 X39.181 Y70.354 I-2.516 J-4.829
N4230 G3 X39.403 Y70.226 I8.027 J13.782
N4235 G2 X41.859 Y68.747 I-22.667 J-40.396
N4240 G1 X43.631 Y67.603
N4245 G2 X58.862 Y54.854 I-43.507 J-67.449
N4250 X74.799 Y29.646 I-58.889 J-54.875
N4255 X76.488 Y24.971 I-74.553 J-29.567
N4260 X77.888 Y20.185 I-76.467 J-24.966
N4265 X80.348 Y-4.139 I-77.933 J-20.168
N4270 X79.469 Y-5.312 I-1.313 J0.068
N4275 G3 X78.572 Y-6.472 I0.445 J-1.271
N4280 G2 X78.279 Y-9.369 I-80.424 J6.661
N4285 X77.561 Y-14.144 I-77.362 J9.202
N4290 X76.535 Y-18.922 I-77.574 J14.147
N4295 X75.216 Y-23.627 I-76.523 J18.918
N4300 X60.434 Y-50.552 I-74.584 J23.428
N4305 X36.575 Y-69.896 I-62.298 J52.454
N4310 X36.07 Y-69.593 I-0.162 J0.302
N4315 G1 X36.15 Y-59.908
N4320 G3 X13.946 Y-37.719 I-22.204 J-0.015
N4325 G1 X-13.946
N4330 G3 X-36.15 Y-59.908 I-0.013 J-22.191
N4335 G1 X-36.07 Y-69.593
N4340 G2 X-36.575 Y-69.896 I-0.343 J0.
N4345 G1 X-43.542 Y-65.723
N4350 G2 X-47.455 Y-62.956 I43.038 J65.013
N4355 X-51.304 Y-59.863 I47.459 J62.993
N4360 X-73.293 Y29.049 I51.289 J59.859
N4365 X-71.345 Y33.55 I73.33 J-29.056
N4370 X-69.13 Y37.904 I71.331 J-33.542
N4375 X-56.466 Y54.953 I68. J-37.285
N4380 X-39.798 Y68.116 I60.248 J-59.156
N4385 X-39.09 Y67.896 I0.256 J-0.426
N4390 G3 X-30.941 Y58.401 I20.427 J9.288
N4395 X-18.949 Y54.83 I11.992 J18.344
N4400 G1 X18.949
N4405 G3 X30.941 Y58.401 I0. J21.916
N4410 X39.09 Y67.896 I-12.278 J18.783
N4415 G2 X39.798 Y68.116 I0.452 J-0.206
N4420 X41.284 Y67.189 I-29.258 J-48.552
N4425 G1 X42.752 Y66.241
N4430 G2 X77.41 Y14.937 I-42.782 J-66.259
N4435 X78.17 Y10.243 I-76.124 J-14.739
N4440 X78.66 Y5.321 I-78.164 J-10.267
N4445 X78.838 Y0.436 I-78.894 J-5.326
N4450 X78.715 Y-4.439 I-77.793 J-0.467
N4455 X78.572 Y-6.472 I-80.567 J4.628
N4460 X77.648 Y-7.63 I-1.325 J0.11
N4465 G3 X76.706 Y-8.773 I0.411 J-1.298
N4470 G2 X46.479 Y-61.662 I-76.74 J8.776
N4475 X42.648 Y-64.372 I-46.017 J61.01
N4480 G1 X40.795 Y-65.598
N4485 G2 X38.569 Y-66.975 I-23.32 J35.225
N4490 G1 X38.382 Y-67.084
N4495 X38.194 Y-67.191
N4500 G2 X37.69 Y-66.889 I-0.162 J0.302
N4505 X37.73 Y-63.398 I150.439 J0.015
N4510 G3 X37.77 Y-59.908 I-150.399 J3.475
N4515 X13.946 Y-36.099 I-23.824 J-0.015
N4520 G1 X-13.946
N4525 G3 X-37.77 Y-59.908 I-0.013 J-23.811
N4530 G1 X-37.69 Y-66.889
N4535 G2 X-38.194 Y-67.191 I-0.343 J0.
N4540 G1 X-38.382 Y-67.084
N4545 X-38.569 Y-66.975
N4550 G2 X-40.795 Y-65.598 I21.094 J36.603
N4555 G1 X-42.648 Y-64.372
N4560 G2 X-46.479 Y-61.662 I42.144 J63.662
N4565 X-50.249 Y-58.632 I46.493 J61.71
N4570 X-77.096 Y-4.353 I50.243 J58.629
N4575 X-77.217 Y0.427 I77.222 J4.349
N4580 X-77.043 Y5.212 I76.312 J-0.39
N4585 X-76.563 Y10.033 I78.811 J-5.412
N4590 X-56.49 Y52.645 I76.648 J-10.073
N4595 X-53.158 Y56.009 I55.909 J-52.033
N4600 X-49.622 Y59.162 I53.123 J-56.006
N4605 X-47.755 Y60.661 I36.117 J-43.089
N4610 G3 X-45.859 Y62.125 I-291.72 J379.777
N4615 G1 X-40.503 Y65.8
N4620 G2 X-39.747 Y65.597 I0.28 J-0.465
N4625 G3 X-31.041 Y56.561 I21.123 J11.641
N4630 X-18.949 Y53.21 I12.092 J20.135
N4635 G1 X18.949
N4640 G3 X31.041 Y56.561 I0. J23.487
N4645 X39.747 Y65.597 I-12.417 J20.677
N4650 G2 X40.503 Y65.8 I0.476 J-0.262
N4655 G1 X45.825 Y62.152
N4660 G2 X49.553 Y59.22 I-45.782 J-62.065
N4665 X53.161 Y56.006 I-49.619 J-59.322
N4670 X56.49 Y52.645 I-53.074 J-55.886
N4675 X76.706 Y-8.773 I-56.524 J-52.642
N4680 X75.779 Y-9.864 I-1.277 J0.146
N4685 G3 X74.835 Y-10.94 I0.357 J-1.266
N4690 G2 X39.804 Y-64.321 I-74.808 J10.906
N4695 X39.309 Y-64.046 I-0.171 J0.276
N4700 X39.35 Y-61.977 I52.878 J0.005
N4705 G3 X39.39 Y-59.907 I-52.838 J2.064
N4710 X13.946 Y-34.479 I-25.444 J-0.015
N4715 G1 X-13.946
N4720 G3 X-39.39 Y-59.907 I-0.013 J-25.431
N4725 X-39.35 Y-61.977 I52.878 J-0.005
N4730 G2 X-39.309 Y-64.046 I-52.838 J-2.064
N4735 X-39.804 Y-64.321 I-0.324 J0.
N4740 X-70.279 Y27.854 I39.84 J64.298
N4745 X-68.411 Y32.171 I70.326 J-27.866
N4750 X-66.288 Y36.346 I68.393 J-32.16
N4755 X-63.943 Y40.325 I66.122 J-36.287
N4760 X-61.302 Y44.236 I64.171 J-40.471
N4765 X-52.038 Y54.747 I58.309 J-42.059
N4770 X-41.12 Y63.529 I65.258 J-69.949
N4775 X-40.302 Y63.365 I0.33 J-0.478
N4780 G3 X-31.13 Y54.75 I21.716 J13.931
N4785 X-18.949 Y51.59 I12.181 J21.894
N4790 G1 X18.949
N4795 G3 X31.13 Y54.75 I0. J25.054
N4800 X40.302 Y63.365 I-12.543 J22.546
N4805 G2 X41.12 Y63.529 I0.488 J-0.313
N4810 X44.863 Y60.847 I-97.481 J-140.004
N4815 X48.513 Y57.978 I-44.814 J-60.753
N4820 X52.045 Y54.83 I-48.587 J-58.089
N4825 X55.304 Y51.54 I-51.948 J-54.701
N4830 X58.424 Y47.976 I-54.908 J-51.221
N4835 X74.835 Y-10.94 I-58.397 J-48.009
N4840 X73.827 Y-12.053 I-1.333 J0.194
N4845 G3 X72.8 Y-13.149 I0.333 J-1.342
N4850 G1 X72.777 Y-13.272
N4855 G2 X71.815 Y-17.755 I-72.79 J13.274
N4860 X68.378 Y-28.095 I-67.413 J16.666
N4865 X63.529 Y-37.853 I-81.326 J34.33
N4870 X53.748 Y-50.814 I-57.079 J32.906
N4875 X41.414 Y-61.375 I-63.011 J61.104
N4880 X40.929 Y-61.124 I-0.178 J0.251
N4885 X40.948 Y-60.516 I9.743 J0.001
N4890 G3 X40.967 Y-59.907 I-9.724 J0.607
N4895 X13.946 Y-32.859 I-27.021 J0.028
N4900 G1 X-13.946
N4905 G3 X-40.967 Y-59.907 I0.03 J-27.051
N4910 X-40.948 Y-60.516 I9.743 J-0.001
N4915 G2 X-40.929 Y-61.124 I-9.724 J-0.607
N4920 X-41.414 Y-61.375 I-0.308 J0.
N4925 X-43.41 Y-59.917 I46.426 J65.653
N4930 G1 X-44.527 Y-59.074
N4935 G2 X-73.86 Y-4.17 I44.518 J59.071
N4940 X-73.976 Y0.409 I73.981 J4.167
N4945 X-65.216 Y34.812 I73.539 J-0.41
N4950 X-41.544 Y61.268 I66.656 J-35.821
N4955 X-40.734 Y61.131 I0.335 J-0.485
N4960 G3 X-31.177 Y52.945 I22.187 J16.231
N4965 X-18.949 Y49.97 I12.228 J23.64
N4970 G1 X18.949
N4975 G3 X31.177 Y52.945 I0. J26.615
N4980 X40.734 Y61.131 I-12.629 J24.417
N4985 G2 X41.544 Y61.268 I0.475 J-0.348
N4990 X61.731 Y40.696 I-43.181 J-62.563
N4995 X72.636 Y14.015 I-61.309 J-40.626
N5000 X73.349 Y9.613 I-71.388 J-13.821
N5005 X73.809 Y4.992 I-73.396 J-9.641
N5010 X73.976 Y0.409 I-74.007 J-4.996
N5015 X73.86 Y-4.164 I-72.965 J-0.438
N5020 X73.451 Y-8.793 I-75.658 J4.346
N5025 X72.8 Y-13.149 I-72.559 J8.631
N5030 X71.776 Y-14.205 I-1.298 J0.234
N5035 G3 X70.735 Y-15.243 I0.282 J-1.324
N5040 G2 X59.142 Y-41.684 I-70.68 J15.227
N5045 X56.43 Y-45.288 I-59.353 J41.837
N5050 X53.515 Y-48.699 I-56.299 J45.165
N5055 X50.397 Y-51.919 I-53.617 J48.805
N5060 X47.087 Y-54.939 I-49.87 J51.337
N5065 X45.359 Y-56.41 I-243.364 J284.118
N5070 X43.586 Y-57.827 I-26.185 J30.948
N5075 G3 X43.293 Y-58.051 I13.501 J-17.9
N5080 G2 X42.997 Y-58.271 I-4.811 J6.164
N5085 X42.487 Y-58.028 I-0.187 J0.265
N5090 G3 X13.946 Y-31.239 I-28.541 J-1.809
N5095 G1 X-13.946
N5100 G3 X-42.487 Y-58.028 I0.077 J-28.68
N5105 G2 X-42.997 Y-58.271 I-0.323 J0.021
N5110 X-43.293 Y-58.051 I4.514 J6.384
N5115 G3 X-43.586 Y-57.827 I-13.794 J-17.675
N5120 G2 X-72.242 Y-4.079 I43.74 J57.833
N5125 X-72.355 Y0.4 I72.36 J4.075
N5130 X-72.192 Y4.882 I71.485 J-0.366
N5135 X-71.741 Y9.403 I73.905 J-5.075
N5140 X-71.033 Y13.778 I70.891 J-9.237
N5145 X-70.043 Y18.152 I71.01 J-13.772
N5150 X-68.784 Y22.456 I70.049 J-18.154
N5155 X-67.266 Y26.659 I68.766 J-22.458
N5160 X-65.478 Y30.792 I67.322 J-26.676
N5165 X-63.445 Y34.788 I65.454 J-30.779
N5170 X-61.202 Y38.595 I63.263 J-34.718
N5175 X-58.673 Y42.34 I61.45 J-38.756
N5180 X-55.921 Y45.917 I58.022 J-41.812
N5185 X-52.931 Y49.331 I57.091 J-46.967
N5190 X-49.811 Y52.482 I52.367 J-48.737
N5195 X-46.499 Y55.436 I49.76 J-52.46
N5200 X-44.251 Y57.292 I126.734 J-151.2
N5205 X-41.919 Y59.041 I23.38 J-28.746
N5210 X-41.071 Y58.922 I0.359 J-0.52
N5215 G3 X-31.197 Y51.152 I22.564 J18.513
N5220 X-18.949 Y48.35 I12.248 J25.368
N5225 G1 X18.949
N5230 G3 X31.197 Y51.152 I0. J28.17
N5235 X41.071 Y58.922 I-12.69 J26.283
N5240 G2 X41.919 Y59.041 I0.489 J-0.401
N5245 X44.217 Y57.319 I-20.924 J-30.315
N5250 X46.432 Y55.492 I-121.08 J-149.086
N5255 X49.814 Y52.479 I-46.524 J-55.622
N5260 X71.044 Y13.708 I-49.858 J-52.499
N5265 X71.741 Y9.403 I-69.809 J-13.516
N5270 X72.192 Y4.882 I-71.807 J-9.432
N5275 X72.355 Y0.4 I-72.378 J-4.886
N5280 X70.735 Y-15.243 I-72.301 J-0.417
N5285 X69.685 Y-16.256 I-1.279 J0.276
N5290 G3 X68.619 Y-17.251 I0.236 J-1.322
N5295 G2 X44.305 Y-55.2 I-68.653 J17.222
N5300 X43.766 Y-54.994 I-0.21 J0.261
N5305 G3 X13.946 Y-29.619 I-29.82 J-4.834
N5310 G1 X-13.946
N5315 G3 X-43.766 Y-54.994 I0.09 J-30.315
N5320 G2 X-44.305 Y-55.2 I-0.33 J0.055
N5325 X-70.623 Y-3.987 I44.437 J55.205
N5330 X-70.734 Y0.391 I70.739 J3.984
N5335 X-70.575 Y4.772 I69.876 J-0.357
N5340 X-70.134 Y9.193 I72.269 J-4.963
N5345 X-69.442 Y13.469 I69.292 J-9.029
N5350 X-68.474 Y17.745 I69.419 J-13.464
N5355 X-67.243 Y21.953 I68.48 J-17.748
N5360 X-65.759 Y26.062 I67.223 J-21.954
N5365 X-64.011 Y30.102 I65.82 J-26.081
N5370 X-62.024 Y34.008 I63.985 J-30.088
N5375 X-59.831 Y37.73 I61.834 J-33.933
N5380 X-51.845 Y48.037 I57.483 J-36.292
N5385 X-42.227 Y56.84 I63.931 J-60.189
N5390 X-41.35 Y56.767 I0.399 J-0.507
N5395 G3 X-31.212 Y49.377 I22.883 J20.747
N5400 X-18.949 Y46.73 I12.263 J27.073
N5405 G1 X18.949
N5410 G3 X31.212 Y49.377 I0. J29.721
N5415 X41.35 Y56.767 I-12.744 J28.136
N5420 G2 X42.227 Y56.84 I0.478 J-0.433
N5425 G1 X48.699 Y51.303
N5430 G2 X68.619 Y-17.251 I-48.733 J-51.332
N5435 X67.511 Y-18.247 I-1.295 J0.325
N5440 G3 X66.385 Y-19.223 I0.192 J-1.36
N5445 G2 X61.995 Y-30.478 I-65.725 J19.15
N5450 X54.693 Y-42.128 I-61.894 J30.683
N5455 X45.367 Y-52.232 I-63.393 J49.158
N5460 X44.806 Y-52.064 I-0.23 J0.252
N5465 G3 X13.946 Y-27.999 I-30.86 J-7.753
N5470 G1 X-13.946
N5475 G3 X-44.806 Y-52.064 I0.104 J-31.952
N5480 G2 X-45.367 Y-52.232 I-0.331 J0.084
N5485 G1 X-51.117 Y-46.518
N5490 G2 X-53.902 Y-43.26 I51.039 J46.439
N5495 X-56.493 Y-39.816 I54.465 J43.678
N5500 X-58.838 Y-36.263 I56.125 J39.588
N5505 X-60.972 Y-32.548 I58.845 J36.267
N5510 X-62.866 Y-28.718 I59.944 J32.034
N5515 X-67.045 Y16.503 I62.705 J28.599
N5520 X-42.396 Y54.646 I67.975 J-16.893
N5525 X-41.518 Y54.593 I0.409 J-0.519
N5530 G3 X-31.179 Y47.601 I23.094 J23.011
N5535 X-18.949 Y45.11 I12.23 J28.77
N5540 G1 X18.949
N5545 G3 X31.179 Y47.601 I0. J31.261
N5550 X41.519 Y54.593 I-12.755 J30.002
N5555 G2 X42.397 Y54.646 I0.469 J-0.467
N5560 X67.308 Y15.563 I-43.314 J-55.09
N5565 X66.385 Y-19.223 I-66.648 J-15.636
N5570 X65.261 Y-20.164 I-1.263 J0.368
N5575 G3 X64.12 Y-21.085 I0.143 J-1.343
N5580 G2 X55.169 Y-38.882 I-64.091 J21.086
N5585 X52.638 Y-42.245 I-55.391 J39.045
N5590 X49.919 Y-45.427 I-52.509 J42.124
N5595 X48.11 Y-47.39 I-162.659 J148.009
N5600 X46.213 Y-49.267 I-24.174 J22.539
N5605 X45.617 Y-49.115 I-0.248 J0.272
N5610 G3 X13.946 Y-26.379 I-31.671 J-10.691
N5615 G1 X-13.946
N5620 G3 X-45.617 Y-49.115 I0.117 J-33.59
N5625 G2 X-46.213 Y-49.267 I-0.348 J0.119
N5630 X-48.11 Y-47.39 I22.274 J24.414
N5635 X-49.919 Y-45.427 I160.804 J149.93
N5640 X-52.638 Y-42.245 I49.839 J45.348
N5645 X-67.387 Y-3.805 I52.626 J42.242
N5650 X-67.493 Y0.373 I67.497 J3.801
N5655 X-67.34 Y4.552 I66.658 J-0.341
N5660 X-66.92 Y8.773 I68.999 J-4.738
N5665 X-66.26 Y12.852 I66.095 J-8.612
N5670 X-65.336 Y16.932 I66.237 J-12.846
N5675 X-64.162 Y20.947 I65.342 J-16.934
N5680 X-62.746 Y24.867 I64.136 J-20.946
N5685 X-61.077 Y28.723 I62.816 J-24.89
N5690 X-59.182 Y32.45 I61.047 J-28.706
N5695 X-57.09 Y35.999 I58.975 J-32.365
N5700 X-54.73 Y39.496 I57.369 J-36.182
N5705 X-52.163 Y42.831 I54.106 J-38.99
N5710 X-49.373 Y46.017 I53.283 J-43.835
N5715 X-46.464 Y48.955 I48.825 J-45.44
N5720 X-44.537 Y50.762 I155.687 J-164.035
N5725 X-42.53 Y52.479 I22.256 J-24.005
N5730 X-41.623 Y52.443 I0.432 J-0.549
N5735 G3 X-31.131 Y45.827 I23.08 J24.976
N5740 X-18.949 Y43.49 I12.182 J30.573
N5745 G1 X18.949
N5750 G3 X31.131 Y45.827 I0. J32.91
N5755 X41.624 Y52.444 I-12.588 J31.592
N5760 G2 X42.531 Y52.48 I0.475 J-0.514
N5765 X44.54 Y50.761 I-19.771 J-25.146
N5770 X46.468 Y48.951 I-178.916 J-192.444
N5775 X49.373 Y46.017 I-46.318 J-48.772
N5780 X52.162 Y42.832 I-49.063 J-45.768
N5785 X64.12 Y-21.085 I-52.132 J-42.831
N5790 X62.924 Y-22.012 I-1.286 J0.423
N5795 G3 X61.71 Y-22.915 I0.093 J-1.394
N5800 G1 X61.691 Y-22.965
N5805 G2 X46.866 Y-46.367 I-63.78 J24.008
N5810 X46.257 Y-46.254 I-0.267 J0.258
N5815 G3 X13.946 Y-24.759 I-32.311 J-13.538
N5820 G1 X-13.946
N5825 G3 X-46.257 Y-46.254 I0.131 J-35.23
N5830 G2 X-46.866 Y-46.367 I-0.342 J0.145
N5835 X-60.16 Y-26.743 I49.188 J47.636
N5840 X-65.769 Y-3.714 I59.571 J26.707
N5845 X-65.872 Y0.364 I65.876 J3.71
N5850 X-65.723 Y4.442 I65.049 J-0.333
N5855 X-65.313 Y8.563 I67.363 J-4.626
N5860 X-64.668 Y12.543 I64.496 J-8.404
N5865 X-63.767 Y16.525 I64.646 J-12.538
N5870 X-62.621 Y20.444 I63.772 J-16.528
N5875 X-61.239 Y24.27 I62.593 J-20.442
N5880 X-53.447 Y38.387 I59.227 J-23.482
N5885 X-42.613 Y50.328 I61.724 J-45.119
N5890 X-41.692 Y50.338 I0.466 J-0.523
N5895 G3 X-31.076 Y44.074 I23.176 J27.149
N5900 X-18.949 Y41.87 I12.127 J32.261
N5905 G1 X18.949
N5910 G3 X31.079 Y44.075 I0. J34.466
N5915 X41.697 Y50.342 I-12.563 J33.412
N5920 G2 X42.604 Y50.332 I0.448 J-0.525
N5925 G1 X48.187 Y44.913
N5930 G2 X50.909 Y41.804 I-47.894 J-44.677
N5935 X53.416 Y38.547 I-51.061 J-41.896
N5940 X64.679 Y12.479 I-53.468 J-38.569
N5945 X65.313 Y8.563 I-63.493 J-12.293
N5950 X65.723 Y4.442 I-65.451 J-8.597
N5955 X61.71 Y-22.915 I-65.092 J-4.424
N5960 X60.552 Y-23.745 I-1.198 J0.45
N5965 G3 X59.38 Y-24.555 I0.041 J-1.312
N5970 G2 X52.52 Y-37.014 I-59.399 J24.59
N5975 G1 X47.574 Y-43.293
N5980 X47.472 Y-43.407
N5985 X47.369 Y-43.519
N5990 G2 X46.731 Y-43.422 I-0.284 J0.275
N5995 G3 X13.946 Y-23.139 I-32.785 J-16.354
N6000 G1 X-13.946
N6005 G3 X-46.731 Y-43.422 I0.145 J-36.872
N6010 G2 X-47.369 Y-43.519 I-0.354 J0.178
N6015 G1 X-47.472 Y-43.407
N6020 X-47.574 Y-43.294
N6025 G2 X-48.669 Y-42.012 I20.069 J18.262
N6030 G1 X-50.109 Y-40.217
N6035 G2 X-64.151 Y-3.622 I50.098 J40.213
N6040 X-64.251 Y0.355 I64.255 J3.619
N6045 X-64.106 Y4.332 I63.44 J-0.324
N6050 X-63.706 Y8.353 I65.728 J-4.513
N6055 X-42.578 Y48.187 I64.317 J-8.593
N6060 X-41.659 Y48.215 I0.476 J-0.534
N6065 G3 X-30.976 Y42.317 I23.172 J29.35
N6070 X-18.949 Y40.25 I12.027 J33.943
N6075 G1 X18.949
N6080 G3 X30.975 Y42.317 I0. J36.011
N6085 X41.658 Y48.214 I-12.488 J35.248
N6090 G2 X42.577 Y48.186 I0.444 J-0.562
N6095 X59.38 Y-24.555 I-42.597 J-48.151
N6100 X58.193 Y-25.344 I-1.182 J0.489
N6105 G3 X56.991 Y-26.112 I-0.005 J-1.315
N6110 G2 X47.693 Y-40.675 I-56.719 J25.965
N6115 X47.05 Y-40.618 I-0.301 J0.257
N6120 G3 X13.946 Y-21.519 I-33.105 J-19.14
N6125 G1 X-13.946
N6130 G3 X-47.05 Y-40.618 I0.16 J-38.516
N6135 G2 X-47.693 Y-40.675 I-0.342 J0.199
N6140 X-62.532 Y-3.531 I47.934 J40.686
N6145 X-62.631 Y0.346 I62.635 J3.528
N6150 X-62.489 Y4.222 I61.831 J-0.316
N6155 X-62.099 Y8.143 I64.092 J-4.401
N6160 X-61.486 Y11.926 I61.299 J-7.987
N6165 X-60.629 Y15.712 I61.464 J-11.921
N6170 X-59.539 Y19.438 I60.634 J-15.714
N6175 X-58.226 Y23.075 I59.507 J-19.434
N6180 X-56.677 Y26.655 I58.31 J-23.105
N6185 X-54.918 Y30.112 I56.64 J-26.634
N6190 X-52.979 Y33.403 I54.686 J-30.011
N6195 X-50.786 Y36.651 I53.288 J-33.608
N6200 X-48.405 Y39.745 I50.189 J-36.167
N6205 X-45.815 Y42.704 I49.476 J-40.702
N6210 G1 X-44.336 Y44.291
N6215 G2 X-42.519 Y46.07 I20.078 J-18.697
N6220 X-41.574 Y46.115 I0.501 J-0.561
N6225 G3 X-30.858 Y40.568 I23.117 J31.537
N6230 X-18.949 Y38.63 I11.909 J35.611
N6235 G1 X18.949
N6240 G3 X30.858 Y40.568 I0. J37.549
N6245 X41.573 Y46.114 I-12.401 J37.083
N6250 G2 X42.519 Y46.069 I0.445 J-0.607
N6255 X42.841 Y45.768 I-6.249 J-7.014
N6260 G3 X43.158 Y45.462 I19.646 J20.069
N6265 G2 X62.099 Y8.143 I-43.321 J-45.452
N6270 X56.991 Y-26.112 I-61.827 J-8.291
N6275 X55.673 Y-26.916 I-1.254 J0.574
N6280 G3 X54.335 Y-27.689 I-0.067 J-1.429
N6285 G2 X53.89 Y-28.533 I-52.461 J27.1
N6290 X47.898 Y-37.902 I-64.477 J34.638
N6295 X47.255 Y-37.882 I-0.315 J0.237
N6300 G3 X13.946 Y-19.899 I-33.309 J-21.856
N6305 G1 X-13.946
N6310 G3 X-47.255 Y-37.882 I0.174 J-40.163
N6315 G2 X-47.898 Y-37.902 I-0.328 J0.217
N6320 G1 X-51.939 Y-32.011
N6325 G2 X-53.823 Y-28.732 I51.947 J32.015
N6330 X-55.493 Y-25.355 I52.847 J28.241
N6335 X-60.914 Y-3.44 I55.472 J25.351
N6340 X-61.01 Y0.337 I61.014 J3.436
N6345 X-60.872 Y4.113 I60.222 J-0.308
N6350 X-60.492 Y7.933 I62.457 J-4.289
N6355 X-59.895 Y11.617 I59.7 J-7.779
N6360 X-59.06 Y15.305 I59.873 J-11.612
N6365 X-57.999 Y18.935 I59.065 J-15.308
N6370 X-51.658 Y32.364 I56.365 J-18.402
N6375 X-42.394 Y43.971 I58.712 J-37.359
N6380 X-41.473 Y44.059 I0.513 J-0.508
N6385 G3 X-30.744 Y38.832 I23.047 J33.685
N6390 X-18.949 Y37.01 I11.795 J37.26
N6395 G1 X18.949
N6400 G3 X30.744 Y38.832 I0. J39.082
N6405 X41.473 Y44.058 I-12.318 J38.912
N6410 G2 X42.394 Y43.971 I0.408 J-0.596
N6415 G1 X47.151 Y38.718
N6420 G2 X49.472 Y35.703 I-47.275 J-38.79
N6425 X51.608 Y32.538 I-50.585 J-36.45
N6430 X60.492 Y7.933 I-51.471 J-32.489
N6435 X60.872 Y4.113 I-60.684 J-7.971
N6440 X61.01 Y0.337 I-60.974 J-4.116
N6445 X60.914 Y-3.429 I-60.089 J-0.361
N6450 X60.576 Y-7.258 I-62.568 J3.594
N6455 X60.021 Y-10.945 I-59.752 J7.107
N6460 X59.228 Y-14.643 I-60.034 J10.948
N6465 X58.207 Y-18.284 I-59.218 J14.64
N6470 X54.335 Y-27.689 I-56.334 J17.695
N6475 X53.022 Y-28.421 I-1.209 J0.625
N6480 G3 X51.701 Y-29.139 I-0.106 J-1.38
N6485 G2 X50.898 Y-30.571 I-60.204 J32.811
N6490 X49.499 Y-32.892 I-60.35 J34.791
N6495 X47.961 Y-35.124 I-27.572 J17.358
N6500 X47.295 Y-35.122 I-0.332 J0.25
N6505 G3 X13.946 Y-18.279 I-33.349 J-24.593
N6510 G1 X-13.946
N6515 G3 X-47.295 Y-35.122 I0.19 J-41.813
N6520 G2 X-47.961 Y-35.124 I-0.334 J0.248
N6525 X-49.306 Y-33.172 I22.798 J17.154
N6530 X-50.559 Y-31.161 I208.033 J130.998
N6535 X-42.198 Y41.867 I50.602 J31.199
N6540 X-41.254 Y41.973 I0.537 J-0.532
N6545 G3 X-30.571 Y37.089 I22.862 J35.882
N6550 X-18.949 Y35.39 I11.622 J38.9
N6555 G1 X18.949
N6560 G3 X30.571 Y37.089 I0. J40.599
N6565 X41.254 Y41.973 I-12.18 J40.766
N6570 G2 X42.198 Y41.867 I0.406 J-0.638
N6575 X58.885 Y7.723 I-42.374 J-41.859
N6580 X59.255 Y4.003 I-59.095 J-7.762
N6585 X59.389 Y0.328 I-59.345 J-4.006
N6590 X59.296 Y-3.337 I-58.48 J-0.351
N6595 X58.967 Y-7.066 I-60.932 J3.5
N6600 X56.124 Y-19.228 I-56.024 J6.683
N6605 X51.701 Y-29.139 I-64.627 J22.9
N6610 X50.433 Y-29.794 I-1.119 J0.61
N6615 G3 X49.15 Y-30.42 I-0.155 J-1.31
N6620 G2 X47.901 Y-32.394 I-51.771 J31.367
N6625 X47.241 Y-32.43 I-0.343 J0.227
N6630 G3 X43.94 Y-28.81 I-38.908 J-32.165
N6635 X40.251 Y-25.588 I-26.6 J-26.733
N6640 X13.878 Y-16.659 I-26.373 J-34.482
N6645 G1 X-13.946
N6650 G3 X-47.241 Y-32.43 I0.207 J-43.467
N6655 G2 X-47.901 Y-32.394 I-0.317 J0.262
N6660 X-54.72 Y-18.473 I50.734 J33.481
N6665 X-57.678 Y-3.257 I54.273 J18.445
N6670 X-57.768 Y0.319 I57.772 J3.254
N6675 X-57.638 Y3.893 I57.004 J-0.291
N6680 X-57.277 Y7.513 I59.186 J-4.064
N6685 X-56.713 Y11. I56.502 J-7.363
N6690 X-55.922 Y14.492 I56.691 J-10.995
N6695 X-54.917 Y17.929 I55.926 J-14.494
N6700 X-53.706 Y21.283 I54.878 J-17.923
N6705 X-52.277 Y24.586 I53.804 J-21.32
N6710 X-50.655 Y27.774 I52.233 J-24.562
N6715 X-48.867 Y30.807 I50.398 J-27.658
N6720 X-46.843 Y33.807 I49.207 J-31.034
N6725 X-44.647 Y36.659 I46.273 J-33.345
N6730 G3 X-43.345 Y38.257 I-197.583 J162.26
N6735 G2 X-41.971 Y39.794 I15.883 J-12.83
N6740 X-41.005 Y39.917 I0.562 J-0.556
N6745 G3 X-30.392 Y35.354 I22.649 J38.06
N6750 X-18.949 Y33.77 I11.443 J40.522
N6755 G1 X18.949
N6760 G3 X30.392 Y35.354 I0. J42.106
N6765 X41.005 Y39.917 I-12.036 J42.622
N6770 G2 X41.971 Y39.794 I0.404 J-0.679
N6775 G1 X42.139 Y39.616
N6780 X42.304 Y39.435
N6785 X46.843 Y33.806
N6790 G2 X48.867 Y30.807 I-47.934 J-34.54
N6795 X57.277 Y7.513 I-48.73 J-30.759
N6800 X57.638 Y3.893 I-57.506 J-7.553
N6805 X57.768 Y0.319 I-57.716 J-3.896
N6810 X55.26 Y-16.769 I-57.296 J-0.319
N6815 X49.15 Y-30.42 I-57.881 J17.716
N6820 X47.174 Y-30.312 I-0.959 J0.581
N6825 G3 X46.057 Y-28.68 I-5.473 J-2.547
N6830 X44.269 Y-26.896 I-41.793 J-40.113
N6835 X41.235 Y-24.301 I-25.217 J-26.409
N6840 X14.407 Y-15.126 I-27.102 J-35.435
N6845 G1 X7.319 Y-15.088
N6850 X0.231 Y-15.06
N6855 X-6.858 Y-15.044
N6860 X-13.946 Y-15.039
N6865 G3 X-47.059 Y-29.751 I0.224 J-45.126
N6870 G2 X-47.74 Y-29.698 I-0.32 J0.292
N6875 G1 X-47.802 Y-29.599
N6880 X-47.862 Y-29.499
N6885 X-51.069 Y-23.337
N6890 G2 X-52.445 Y-20.049 I53.104 J24.164
N6895 X-56.148 Y0.31 I52.407 J20.046
N6900 X-52.28 Y20.325 I55.316 J-0.308
N6905 X-41.666 Y37.728 I55.562 J-21.948
N6910 X-40.732 Y37.89 I0.567 J-0.497
N6915 G3 X-30.207 Y33.628 I22.413 J40.221
N6920 X-18.949 Y32.15 I11.258 J42.124
N6925 G1 X18.949
N6930 G3 X30.207 Y33.628 I0. J43.603
N6935 X40.732 Y37.89 I-11.888 J44.483
N6940 G2 X41.666 Y37.728 I0.367 J-0.659
N6945 X50.925 Y23.555 I-45.504 J-39.839
N6950 X55.67 Y7.304 I-49.911 J-23.391
N6955 X56.021 Y3.783 I-55.917 J-7.345
N6960 X56.148 Y0.31 I-56.087 J-3.786
N6965 X56.06 Y-3.154 I-55.261 J-0.332
N6970 X55.748 Y-6.682 I-57.66 J3.312
N6975 X53.074 Y-18.217 I-54. J6.441
N6980 X48.139 Y-28.981 I-60.15 J21.067
N6985 G3 X47.945 Y-29.342 I5.86 J-3.378
N6990 G2 X47.74 Y-29.698 I-3.036 J1.513
N6995 X47.059 Y-29.751 I-0.361 J0.238
N7000 G3 X46.057 Y-28.68 I-42.796 J-39.042
N7005 X39.861 Y-22.364 I-292.803 J-281.03
N7010 X32.562 Y-17.363 I-17.122 J-17.166
N7015 X31.714 Y-16.997 I-19.087 J-43.073
N7020 X13.946 Y-13.419 I-17.768 J-42.317
N7025 G1 X-13.946
N7030 G3 X-44.557 Y-24.98 I0.165 J-46.741
N7035 X-45.678 Y-26.021 I16.937 J-19.361
N7040 X-46.763 Y-27.097 I165.922 J-168.337
N7045 G2 X-47.433 Y-27.008 I-0.301 J0.301
N7050 X-49.329 Y-23.307 I37.601 J21.596
N7055 X-50.932 Y-19.469 I63.703 J28.861
N7060 X-54.527 Y0.301 I50.893 J19.466
N7065 X-54.404 Y3.673 I53.787 J-0.275
N7070 X-54.063 Y7.094 I55.915 J-3.84
N7075 X-53.531 Y10.383 I53.305 J-6.946
N7080 X-52.785 Y13.679 I53.509 J-10.378
N7085 X-51.836 Y16.923 I52.788 J-13.681
N7090 X-50.692 Y20.089 I51.791 J-16.915
N7095 X-49.343 Y23.207 I50.8 J-20.129
N7100 X-47.813 Y26.216 I49.295 J-23.18
N7105 X-44.821 Y31.12 I54.488 J-29.876
N7110 X-41.314 Y35.671 I38.084 J-25.721
N7115 X-40.36 Y35.85 I0.591 J-0.517
N7120 G3 X-29.975 Y31.899 I22.083 J42.421
N7125 X-18.949 Y30.53 I11.026 J43.707
N7130 G1 X18.949
N7135 G3 X29.975 Y31.899 I0. J45.077
N7140 X40.36 Y35.85 I-11.699 J46.372
N7145 G2 X41.314 Y35.671 I0.363 J-0.697
N7150 X43.849 Y32.468 I-30.965 J-27.11
N7155 X46.126 Y29.077 I-58.682 J-41.878
N7160 X54.063 Y7.094 I-45.989 J-29.028
N7165 X54.404 Y3.673 I-54.328 J-7.136
N7170 X54.527 Y0.301 I-54.458 J-3.676
N7175 X54.442 Y-3.062 I-53.651 J-0.322
N7180 X54.139 Y-6.49 I-56.024 J3.218
N7185 X51.822 Y-17.088 I-55.893 J6.667
N7190 X47.433 Y-27.008 I-49.353 J15.904
N7195 X46.763 Y-27.097 I-0.369 J0.212
N7200 G3 X32.562 Y-17.363 I-33.288 J-33.338
N7205 G2 X31.785 Y-16.153 I0.529 J1.194
N7210 G3 X30.979 Y-14.962 I-1.258 J0.016
N7215 X13.946 Y-11.799 I-17.033 J-44.269
N7220 G1 X-13.946
N7225 G3 X-31.351 Y-15.107 I0. J-47.433
N7230 X-46.378 Y-24.49 I17.917 J-45.422
N7235 G2 X-47.035 Y-24.367 I-0.282 J0.309
N7240 X-51.41 Y-12.38 I52.386 J25.912
N7245 X-52.906 Y0.292 I50.472 J12.383
N7250 X-52.787 Y3.563 I52.178 J-0.267
N7255 X-52.456 Y6.884 I54.28 J-3.727
N7260 X-51.939 Y10.074 I51.706 J-6.738
N7265 X-47.827 Y22.478 I50.014 J-9.7
N7270 X-40.97 Y33.601 I56.917 J-27.408
N7275 X-39.965 Y33.837 I0.647 J-0.498
N7280 G3 X-29.738 Y30.177 I21.733 J44.612
N7285 X-18.949 Y28.91 I10.789 J45.267
N7290 G1 X18.949
N7295 G3 X29.738 Y30.178 I0. J46.535
N7300 X39.966 Y33.837 I-11.505 J48.272
N7305 G2 X40.97 Y33.601 I0.358 J-0.734
N7310 G1 X44.756 Y28.212
N7315 G2 X46.391 Y25.437 I-43.933 J-27.76
N7320 X47.876 Y22.518 I-46.187 J-25.33
N7325 X49.186 Y19.491 I-48.306 J-22.698
N7330 X52.775 Y-2.666 I-48.49 J-19.225
N7335 X47.034 Y-24.365 I-55.733 J3.138
N7340 X46.376 Y-24.488 I-0.375 J0.186
N7345 G3 X31.349 Y-15.107 I-32.942 J-36.041
N7350 X30.979 Y-14.962 I-17.403 J-44.125
N7355 G2 X30.143 Y-13.792 I0.469 J1.218
N7360 G3 X29.279 Y-12.642 I-1.258 J-0.046
N7365 X13.946 Y-10.179 I-15.333 J-46.492
N7370 G1 X-13.946
N7375 G3 X-30.931 Y-13.22 I0. J-48.955
N7380 X-45.855 Y-21.88 I17.542 J-47.42
N7385 G2 X-46.528 Y-21.738 I-0.281 J0.335
N7390 G1 X-46.619 Y-21.544
N7395 X-46.706 Y-21.348
N7400 X-48.929 Y-15.37
N7405 G2 X-51.205 Y-2.892 I48.911 J15.366
N7410 X-40.461 Y31.608 I52.037 J2.717
N7415 X-39.526 Y31.84 I0.613 J-0.472
N7420 G3 X-29.482 Y28.46 I21.341 J46.816
N7425 X-18.949 Y27.29 I10.533 J46.801
N7430 G1 X18.949
N7435 G3 X29.482 Y28.46 I0. J47.972
N7440 X39.526 Y31.84 I-11.297 J50.195
N7445 G2 X40.46 Y31.607 I0.321 J-0.704
N7450 X50.849 Y6.674 I-40.767 J-31.617
N7455 X51.17 Y3.453 I-51.15 J-6.719
N7460 X51.285 Y0.283 I-51.2 J-3.456
N7465 X51.205 Y-2.878 I-50.432 J-0.303
N7470 X50.92 Y-6.106 I-52.751 J3.03
N7475 X50.455 Y-9.201 I-50.146 J5.965
N7480 X49.788 Y-12.309 I-50.467 J9.203
N7485 X48.929 Y-15.37 I-49.779 J12.306
N7490 X47.905 Y-18.31 I-48.621 J15.297
N7495 G3 X47.256 Y-20.04 I116.588 J-44.671
N7500 G2 X46.528 Y-21.738 I-16.038 J5.874
N7505 X45.855 Y-21.88 I-0.392 J0.194
N7510 G3 X30.931 Y-13.22 I-32.466 J-38.76
N7515 X29.279 Y-12.642 I-16.985 J-45.914
N7520 G2 X28.387 Y-11.512 I0.409 J1.24
N7525 G3 X27.468 Y-10.404 I-1.257 J-0.107
N7530 X13.946 Y-8.559 I-13.522 J-48.617
N7535 G1 X-13.946
N7540 G3 X-30.48 Y-11.344 I0. J-50.462
N7545 X-45.237 Y-19.306 I17.14 J-49.423
N7550 G2 X-45.892 Y-19.132 I-0.261 J0.339
N7555 X-48.757 Y-9.619 I44.159 J18.487
N7560 X-49.665 Y0.274 I50.345 J9.608
N7565 X-49.553 Y3.343 I48.96 J-0.25
N7570 X-49.242 Y6.464 I51.009 J-3.503
N7575 X-48.757 Y9.457 I48.509 J-6.321
N7580 X-48.078 Y12.459 I48.736 J-9.452
N7585 X-47.213 Y15.414 I48.08 J-12.461
N7590 X-46.172 Y18.296 I47.162 J-15.403
N7595 X-44.943 Y21.138 I46.294 J-18.344
N7600 X-43.549 Y23.878 I44.887 J-21.107
N7605 X-42.015 Y26.481 I43.251 J-23.735
N7610 G3 X-41.026 Y28.062 I-188.774 J119.184
N7615 G2 X-39.965 Y29.595 I15.669 J-9.71
N7620 X-39.015 Y29.844 I0.636 J-0.49
N7625 G3 X-29.193 Y26.744 I20.883 J49.055
N7630 X-18.949 Y25.67 I10.244 J48.302
N7635 G1 X18.949
N7640 G3 X29.193 Y26.744 I0. J49.376
N7645 X39.015 Y29.844 I-11.061 J52.155
N7650 G2 X39.965 Y29.595 I0.314 J-0.739
N7655 X40.145 Y29.35 I-5.125 J-3.945
N7660 G3 X40.321 Y29.102 I15.679 J10.935
N7665 G1 X43.549 Y23.878
N7670 G2 X45.892 Y-19.132 I-43.249 J-23.925
N7675 X45.237 Y-19.306 I-0.395 J0.165
N7680 G3 X30.48 Y-11.344 I-31.897 J-41.462
N7685 X27.468 Y-10.404 I-16.534 J-47.677
N7690 G2 X26.511 Y-9.306 I0.355 J1.275
N7695 G3 X25.528 Y-8.232 I-1.265 J-0.171
N7700 X13.946 Y-6.939 I-11.582 J-51.201
N7705 G1 X-13.946
N7710 G3 X-44.531 Y-16.769 I0.256 J-53.291
N7715 G2 X-45.167 Y-16.566 I-0.242 J0.341
N7720 X-45.963 Y-14.066 I45.227 J15.763
N7725 X-46.641 Y-11.531 I65.975 J19.013
N7730 X-47.173 Y8.8 I46.023 J11.378
N7735 X-39.405 Y27.597 I49.803 J-9.578
N7740 X-38.495 Y27.878 I0.629 J-0.425
N7745 G3 X-28.904 Y25.035 I20.42 J51.297
N7750 X-18.949 Y24.05 I9.955 J49.77
N7755 G1 X18.949
N7760 G3 X28.904 Y25.035 I0. J50.756
N7765 X38.495 Y27.878 I-10.829 J54.14
N7770 G2 X39.405 Y27.597 I0.281 J-0.706
N7775 X40.036 Y26.613 I-20.507 J-13.843
N7780 G3 X40.651 Y25.62 I60.101 J36.564
N7785 G2 X47.729 Y5.043 I-40.032 J-25.275
N7790 X45.167 Y-16.566 I-50.2 J-5.006
N7795 X44.531 Y-16.769 I-0.395 J0.138
N7800 G3 X25.528 Y-8.232 I-30.585 J-42.664
N7805 G2 X24.536 Y-7.196 I0.287 J1.268
N7810 G3 X23.521 Y-6.181 I-1.239 J-0.224
N7815 X13.946 Y-5.319 I-9.576 J-52.726
N7820 G1 X-13.946
N7825 G3 X-29.467 Y-7.616 I0. J-53.589
N7830 X-43.691 Y-14.239 I16.064 J-53.086
N7835 G2 X-44.34 Y-14.017 I-0.238 J0.365
N7840 G1 X-44.353 Y-13.977
N7845 X-44.365 Y-13.936
N7850 G2 X-44.738 Y-12.545 I16.101 J5.058
N7855 G3 X-45.067 Y-11.142 I-60.107 J-13.376
N7860 G2 X-43.159 Y17.102 I45.041 J11.143
N7865 X-41.207 Y21.472 I52.221 J-20.704
N7870 X-38.795 Y25.605 I32.691 J-16.306
N7875 X-37.87 Y25.903 I0.652 J-0.44
N7880 G3 X-28.564 Y23.325 I19.861 J53.615
N7885 X-18.949 Y22.43 I9.615 J51.188
N7890 G1 X18.949
N7895 G3 X28.564 Y23.325 I0. J52.083
N7900 X37.87 Y25.903 I-10.555 J56.192
N7905 G2 X38.795 Y25.605 I0.273 J-0.737
N7910 X40.515 Y22.744 I-26.358 J-17.793
N7915 X42.009 Y19.759 I-59.771 J-31.787
N7920 X45.067 Y-11.142 I-42.01 J-19.76
N7925 G3 X44.738 Y-12.545 I59.777 J-14.778
N7930 G2 X44.365 Y-13.936 I-16.474 J3.666
N7935 G1 X44.353 Y-13.977
N7940 X44.34 Y-14.017
N7945 G2 X43.691 Y-14.239 I-0.411 J0.143
N7950 G3 X29.467 Y-7.616 I-30.288 J-46.463
N7955 X23.521 Y-6.181 I-15.521 J-51.292
N7960 G2 X22.479 Y-5.183 I0.234 J1.288
N7965 G3 X21.414 Y-4.207 I-1.236 J-0.281
N7970 X13.946 Y-3.699 I-7.468 J-54.561
N7975 G1 X-13.946
N7980 G3 X-28.89 Y-5.765 I0. J-55.07
N7985 X-42.745 Y-11.738 I15.531 J-55.084
N7990 G2 X-43.372 Y-11.488 I-0.218 J0.365
N7995 X-44.049 Y-8.42 I26.896 J7.541
N8000 X-44.487 Y-5.309 I74.543 J12.094
N8005 X-43.698 Y9.678 I43.568 J5.22
N8010 X-38.152 Y23.624 I47.687 J-10.889
N8015 X-37.245 Y23.958 I0.658 J-0.388
N8020 G3 X-28.228 Y21.622 I19.307 J55.952
N8025 X-18.949 Y20.81 I9.279 J52.559
N8030 G1 X18.949
N8035 G3 X28.228 Y21.622 I0. J53.372
N8040 X37.245 Y23.958 I-10.29 J58.288
N8045 G2 X38.152 Y23.624 I0.249 J-0.722
N8050 X43.696 Y9.663 I-42.049 J-24.781
N8055 X44.483 Y-5.338 I-43.009 J-9.777
N8060 X44.046 Y-8.434 I-72.811 J8.685
N8065 X43.372 Y-11.488 I-27.573 J4.488
N8070 X42.745 Y-11.738 I-0.409 J0.115
N8075 G3 X28.89 Y-5.765 I-29.386 J-49.112
N8080 X21.414 Y-4.207 I-14.945 J-53.003
N8085 G2 X20.328 Y-3.255 I0.178 J1.298
N8090 G3 X19.222 Y-2.325 I-1.224 J-0.334
N8095 X13.946 Y-2.079 I-5.276 J-56.276
N8100 G1 X6.878 Y-2.084
N8105 X-0.191 Y-2.101
N8110 X-7.259 Y-2.128
N8115 X-14.327 Y-2.166
N8120 G3 X-41.693 Y-9.268 I0.358 J-57.661
N8125 G2 X-42.298 Y-8.992 I-0.199 J0.363
N8130 X-42.633 Y-7.061 I24.118 J5.175
N8135 X-42.878 Y-5.116 I153.308 J20.34
N8140 X-41.051 Y13.401 I42.869 J5.118
N8145 X-39.461 Y17.635 I49.269 J-16.086
N8150 X-37.422 Y21.671 I32.097 J-13.678
N8155 X-36.526 Y22.013 I0.662 J-0.39
N8160 G3 X-27.847 Y19.92 I18.673 J58.393
N8165 X-18.949 Y19.19 I8.898 J53.855
N8170 G1 X18.949
N8175 G3 X27.847 Y19.92 I0. J54.586
N8180 X36.526 Y22.013 I-9.993 J60.485
N8185 G2 X37.422 Y21.671 I0.234 J-0.732
N8190 X38.287 Y20.045 I-18.152 J-10.697
N8195 X39.076 Y18.38 I-294.603 J-140.532
N8200 X42.933 Y4.959 I-39.771 J-18.697
N8205 X42.298 Y-8.992 I-41.988 J-5.077
N8210 X41.693 Y-9.268 I-0.405 J0.087
N8215 G3 X28.273 Y-3.924 I-28.383 J-51.76
N8220 X19.222 Y-2.325 I-14.327 J-54.677
N8225 G2 X18.096 Y-1.419 I0.122 J1.305
N8230 G3 X16.951 Y-0.537 I-1.211 J-0.387
N8235 X13.946 Y-0.459 I-3.006 J-57.86
N8240 G1 X-13.603
N8245 G3 X-40.529 Y-6.828 I0. J-60.093
N8250 G2 X-41.109 Y-6.527 I-0.181 J0.361
N8255 X-41.466 Y-3.158 I38.159 J5.743
N8260 X-41.561 Y0.229 I50.377 J3.105
N8265 X-40.253 Y10.257 I40.852 J-0.228
N8270 X-36.67 Y19.715 I45.248 J-11.736
N8275 X-35.793 Y20.092 I0.665 J-0.338
N8280 G3 X-27.462 Y18.224 I18.033 J60.904
N8285 X-18.949 Y17.57 I8.513 J55.078
N8290 G1 X18.949
N8295 G3 X27.462 Y18.224 I0. J55.732
N8300 X35.793 Y20.092 I-9.702 J62.772
N8305 G2 X36.67 Y19.715 I0.212 J-0.715
N8310 X40.94 Y6.941 I-40.712 J-20.708
N8315 X41.109 Y-6.527 I-41.121 J-7.253
N8320 X40.529 Y-6.828 I-0.4 J0.06
N8325 G3 X27.609 Y-2.093 I-27.275 J-54.422
N8330 X16.951 Y-0.537 I-13.663 J-56.304
N8335 G2 X15.788 Y0.322 I0.068 J1.309
N8340 G3 X14.607 Y1.158 I-1.195 J-0.437
N8345 X13.946 Y1.161 I-0.661 J-59.299
N8350 G1 X4.982 Y1.169
N8355 X-3.983 Y1.191
N8360 X-12.947 Y1.229
N8365 G3 X-39.241 Y-4.416 I-0.313 J-62.601
N8370 G2 X-39.798 Y-4.092 I-0.164 J0.359
N8375 X-39.834 Y3.012 I43.042 J3.77
N8380 X-38.664 Y10.02 I40.218 J-3.112
N8385 X-37.459 Y13.982 I48.05 J-12.452
N8390 X-35.832 Y17.79 I29.296 J-10.265
N8395 X-34.967 Y18.173 I0.668 J-0.34
N8400 G3 X-27.032 Y16.528 I17.321 J63.588
N8405 X-18.949 Y15.95 I8.083 J56.18
N8410 G1 X18.949
N8415 G3 X27.032 Y16.528 I0. J56.759
N8420 X34.967 Y18.173 I-9.386 J65.233
N8425 G2 X35.832 Y17.79 I0.197 J-0.723
N8430 X37.005 Y15.134 I-23.731 J-12.071
N8435 X37.969 Y12.395 I-59.225 J-22.39
N8440 X39.717 Y4.245 I-38.044 J-12.421
N8445 X39.795 Y-4.091 I-42.584 J-4.57
N8450 X39.239 Y-4.415 I-0.393 J0.035
N8455 G3 X26.892 Y-0.269 I-26.051 J-57.116
N8460 X14.607 Y1.158 I-12.946 J-57.872
N8465 G2 X13.404 Y1.973 I0.015 J1.318
N8470 G3 X12.195 Y2.781 I-1.208 J-0.499
N8475 G1 X-13.946
N8480 G3 X-26.12 Y1.546 I0. J-60.597
N8485 X-37.821 Y-2.034 I13.011 J-63.441
N8490 G2 X-38.352 Y-1.688 I-0.147 J0.355
N8495 X-34.952 Y15.875 I41.507 J1.076
N8500 X-34.132 Y16.281 I0.649 J-0.281
N8505 G3 X-26.6 Y14.839 I16.615 J66.426
N8510 X-18.949 Y14.33 I7.651 J57.164
N8515 G1 X18.949
N8520 G3 X26.6 Y14.839 I0. J57.674
N8525 X34.132 Y16.281 I-9.084 J67.868
N8530 G2 X34.952 Y15.875 I0.172 J-0.686
N8535 X38.352 Y-1.688 I-38.213 J-16.509
N8540 X37.821 Y-2.034 I-0.384 J0.01
N8545 G3 X26.12 Y1.546 I-24.712 J-59.861
N8550 X13.946 Y2.781 I-12.174 J-59.361
N8555 G1 X12.195
N8560 G2 X10.98 Y3.591 I0. J1.316
N8565 G3 X9.765 Y4.401 I-1.215 J-0.506
N8570 G1 X-13.946
N8575 G3 X-25.283 Y3.352 I0. J-61.789
N8580 X-36.257 Y0.318 I12.27 J-65.737
N8585 G2 X-36.762 Y0.684 I-0.13 J0.352
N8590 X-36.199 Y6.102 I40.602 J-1.482
N8595 X-34.888 Y11.389 I37.078 J-6.39
N8600 G3 X-34.48 Y12.689 I-55.903 J18.252
N8605 G2 X-34.013 Y13.967 I11.252 J-3.387
N8610 X-33.182 Y14.389 I0.669 J-0.289
N8615 G3 X-26.113 Y13.151 I15.832 J69.62
N8620 X-18.949 Y12.71 I7.164 J57.931
N8625 G1 X18.949
N8630 G3 X26.113 Y13.151 I0. J58.373
N8635 X33.182 Y14.389 I-8.762 J70.858
N8640 G2 X34.013 Y13.967 I0.162 J-0.71
N8645 X34.48 Y12.689 I-10.785 J-4.666
N8650 G3 X34.888 Y11.389 I56.326 J16.957
N8655 G2 X36.199 Y6.102 I-35.767 J-11.677
N8660 X36.762 Y0.684 I-40.039 J-6.9
N8665 X36.257 Y0.318 I-0.375 J-0.014
N8670 G3 X25.283 Y3.352 I-23.243 J-62.703
N8675 X13.946 Y4.401 I-11.337 J-60.74
N8680 G1 X9.765
N8685 G2 X8.55 Y5.211 I0. J1.316
N8690 G3 X7.335 Y6.021 I-1.215 J-0.506
N8695 G1 X-13.946
N8700 G3 X-24.375 Y5.15 I0. J-62.83
N8705 X-34.535 Y2.637 I11.483 J-68.217
N8710 G2 X-35.014 Y3.021 I-0.115 J0.348
N8715 X-34.918 Y3.8 I16.556 J-1.648
N8720 G3 X-34.81 Y4.578 I-46.97 J6.928
N8725 G2 X-33.001 Y12.081 I34.846 J-4.429
N8730 X-32.215 Y12.522 I0.648 J-0.234
N8735 G3 X-25.618 Y11.469 I15.066 J73.205
N8740 X-18.949 Y11.09 I6.669 J58.474
N8745 G1 X18.949
N8750 G3 X25.618 Y11.469 I0. J58.853
N8755 X32.215 Y12.522 I-8.47 J74.258
N8760 G2 X33.001 Y12.081 I0.139 J-0.674
N8765 X34.288 Y7.613 I-33.079 J-11.946
N8770 X35.014 Y3.021 I-39.513 J-8.599
N8775 X34.535 Y2.637 I-0.364 J-0.036
N8780 G3 X24.375 Y5.15 I-21.643 J-65.704
N8785 X13.946 Y6.021 I-10.43 J-61.958
N8790 G1 X7.335
N8795 G2 X6.12 Y6.831 I0. J1.316
N8800 G3 X4.905 Y7.641 I-1.215 J-0.506
N8805 G1 X-13.946
N8810 G3 X-23.392 Y6.936 I0. J-63.633
N8815 X-32.646 Y4.915 I10.658 J-71.006
N8820 G2 X-33.099 Y5.317 I-0.099 J0.344
N8825 X-32.599 Y7.771 I30.544 J-4.947
N8830 X-31.947 Y10.189 I56.487 J-13.915
N8835 X-31.17 Y10.667 I0.654 J-0.191
N8840 G3 X-25.087 Y9.79 I14.287 J77.524
N8845 X-18.949 Y9.47 I6.138 J58.655
N8850 G1 X18.949
N8855 G3 X25.087 Y9.79 I0. J58.975
N8860 X31.17 Y10.667 I-8.204 J78.402
N8865 G2 X31.947 Y10.189 I0.123 J-0.67
N8870 X32.599 Y7.771 I-55.836 J-16.333
N8875 X33.099 Y5.317 I-30.043 J-7.401
N8880 X32.646 Y4.915 I-0.353 J-0.057
N8885 G3 X23.392 Y6.936 I-19.913 J-68.985
N8890 X13.946 Y7.641 I-9.446 J-62.928
N8895 G1 X4.905
N8900 X4.859 Y7.645 Z-0.743
N8905 X4.814 Y7.656 Z-0.735
N8910 X4.775 Y7.671 Z-0.714
N8915 X4.739 Y7.692 Z-0.693
N8920 X4.688 Y7.734 Z-0.626
N8925 X4.661 Y7.767 Z-0.543
N8930 X4.653 Y7.779 Z-0.45
N8935 G0 Z5.
N8940 G1 X32.079 Y8.594 F500.
N8945 G0 Z2.415
N8950 G1 Z-0.45 F333.33
N8955 X32.086 Y8.596 Z-0.517
N8960 X32.108 Y8.602 Z-0.58
N8965 X32.142 Y8.611 Z-0.637
N8970 X32.188 Y8.624 Z-0.685
N8975 X32.243 Y8.638 Z-0.72
N8980 X32.304 Y8.655 Z-0.742
N8985 X32.369 Y8.672 Z-0.75
N8990 G2 X32.485 Y7.963 I0.094 J-0.349 F1000.
N8995 G1 X30.645 Y7.851
N9000 G2 X30.974 Y8.297 I-0.022 J0.36
N9005 G3 X31.038 Y8.043 I15.809 J3.827
N9010 G1 X31.12 Y7.726
N9015 G2 X31.215 Y7.334 I-11.966 J-3.101
N9020 X30.797 Y6.927 I-0.334 J-0.075
N9025 G3 X25.513 Y8.042 I-16.851 J-66.796
N9030 G2 X25.526 Y8.406 I0.031 J0.181
N9035 G3 X30.171 Y9.012 I-6.577 J68.574
N9040 G2 X30.907 Y8.549 I0.107 J-0.646
N9045 X30.974 Y8.297 I-5.331 J-1.559
N9050 G1 X30.984 Y8.251 Z-0.743
N9055 X30.986 Y8.205 Z-0.735
N9060 X30.982 Y8.164 Z-0.714
N9065 X30.972 Y8.123 Z-0.693
N9070 X30.946 Y8.062 Z-0.626
N9075 X30.922 Y8.027 Z-0.543
N9080 X30.912 Y8.016 Z-0.45
N9085 G0 Z5.
N9090 G1 X-32.077 Y8.603 F500.
N9095 G0 Z2.415
N9100 G1 Z-0.45 F333.33
N9105 X-32.084 Y8.605 Z-0.517
N9110 X-32.105 Y8.611 Z-0.58
N9115 X-32.14 Y8.621 Z-0.637
N9120 X-32.186 Y8.633 Z-0.685
N9125 X-32.24 Y8.648 Z-0.72
N9130 X-32.302 Y8.665 Z-0.742
N9135 X-32.366 Y8.683 Z-0.75
N9140 G2 X-32.109 Y9.352 I0.095 J0.347 F1000.
N9145 G1 X-30.468 Y8.529
N9150 G2 X-30.977 Y8.302 I-0.162 J-0.322
N9155 X-30.907 Y8.549 I14.643 J-4.016
N9160 X-30.171 Y9.012 I0.629 J-0.184
N9165 G3 X-25.526 Y8.406 I11.222 J67.968
N9170 G2 X-25.513 Y8.042 I-0.018 J-0.183
N9175 G3 X-30.798 Y6.927 I11.567 J-67.91
N9180 G2 X-31.215 Y7.334 I-0.084 J0.332
N9185 X-31.07 Y7.944 I29.544 J-6.686
N9190 X-30.977 Y8.302 I14.737 J-3.658
N9195 G1 X-30.96 Y8.345 Z-0.743
N9200 X-30.937 Y8.385 Z-0.735
N9205 X-30.912 Y8.418 Z-0.714
N9210 X-30.882 Y8.447 Z-0.693
N9215 X-30.826 Y8.484 Z-0.626
N9220 X-30.787 Y8.501 Z-0.543
N9225 X-30.773 Y8.505 Z-0.45
N9230 G0 Z5.
N9235 G1 X-95.695 Y25.898 F500.
N9240 G0 Z1.035
N9245 G1 X-95.706 Y25.908 Z0.945 F333.33
N9250 X-95.736 Y25.935 Z0.862
N9255 X-95.782 Y25.979 Z0.796
N9260 X-95.837 Y26.039 Z0.753
N9265 X-95.894 Y26.108 Z0.735
N9270 G2 X-95.814 Y26.013 Z0.427 I1.129 J0.869
N9275 X-95.726 Y25.925 Z0.119 I1.049 J0.964
N9280 X-95.63 Y25.846 Z-0.19 I0.961 J1.052
N9285 X-95.528 Y25.774 Z-0.498 I0.866 J1.132
N9290 X-95.421 Y25.712 Z-0.806 I0.764 J1.203
N9295 X-95.308 Y25.66 Z-1.114 I0.656 J1.265
N9300 X-95.191 Y25.618 Z-1.423 I0.544 J1.317
N9305 X-96.132 Y27.377 Z-1.5 I0.427 J1.36
N9310 G1 X-95.247 Y30.403 F1000.
N9315 X-95.024 Y31.14
N9320 X-92.963 Y36.848
N9325 X-90.592 Y42.328
N9330 X-90.368 Y42.802
N9335 X-87.826 Y47.799
N9340 X-87.569 Y48.273
N9345 X-84.576 Y53.352
N9350 X-81.093 Y58.512
N9355 X-77.601 Y63.049
N9360 X-77.118 Y63.65
N9365 X-73.161 Y68.17
N9370 X-69.21 Y72.16
N9375 X-68.72 Y72.64
N9380 X-64.256 Y76.621
N9385 X-59.821 Y80.113
N9390 X-59.207 Y80.582
N9395 X-54.228 Y84.019
N9400 X-49.239 Y87.026
N9405 X-48.763 Y87.298
N9410 X-43.492 Y90.045
N9415 X-37.81 Y92.575
N9420 X-32.818 Y94.436
N9425 X-31.843 Y94.791
N9430 X-26.351 Y96.456
N9435 X-25.878 Y96.589
N9440 X-20.137 Y97.947
N9445 X-20.003 Y97.974
N9450 X-20.001 Y97.964
N9455 X-20. Y77.031
N9460 G3 X-19.707 Y76.324 I1. J0.
N9465 G1 X-19.656 Y76.273
N9470 G3 X-18.949 Y75.98 I0.707 J0.707
N9475 G1 X18.949
N9480 G3 X19.656 Y76.273 I0. J1.
N9485 G1 X19.707 Y76.324
N9490 G3 X20. Y77.031 I-0.707 J0.707
N9495 G1 Y96.468
N9500 X20.005 Y97.975
N9505 X20.012 Y97.974
N9510 X25.885 Y96.587
N9515 X26.164 Y96.512
N9520 X31.846 Y94.79
N9525 X32.319 Y94.622
N9530 X37.81 Y92.575
N9535 X43.492 Y90.045
N9540 X48.765 Y87.297
N9545 X49.165 Y87.07
N9550 X54.228 Y84.019
N9555 X59.189 Y80.595
N9560 X59.687 Y80.218
N9565 X64.178 Y76.687
N9570 X68.662 Y72.692
N9575 X69.142 Y72.228
N9580 X73.161 Y68.17
N9585 X77.087 Y63.686
N9590 X77.478 Y63.208
N9595 X81.093 Y58.512
N9600 X84.576 Y53.352
N9605 X87.566 Y48.278
N9610 X87.826 Y47.798
N9615 X90.117 Y43.295
N9620 X90.545 Y42.437
N9625 X92.963 Y36.848
N9630 X94.944 Y31.362
N9635 X95.105 Y30.889
N9640 X96.712 Y25.396
N9645 X96.839 Y24.924
N9650 X97.403 Y22.434
N9655 X98.185 Y18.949
N9660 X99.152 Y12.984
N9665 X99.747 Y7.003
N9670 X99.78 Y6.533
N9675 X99.998 Y0.554
N9680 X99.846 Y-5.424
N9685 X99.818 Y-5.894
N9690 X99.29 Y-11.875
N9695 X98.392 Y-17.846
N9700 X98.297 Y-18.318
N9705 X97.116 Y-23.819
N9710 X97.017 Y-24.214
N9715 X95.456 Y-29.783
N9720 X95.304 Y-30.255
N9725 X93.393 Y-35.739
N9730 X91.097 Y-41.224
N9735 X90.886 Y-41.697
N9740 X89.653 Y-44.189
N9745 X88.17 Y-47.174
N9750 X86.063 Y-50.844
N9755 X85.073 Y-52.554
N9760 X81.734 Y-57.615
N9765 X77.992 Y-62.587
N9770 X74.161 Y-67.07
N9775 X73.723 Y-67.549
N9780 X69.651 Y-71.755
N9785 X65.516 Y-75.526
N9790 X64.978 Y-76.008
N9795 X60.198 Y-79.849
N9800 X55.223 Y-83.367
N9805 X50.233 Y-86.455
N9810 X49.757 Y-86.736
N9815 X44.76 Y-89.412
N9820 X44.285 Y-89.654
N9825 X38.806 Y-92.163
N9830 X32.974 Y-94.406
N9835 X27.35 Y-96.179
N9840 X26.878 Y-96.313
N9845 X21.378 Y-97.68
N9850 X20.905 Y-97.784
N9855 X15.025 Y-98.863
N9860 X15.004 Y-98.864
N9865 X15. Y-59.91
N9870 G3 X14.608 Y-59.116 I-1. J0.
N9875 G1 X14.553 Y-59.074
N9880 G3 X13.946 Y-58.869 I-0.608 J-0.794
N9885 G1 X-13.946
N9890 G3 X-14.553 Y-59.074 I0. J-1.
N9895 G1 X-14.608 Y-59.116
N9900 G3 X-15. Y-59.91 I0.608 J-0.794
N9905 G1 X-15.004 Y-98.864
N9910 X-15.025 Y-98.863
N9915 X-20.905 Y-97.784
N9920 X-21.378 Y-97.68
N9925 X-26.878 Y-96.313
N9930 X-27.35 Y-96.179
N9935 X-32.974 Y-94.406
N9940 X-38.806 Y-92.163
N9945 X-44.287 Y-89.653
N9950 X-44.704 Y-89.442
N9955 X-49.757 Y-86.736
N9960 X-50.224 Y-86.46
N9965 X-55.223 Y-83.367
N9970 X-60.198 Y-79.849
N9975 X-64.985 Y-76.002
N9980 X-65.162 Y-75.85
N9985 X-69.651 Y-71.755
N9990 X-73.641 Y-67.634
N9995 X-74.123 Y-67.115
N10000 X-77.992 Y-62.587
N10005 X-81.734 Y-57.615
N10010 X-85.019 Y-52.635
N10015 X-85.307 Y-52.16
N10020 X-88.173 Y-47.17
N10025 X-88.413 Y-46.696
N10030 X-90.888 Y-41.694
N10035 X-91.038 Y-41.365
N10040 X-93.393 Y-35.739
N10045 X-95.304 Y-30.255
N10050 X-95.456 Y-29.783
N10055 X-96.996 Y-24.289
N10060 X-97.117 Y-23.817
N10065 X-97.974 Y-19.82
N10070 X-98.392 Y-17.842
N10075 X-99.29 Y-11.875
N10080 X-99.5 Y-9.527
N10085 X-99.818 Y-5.895
N10090 X-99.846 Y-5.424
N10095 X-99.998 Y0.554
N10100 X-99.78 Y6.533
N10105 X-99.747 Y7.003
N10110 X-99.152 Y12.984
N10115 X-98.185 Y18.954
N10120 X-98.083 Y19.426
N10125 X-96.839 Y24.924
N10130 X-96.712 Y25.396
N10135 X-96.132 Y27.377
N10140 G2 X-94.96 Y28.346 I1.3 J-0.38
N10145 G3 X-93.788 Y29.314 I-0.139 J1.362
N10150 X-93.608 Y29.916 I-249.743 J74.925
N10155 G1 X-91.373 Y36.217
N10160 G2 X-63.157 Y75.31 I91.295 J-36.164
N10165 X-42.748 Y88.504 I63.022 J-75.103
N10170 X-22.173 Y95.791 I43.883 J-91.21
N10175 X-21.63 Y95.362 I0.102 J-0.43
N10180 G1 X-21.71 Y77.03
N10185 G3 X-18.949 Y74.27 I2.761 J0.
N10190 G1 X18.949
N10195 G3 X21.71 Y77.031 I0. J2.761
N10200 G1 X21.629 Y95.36
N10205 G2 X22.172 Y95.79 I0.442 J0.
N10210 G1 X31.312 Y93.165
N10215 X37.163 Y90.991
N10220 X42.748 Y88.504
N10225 G2 X79.705 Y57.511 I-42.71 J-88.459
N10230 X98.287 Y0.545 I-79.709 J-57.514
N10235 X97.57 Y-11.527 I-93.253 J-0.519
N10240 X95.45 Y-23.432 I-115.342 J14.399
N10245 G1 X93.818 Y-29.29
N10250 X91.795 Y-35.127
N10255 G2 X90.609 Y-38.039 I-70.415 J26.98
N10260 G1 X89.527 Y-40.546
N10265 G2 X88.843 Y-41.997 I-22.513 J9.721
N10270 G3 X88.121 Y-43.43 I111.47 J-57.049
N10275 G2 X79.445 Y-57.816 I-91.355 J45.287
N10280 X68.459 Y-70.527 I-77.897 J56.223
N10285 X59.163 Y-78.516 I-70.521 J72.653
N10290 X48.918 Y-85.246 I-54.399 J71.651
N10295 X37.977 Y-90.667 I-56.554 J100.393
N10300 X26.439 Y-94.66 I-32.761 J75.998
N10305 G1 X17.183 Y-96.811
N10310 G2 X16.633 Y-96.352 I-0.084 J0.459
N10315 G1 X16.71 Y-59.91
N10320 G3 X13.946 Y-57.159 I-2.764 J-0.013
N10325 G1 X-13.946
N10330 G3 X-16.71 Y-59.91 I-0.013 J-2.751
N10335 G1 X-16.633 Y-96.352
N10340 G2 X-17.183 Y-96.811 I-0.466 J0.
N10345 X-48.918 Y-85.246 I19.21 J102.037
N10350 G1 X-54.279 Y-81.941
N10355 G2 X-64.079 Y-74.56 I55.823 J84.32
N10360 X-72.845 Y-65.977 I58.044 J68.054
N10365 X-89.379 Y-40.72 I76.59 J68.176
N10370 X-97.592 Y-11.671 I88.052 J40.582
N10375 X-97.886 Y-8.723 I74.513 J8.927
N10380 X-98.113 Y-5.769 I466.558 J37.289
N10385 G1 X-98.287 Y0.545
N10390 G2 X-97.445 Y12.621 I94.602 J-0.527
N10395 X-95.179 Y24.513 I109.698 J-14.746
N10400 X-94.424 Y27.223 I48.088 J-11.923
N10405 G3 X-93.788 Y29.314 I-249.107 J77.016
N10410 G2 X-92.632 Y30.246 I1.258 J-0.377
N10415 G3 X-91.453 Y31.149 I-0.106 J1.359
N10420 G1 X-89.866 Y35.62
N10425 G2 X-62.116 Y74.068 I89.789 J-35.566
N10430 X-42.044 Y87.044 I61.981 J-73.861
N10435 G1 X-36.55 Y89.491
N10440 G2 X-34.117 Y90.422 I22.097 J-54.081
N10445 G3 X-31.668 Y91.311 I-92.081 J257.612
N10450 G1 X-23.793 Y93.743
N10455 G2 X-23.25 Y93.314 I0.102 J-0.43
N10460 G1 X-23.33 Y77.03
N10465 G3 X-18.949 Y72.65 I4.381 J0.
N10470 G1 X18.949
N10475 G3 X23.33 Y77.031 I0. J4.381
N10480 G1 X23.249 Y93.313
N10485 G2 X23.792 Y93.743 I0.442 J0.
N10490 G1 X30.805 Y91.625
N10495 X36.55 Y89.491
N10500 X42.044 Y87.044
N10505 G2 X78.391 Y56.563 I-42.005 J-87.
N10510 X96.666 Y0.536 I-78.394 J-56.565
N10515 X95.96 Y-11.347 I-91.681 J-0.511
N10520 X93.872 Y-23.065 I-113.707 J14.213
N10525 X87.871 Y-40.282 I-85.738 J20.231
N10530 X75.282 Y-60.546 I-92.621 J43.498
N10535 X58.192 Y-77.19 I-74.289 J59.186
N10540 X37.513 Y-89.092 I-58.078 J76.984
N10545 G1 X31.875 Y-91.261
N10550 G2 X29.146 Y-92.156 I-24.579 J70.304
N10555 X26.397 Y-92.988 I-113.319 J369.258
N10560 G1 X18.803 Y-94.867
N10565 G2 X18.252 Y-94.408 I-0.084 J0.459
N10570 G1 X18.33 Y-59.91
N10575 G3 X13.946 Y-55.539 I-4.384 J-0.013
N10580 G1 X-13.946
N10585 G3 X-18.33 Y-59.91 I-0.013 J-4.371
N10590 G1 X-18.252 Y-94.408
N10595 G2 X-18.803 Y-94.867 I-0.466 J0.
N10600 G1 X-26.023 Y-93.094
N10605 G2 X-37.367 Y-89.165 I20.802 J78.405
N10610 X-48.123 Y-83.834 I45.161 J104.632
N10615 G1 X-53.384 Y-80.589
N10620 G2 X-63.017 Y-73.336 I54.948 J82.999
N10625 X-71.635 Y-64.9 I56.97 J66.817
N10630 X-87.901 Y-40.054 I75.377 J67.096
N10635 X-95.983 Y-11.479 I86.58 J39.917
N10640 X-96.273 Y-8.567 I73.556 J8.812
N10645 X-96.497 Y-5.65 I461.623 J36.888
N10650 G1 X-96.666 Y0.536
N10655 G2 X-95.837 Y12.42 I93.016 J-0.518
N10660 X-93.606 Y24.123 I108.066 J-14.539
N10665 X-92.861 Y26.797 I47.171 J-11.696
N10670 G3 X-92.055 Y29.454 I-238.334 J73.773
N10675 G1 X-91.453 Y31.149
N10680 G2 X-90.318 Y32. I1.208 J-0.429
N10685 G3 X-89.175 Y32.842 I-0.074 J1.296
N10690 G2 X-87.209 Y37.68 I86.239 J-32.224
N10695 X-83.443 Y45.497 I114.725 J-50.455
N10700 G1 X-80.388 Y50.708
N10705 G2 X-69.537 Y64.795 I80.613 J-50.878
N10710 X-51.542 Y79.858 I69.559 J-64.814
N10715 X-49.059 Y81.389 I37.921 J-58.743
N10720 G1 X-46.73 Y82.758
N10725 G2 X-36.331 Y87.839 I38.129 J-64.851
N10730 X-25.404 Y91.655 I51.312 J-129.401
N10735 X-24.87 Y91.259 I0.12 J-0.396
N10740 G1 X-24.95 Y77.03
N10745 G3 X-18.949 Y71.03 I6.001 J0.
N10750 G1 X18.949
N10755 G3 X24.95 Y77.031 I0. J6.001
N10760 G1 X24.869 Y91.259
N10765 G2 X25.403 Y91.655 I0.414 J0.
N10770 X28.618 Y90.639 I-41.728 J-137.647
N10775 G1 X30.299 Y90.086
N10780 X35.937 Y87.991
N10785 G2 X41.339 Y85.585 I-36.49 J-89.209
N10790 X77.076 Y55.614 I-41.301 J-85.54
N10795 X95.046 Y0.527 I-77.08 J-55.617
N10800 X94.349 Y-11.167 I-90.109 J-0.502
N10805 X92.294 Y-22.699 I-112.073 J14.027
N10810 X91.55 Y-25.54 I-51.374 J11.935
N10815 X90.715 Y-28.356 I-337.288 J98.44
N10820 X89.793 Y-31.179 I-61.178 J18.412
N10825 X88.768 Y-33.967 I-103.438 J36.453
N10830 X87.609 Y-36.812 I-68.795 J26.359
N10835 G1 X86.552 Y-39.262
N10840 G2 X85.903 Y-40.635 I-20.665 J8.923
N10845 G3 X85.218 Y-41.991 I90.811 J-46.712
N10850 G2 X76.827 Y-55.906 I-88.404 J43.824
N10855 X66.201 Y-68.201 I-75.316 J54.351
N10860 X64.216 Y-70.045 I-43.062 J44.363
N10865 G3 X62.199 Y-71.852 I230.723 J-259.536
N10870 G2 X52.75 Y-79.063 I-48.259 J53.441
N10875 X42.468 Y-85.024 I-73.03 J114.126
N10880 X31.679 Y-89.619 I-34.45 J65.932
N10885 X20.422 Y-92.9 I-46.557 J138.768
N10890 X19.872 Y-92.47 I-0.107 J0.43
N10895 G1 X19.95 Y-59.909
N10900 G3 X13.946 Y-53.919 I-6.004 J-0.013
N10905 G1 X-13.946
N10910 G3 X-19.95 Y-59.909 I-0.013 J-5.991
N10915 G1 X-19.872 Y-92.47
N10920 G2 X-20.422 Y-92.9 I-0.443 J0.
N10925 X-23.018 Y-92.224 I28.992 J116.67
N10930 G3 X-25.608 Y-91.528 I-107.707 J-395.504
N10935 G2 X-36.757 Y-87.664 I20.393 J76.864
N10940 X-47.328 Y-82.422 I44.592 J103.203
N10945 G1 X-52.489 Y-79.238
N10950 G2 X-61.956 Y-72.111 I54.074 J81.678
N10955 X-70.424 Y-63.823 I55.895 J65.581
N10960 X-86.423 Y-39.389 I74.164 J66.017
N10965 X-94.373 Y-11.286 I85.108 J39.252
N10970 X-94.66 Y-8.412 I72.6 J8.698
N10975 X-94.881 Y-5.532 I456.69 J36.488
N10980 G1 X-95.046 Y0.527
N10985 G2 X-94.229 Y12.219 I91.431 J-0.509
N10990 X-92.033 Y23.733 I106.434 J-14.332
N10995 G1 X-90.324 Y29.582
N11000 G2 X-89.175 Y32.842 I87.388 J-28.964
N11005 X-87.977 Y33.706 I1.247 J-0.466
N11010 G3 X-86.77 Y34.558 I-0.05 J1.352
N11015 G2 X-27.024 Y89.471 I86.869 J-34.556
N11020 X-26.49 Y89.075 I0.12 J-0.396
N11025 G1 X-26.57 Y77.03
N11030 G3 X-18.949 Y69.41 I7.621 J0.
N11035 G1 X18.949
N11040 G3 X26.57 Y77.031 I0. J7.621
N11045 G1 X26.489 Y89.075
N11050 G2 X27.023 Y89.471 I0.414 J0.
N11055 X93.425 Y0.518 I-27.079 J-89.474
N11060 X92.739 Y-10.986 I-88.537 J-0.493
N11065 X90.716 Y-22.332 I-110.439 J13.842
N11070 X84.938 Y-38.904 I-82.591 J19.502
N11075 X72.766 Y-58.503 I-89.678 J42.116
N11080 X56.239 Y-74.602 I-71.783 J57.158
N11085 X36.256 Y-86.104 I-56.126 J74.397
N11090 X22.034 Y-90.83 I-37.646 J89.534
N11095 X21.492 Y-90.407 I-0.105 J0.423
N11100 G1 X21.57 Y-59.909
N11105 G3 X13.946 Y-52.299 I-7.624 J-0.014
N11110 G1 X-13.946
N11115 G3 X-21.57 Y-59.909 I-0.013 J-7.611
N11120 G1 X-21.492 Y-90.407
N11125 G2 X-22.034 Y-90.83 I-0.436 J0.
N11130 X-86.77 Y34.558 I22.132 J90.832
N11135 X-85.579 Y35.375 I1.205 J-0.48
N11140 G3 X-84.377 Y36.177 I-0.015 J1.323
N11145 G2 X-58.993 Y70.342 I84.3 J-36.124
N11150 X-39.93 Y82.665 I58.857 J-70.134
N11155 X-34.711 Y84.99 I40.003 J-82.806
N11160 G1 X-28.644 Y87.287
N11165 G2 X-28.11 Y86.891 I0.12 J-0.396
N11170 X-28.15 Y81.96 I-300.123 J-0.018
N11175 G3 X-28.19 Y77.03 I300.083 J-4.913
N11180 X-18.949 Y67.79 I9.241 J0.001
N11185 G1 X18.949
N11190 G3 X28.19 Y77.031 I0. J9.241
N11195 G1 X28.109 Y86.891
N11200 G2 X28.643 Y87.287 I0.414 J0.
N11205 X29.092 Y87.136 I-2.294 J-7.569
N11210 G3 X29.536 Y86.973 I31.591 J85.429
N11215 G2 X34.711 Y84.99 I-42.856 J-119.544
N11220 X39.93 Y82.665 I-35.255 J-86.189
N11225 X74.448 Y53.718 I-39.892 J-82.621
N11230 X91.804 Y0.509 I-74.45 J-53.721
N11235 X91.128 Y-10.806 I-86.966 J-0.484
N11240 X89.137 Y-21.965 I-108.806 J13.657
N11245 X83.471 Y-38.215 I-81.018 J19.138
N11250 X71.508 Y-57.482 I-88.206 J41.424
N11255 X55.263 Y-73.308 I-70.53 J56.144
N11260 X35.628 Y-84.61 I-55.151 J73.104
N11265 X30.27 Y-86.671 I-36.133 J85.968
N11270 G1 X23.653 Y-88.758
N11275 G2 X23.112 Y-88.335 I-0.105 J0.423
N11280 G1 X23.19 Y-59.909
N11285 G3 X13.946 Y-50.679 I-9.244 J-0.014
N11290 G1 X-13.946
N11295 G3 X-23.19 Y-59.909 I-0.013 J-9.231
N11300 G1 X-23.112 Y-88.335
N11305 G2 X-23.653 Y-88.758 I-0.436 J0.
N11310 X-24.248 Y-88.596 I3.178 J12.788
N11315 G1 X-25.016 Y-88.366
N11320 G2 X-33.115 Y-85.65 I36.712 J122.88
N11325 X-40.921 Y-82.177 I24.236 J64.99
N11330 X-55.396 Y-73.156 I51.128 J98.161
N11335 X-68.004 Y-61.668 I48.461 J65.848
N11340 X-83.468 Y-38.058 I71.739 J63.858
N11345 X-91.155 Y-10.9 I82.164 J37.922
N11350 X-91.434 Y-8.1 I70.686 J8.468
N11355 X-91.65 Y-5.294 I446.838 J35.689
N11360 X-91.784 Y-2.394 I53.521 J3.937
N11365 X-91.804 Y0.509 I116.578 J2.253
N11370 X-91.013 Y11.817 I88.26 J-0.492
N11375 X-88.888 Y22.953 I103.172 J-13.919
N11380 X-88.172 Y25.519 I44.441 J-11.019
N11385 G3 X-87.397 Y28.069 I-208.635 J64.825
N11390 G1 X-85.346 Y33.828
N11395 G2 X-84.377 Y36.177 I85.268 J-33.774
N11400 X-83.144 Y36.977 I1.213 J-0.52
N11405 G3 X-81.9 Y37.76 I0.021 J1.347
N11410 G2 X-57.951 Y69.099 I81.822 J-37.707
N11415 X-39.226 Y81.206 I57.816 J-68.892
N11420 X-34.098 Y83.489 I39.302 J-81.356
N11425 X-32.182 Y84.264 I105.567 J-258.37
N11430 X-30.254 Y85.009 I32.428 J-81.076
N11435 X-29.729 Y84.644 I0.136 J-0.365
N11440 G1 X-29.81 Y77.03
N11445 G3 X-18.949 Y66.17 I10.861 J0.001
N11450 G1 X18.949
N11455 G3 X29.81 Y77.031 I0. J10.861
N11460 G1 X29.729 Y84.644
N11465 G2 X30.254 Y85.009 I0.389 J0.
N11470 X32.182 Y84.264 I-30.524 J-81.895
N11475 X34.098 Y83.489 I-103.103 J-257.821
N11480 X39.226 Y81.206 I-34.637 J-84.679
N11485 X73.133 Y52.77 I-39.188 J-81.161
N11490 X90.183 Y0.5 I-73.136 J-52.773
N11495 X89.518 Y-10.626 I-85.394 J-0.476
N11500 X87.559 Y-21.599 I-107.173 J13.471
N11505 X82.005 Y-37.526 I-79.445 J18.773
N11510 X70.249 Y-56.46 I-86.735 J40.733
N11515 X54.287 Y-72.014 I-69.278 J55.13
N11520 X40.4 Y-80.564 I-52.104 J69.077
N11525 X25.264 Y-86.636 I-47.454 J96.39
N11530 X24.732 Y-86.245 I-0.123 J0.39
N11535 G1 X24.81 Y-59.909
N11540 G3 X13.946 Y-49.059 I-10.864 J-0.014
N11545 G1 X-13.946
N11550 G3 X-24.81 Y-59.909 I-0.013 J-10.851
N11555 G1 X-24.732 Y-86.245
N11560 G2 X-25.264 Y-86.636 I-0.409 J0.
N11565 X-32.847 Y-84.014 I44.083 J139.76
N11570 X-40.172 Y-80.74 I23.607 J62.661
N11575 X-54.4 Y-71.878 I50.399 J96.762
N11580 X-66.794 Y-60.591 I47.49 J64.592
N11585 X-81.991 Y-37.392 I70.526 J62.779
N11590 X-89.546 Y-10.707 I80.692 J37.257
N11595 X-89.821 Y-7.944 I69.73 J8.354
N11600 X-90.034 Y-5.175 I441.918 J35.29
N11605 X-90.165 Y-2.339 I51.818 J3.811
N11610 X-90.183 Y0.5 I116.567 J2.189
N11615 X-89.405 Y11.616 I86.676 J-0.483
N11620 X-87.315 Y22.563 I101.541 J-13.712
N11625 X-86.609 Y25.093 I43.538 J-10.795
N11630 G3 X-85.844 Y27.607 I-199.538 J62.08
N11635 G2 X-84.904 Y30.441 I45.754 J-13.607
N11640 X-83.839 Y33.23 I108.438 J-39.781
N11645 X-81.9 Y37.76 I83.762 J-33.177
N11650 X-80.645 Y38.527 I1.199 J-0.552
N11655 G3 X-79.38 Y39.276 I0.057 J1.347
N11660 G2 X-56.91 Y67.857 I79.303 J-39.222
N11665 X-38.521 Y79.746 I56.775 J-67.65
N11670 X-35.232 Y81.288 I69.874 J-144.783
N11675 X-31.874 Y82.676 I21.433 J-47.1
N11680 X-31.349 Y82.311 I0.136 J-0.365
N11685 X-31.39 Y79.671 I-86.112 J-0.005
N11690 G3 X-31.43 Y77.03 I86.071 J-2.636
N11695 X-18.949 Y64.55 I12.481 J0.001
N11700 G1 X18.949
N11705 G3 X31.43 Y77.031 I0. J12.481
N11710 X31.389 Y79.671 I-86.088 J0.
N11715 G2 X31.349 Y82.311 I86.048 J2.64
N11720 X31.874 Y82.676 I0.389 J0.
N11725 G1 X38.521 Y79.746
N11730 G2 X71.819 Y51.822 I-38.484 J-79.702
N11735 X88.563 Y0.491 I-71.821 J-51.825
N11740 X87.908 Y-10.446 I-83.824 J-0.467
N11745 X85.981 Y-21.232 I-105.541 J13.286
N11750 X80.538 Y-36.838 I-77.871 J18.409
N11755 X68.991 Y-55.439 I-85.264 J40.043
N11760 X53.311 Y-70.72 I-68.025 J54.116
N11765 X48.91 Y-73.832 I-52.852 J70.072
N11770 X46.702 Y-75.23 I-35.626 J53.813
N11775 G1 X44.314 Y-76.676
N11780 G2 X41.842 Y-78.077 I-25.865 J42.733
N11785 X39.308 Y-79.361 I-36.005 J67.927
N11790 X33.188 Y-82.119 I-53.879 J111.411
N11795 X26.884 Y-84.426 I-28.586 J68.336
N11800 X26.351 Y-84.036 I-0.123 J0.39
N11805 G1 X26.43 Y-59.909
N11810 G3 X13.946 Y-47.439 I-12.484 J-0.014
N11815 G1 X-13.946
N11820 G3 X-26.43 Y-59.909 I-0.013 J-12.471
N11825 G1 X-26.351 Y-84.036
N11830 G2 X-26.884 Y-84.426 I-0.409 J0.
N11835 X-87.936 Y-10.515 I26.982 J84.458
N11840 X-88.208 Y-7.788 I68.773 J8.239
N11845 X-88.418 Y-5.056 I437.002 J34.891
N11850 X-88.545 Y-2.284 I50.126 J3.687
N11855 X-88.563 Y0.491 I116.679 J2.125
N11860 X-87.797 Y11.416 I85.091 J-0.474
N11865 X-85.743 Y22.173 I99.911 J-13.506
N11870 X-85.045 Y24.667 I42.639 J-10.572
N11875 G3 X-84.291 Y27.145 I-190.809 J59.446
N11880 G2 X-83.372 Y29.911 I44.155 J-13.131
N11885 X-82.333 Y32.633 I108.801 J-40.002
N11890 X-79.38 Y39.276 I82.255 J-32.579
N11895 X-78.105 Y40.007 I1.183 J-0.585
N11900 G3 X-76.819 Y40.721 I0.094 J1.345
N11905 G2 X-55.869 Y66.615 I76.742 J-40.667
N11910 X-37.817 Y78.286 I55.734 J-66.408
N11915 X-33.485 Y80.304 I61.688 J-126.777
N11920 X-32.969 Y79.97 I0.149 J-0.335
N11925 X-33.01 Y78.5 I-26.694 J-0.002
N11930 G3 X-33.05 Y77.03 I26.653 J-1.468
N11935 X-18.949 Y62.93 I14.101 J0.001
N11940 G1 X18.949
N11945 G3 X33.05 Y77.031 I0. J14.101
N11950 X33.009 Y78.5 I-26.68 J0.
N11955 G2 X32.969 Y79.97 I26.64 J1.47
N11960 X33.485 Y80.304 I0.366 J0.
N11965 X37.817 Y78.286 I-71.298 J-158.729
N11970 X70.504 Y50.874 I-37.78 J-78.242
N11975 X86.942 Y0.481 I-70.507 J-50.876
N11980 X86.297 Y-10.266 I-82.253 J-0.458
N11985 X84.403 Y-20.865 I-103.91 J13.101
N11990 X79.071 Y-36.149 I-76.298 J18.045
N11995 X67.733 Y-54.418 I-83.792 J39.352
N12000 X52.335 Y-69.426 I-66.772 J53.102
N12005 X48.016 Y-72.481 I-51.875 J68.777
N12010 X45.834 Y-73.862 I-35.194 J53.16
N12015 G1 X43.475 Y-75.29
N12020 G2 X41.069 Y-76.654 I-25.008 J41.317
N12025 X38.603 Y-77.903 I-35.376 J66.801
N12030 G1 X31.216 Y-81.14
N12035 X30.118 Y-81.602
N12040 G2 X28.69 Y-82.151 I-9.581 J22.771
N12045 G1 X28.597 Y-82.185
N12050 X28.504 Y-82.217
N12055 G2 X27.971 Y-81.826 I-0.123 J0.39
N12060 G1 X28.05 Y-59.909
N12065 G3 X13.946 Y-45.819 I-14.104 J-0.014
N12070 G1 X-13.946
N12075 G3 X-28.05 Y-59.909 I-0.013 J-14.091
N12080 G1 X-27.971 Y-81.826
N12085 G2 X-28.504 Y-82.217 I-0.409 J0.
N12090 G1 X-28.597 Y-82.185
N12095 X-28.69 Y-82.151
N12100 G2 X-29.953 Y-81.646 I5.043 J14.424
N12105 G3 X-31.216 Y-81.14 I-6.306 J-13.919
N12110 G2 X-32.644 Y-80.591 I8.153 J23.32
N12115 G1 X-33.742 Y-80.129
N12120 G2 X-36.195 Y-79.043 I28.196 J67.013
N12125 X-38.619 Y-77.895 I80.946 J174.117
N12130 X-41.006 Y-76.667 I22.244 J46.15
N12135 X-43.353 Y-75.363 I114.186 J208.25
N12140 X-45.71 Y-73.963 I29.558 J52.491
N12145 X-48.016 Y-72.481 I54.952 J87.969
N12150 X-52.335 Y-69.426 I47.51 J71.767
N12155 X-56.576 Y-66.018 I52.292 J69.407
N12160 X-67.785 Y-54.416 I55.689 J65.015
N12165 X-76.689 Y-40.963 I70.841 J56.56
N12170 X-79.087 Y-36.117 I75.248 J40.26
N12175 X-86.327 Y-10.322 I79.247 J36.156
N12180 X-86.596 Y-7.632 I67.816 J8.125
N12185 X-86.802 Y-4.937 I432.091 J34.493
N12190 X-86.926 Y-2.229 I48.445 J3.563
N12195 X-86.942 Y0.481 I116.932 J2.059
N12200 X-86.189 Y11.215 I83.506 J-0.465
N12205 X-84.17 Y21.783 I98.28 J-13.299
N12210 X-83.482 Y24.241 I41.744 J-10.35
N12215 G3 X-82.738 Y26.684 I-182.433 J56.916
N12220 G2 X-81.841 Y29.381 I42.568 J-12.659
N12225 X-80.826 Y32.036 I109.345 J-40.295
N12230 X-76.819 Y40.721 I80.748 J-31.982
N12235 X-75.52 Y41.432 I1.188 J-0.63
N12240 G3 X-74.213 Y42.126 I0.113 J1.366
N12245 G2 X-73.546 Y43.274 I40.322 J-22.653
N12250 X-72.165 Y45.517 I99.853 J-59.928
N12255 X-62.42 Y58.167 I72.391 J-45.687
N12260 X-46.268 Y71.688 I62.444 J-58.189
N12265 X-40.804 Y74.964 I52.233 J-80.913
N12270 X-35.105 Y77.81 I35.119 J-63.218
N12275 X-34.589 Y77.475 I0.149 J-0.335
N12280 G1 X-34.596 Y77.252
N12285 X-34.603 Y77.03
N12290 G3 X-18.949 Y61.31 I15.654 J-0.066
N12295 G1 X18.949
N12300 G3 X34.603 Y77.031 I-0.067 J15.721
N12305 G1 X34.596 Y77.253
N12310 X34.589 Y77.475
N12315 G2 X35.105 Y77.81 I0.366 J0.
N12320 X36.115 Y77.331 I-9.634 J-21.633
N12325 G3 X37.117 Y76.837 I30.405 J60.43
N12330 G2 X69.19 Y49.925 I-37.155 J-76.847
N12335 X72.165 Y45.517 I-70.467 J-50.777
N12340 X78.249 Y33.849 I-67.469 J-42.597
N12345 X82.588 Y21.426 I-97.883 J-41.16
N12350 X82.855 Y20.32 I-14.492 J-4.074
N12355 G3 X83.092 Y19.207 I47.859 J9.625
N12360 G2 X85.156 Y4.605 I-88.55 J-19.966
N12365 X84.717 Y-10.137 I-82.897 J-4.906
N12370 X79.688 Y-30.488 I-84.402 J10.062
N12375 X78.611 Y-33.132 I-63.935 J24.497
N12380 G1 X77.628 Y-35.408
N12385 G2 X76.479 Y-37.855 I-39.59 J17.095
N12390 X75.229 Y-40.251 I-115.166 J58.543
N12395 X74.304 Y-41.891 I-37.425 J20.021
N12400 G3 X73.354 Y-43.517 I128.192 J-76.075
N12405 G2 X65.341 Y-54.937 I-68.084 J39.249
N12410 X55.488 Y-64.814 I-63.965 J53.955
N12415 X30.114 Y-79.875 I-56.937 J67.02
N12420 X29.591 Y-79.515 I-0.138 J0.36
N12425 G1 X29.67 Y-59.908
N12430 G3 X13.946 Y-44.199 I-15.724 J-0.014
N12435 G1 X-13.946
N12440 G3 X-29.67 Y-59.908 I-0.013 J-15.711
N12445 G1 X-29.591 Y-79.515
N12450 G2 X-30.114 Y-79.875 I-0.385 J0.
N12455 X-75.263 Y-40.192 I31.086 J80.893
N12460 X-77.613 Y-35.444 I73.949 J39.547
N12465 X-84.718 Y-10.129 I77.77 J35.483
N12470 X-84.983 Y-7.476 I66.86 J8.01
N12475 X-85.186 Y-4.818 I427.185 J34.095
N12480 X-85.306 Y-2.174 I46.775 J3.441
N12485 X-85.321 Y0.472 I117.349 J1.993
N12490 X-84.581 Y11.014 I81.922 J-0.456
N12495 X-82.597 Y21.393 I96.651 J-13.093
N12500 X-81.895 Y23.972 I57.217 J-14.187
N12505 X-81.094 Y26.523 I80.977 J-24.023
N12510 X-78.261 Y33.878 I78.606 J-26.053
N12515 X-74.837 Y40.977 I105.598 J-46.559
N12520 X-74.213 Y42.126 I40.947 J-21.504
N12525 X-72.888 Y42.793 I1.157 J-0.65
N12530 G3 X-71.553 Y43.437 I0.172 J1.35
N12535 G2 X-53.787 Y64.131 I71.493 J-43.404
N12540 X-45.527 Y70.195 I51.225 J-61.114
N12545 X-36.659 Y75.328 I62.269 J-97.359
N12550 X-36.092 Y75.028 I0.18 J-0.345
N12555 G3 X-30.438 Y64.098 I17.314 J2.029
N12560 X-18.949 Y59.69 I11.489 J12.769
N12565 G1 X18.949
N12570 G3 X30.438 Y64.098 I0. J17.177
N12575 X36.092 Y75.028 I-11.66 J12.959
N12580 G2 X36.659 Y75.328 I0.387 J-0.045
N12585 X40.958 Y72.997 I-78.535 J-149.958
N12590 X45.389 Y70.327 I-40.988 J-73.028
N12595 X47.535 Y68.886 I-39.594 J-61.334
N12600 X49.643 Y67.39 I-85.233 J-122.303
N12605 X59.497 Y58.914 I-45.18 J-62.491
N12610 X67.875 Y48.977 I-61.423 J-60.287
N12615 X70.795 Y44.652 I-69.141 J-49.822
N12620 X50.383 Y-66.838 I-70.832 J-44.645
N12625 X43.967 Y-71.177 I-45.171 J59.885
N12630 X37.216 Y-74.973 I-65.137 J107.944
N12635 G1 X31.734 Y-77.516
N12640 G2 X31.211 Y-77.157 I-0.138 J0.36
N12645 G1 X31.29 Y-59.908
N12650 G3 X13.946 Y-42.579 I-17.344 J-0.014
N12655 G1 X-13.946
N12660 G3 X-31.29 Y-59.908 I-0.013 J-17.331
N12665 G1 X-31.211 Y-77.157
N12670 G2 X-31.734 Y-77.516 I-0.385 J0.
N12675 G1 X-37.2 Y-74.982
N12680 G2 X-39.497 Y-73.79 I32.022 J64.554
N12685 X-41.763 Y-72.539 I74.957 J138.387
N12690 X-44.019 Y-71.198 I27.857 J49.471
N12695 X-46.226 Y-69.778 I54.163 J86.566
N12700 X-50.383 Y-66.838 I45.721 J69.065
N12705 X-54.467 Y-63.556 I50.359 J66.841
N12710 X-65.262 Y-52.38 I53.591 J62.566
N12715 X-73.838 Y-39.421 I68.307 J54.518
N12720 X-76.138 Y-34.771 I72.651 J38.835
N12725 X-83.569 Y-4.718 I76.122 J34.768
N12730 X-83.7 Y0.463 I83.706 J4.714
N12735 X-83.511 Y5.651 I82.748 J-0.423
N12740 X-82.991 Y10.873 I85.353 J-5.861
N12745 X-82.171 Y15.938 I82.082 J-10.696
N12750 X-71.553 Y43.437 I82.111 J-15.905
N12755 X-70.235 Y44.049 I1.116 J-0.677
N12760 G3 X-68.907 Y44.641 I0.207 J1.318
N12765 G2 X-37.913 Y72.848 I68.938 J-44.62
N12770 X-37.292 Y72.566 I0.2 J-0.384
N12775 G3 X-30.626 Y62.147 I18.554 J4.529
N12780 X-18.949 Y58.07 I11.677 J14.682
N12785 G1 X18.949
N12790 G3 X30.626 Y62.147 I0. J18.76
N12795 X37.292 Y72.566 I-11.888 J14.947
N12800 G2 X37.913 Y72.848 I0.421 J-0.103
N12805 X76.306 Y30.244 I-38.094 J-72.929
N12810 X78.028 Y25.474 I-76.057 J-30.163
N12815 X79.457 Y20.591 I-78.008 J-25.469
N12820 X49.407 Y-65.544 I-79.502 J-20.574
N12825 X41.634 Y-70.735 I-48.991 J64.95
N12830 X33.345 Y-75.054 I-46.519 J79.162
N12835 X32.831 Y-74.724 I-0.151 J0.33
N12840 G1 X32.91 Y-59.908
N12845 G3 X13.946 Y-40.959 I-18.964 J-0.015
N12850 G1 X-13.946
N12855 G3 X-32.91 Y-59.908 I-0.013 J-18.951
N12860 G1 X-32.831 Y-74.724
N12865 G2 X-33.345 Y-75.054 I-0.363 J0.
N12870 X-55.866 Y-60.062 I35.819 J78.217
N12875 X-72.41 Y-38.654 I54.991 J59.595
N12880 X-68.907 Y44.641 I72.441 J38.675
N12885 X-67.532 Y45.232 I1.128 J-0.73
N12890 G3 X-66.147 Y45.8 I0.254 J1.351
N12895 G2 X-58.862 Y54.854 I66.233 J-45.841
N12900 X-43.631 Y67.603 I58.886 J-54.876
N12905 G1 X-41.859 Y68.747
N12910 G2 X-39.404 Y70.226 I25.122 J-38.917
N12915 G3 X-39.181 Y70.354 I-7.805 J13.91
N12920 G2 X-38.957 Y70.477 I2.74 J-4.705
N12925 X-38.278 Y70.21 I0.223 J-0.428
N12930 G3 X-30.8 Y60.259 I19.578 J6.927
N12935 X-18.949 Y56.45 I11.851 J16.531
N12940 G1 X18.949
N12945 G3 X30.8 Y60.259 I0. J20.34
N12950 X38.278 Y70.21 I-12.1 J16.878
N12955 G2 X38.957 Y70.477 I0.455 J-0.161
N12960 X39.181 Y70.354 I-2.516 J-4.829
N12965 G3 X39.403 Y70.226 I8.027 J13.782
N12970 G2 X41.859 Y68.747 I-22.667 J-40.396
N12975 G1 X43.631 Y67.603
N12980 G2 X58.862 Y54.854 I-43.507 J-67.449
N12985 X74.799 Y29.646 I-58.889 J-54.875
N12990 X76.488 Y24.971 I-74.553 J-29.567
N12995 X77.888 Y20.185 I-76.467 J-24.966
N13000 X48.431 Y-64.25 I-77.933 J-20.168
N13005 X44.437 Y-67.075 I-47.97 J63.599
N13010 X40.153 Y-69.725 I-44.505 J67.142
N13015 X37.987 Y-70.959 I-120.272 J208.697
N13020 X35.782 Y-72.125 I-23.528 J41.821
N13025 G3 X35.375 Y-72.331 I12.695 J-25.591
N13030 G2 X34.964 Y-72.531 I-4.454 J8.629
N13035 X34.45 Y-72.201 I-0.151 J0.33
N13040 X34.49 Y-66.054 I466.427 J0.047
N13045 G3 X34.53 Y-59.908 I-466.387 J6.099
N13050 X13.946 Y-39.339 I-20.584 J-0.015
N13055 G1 X-13.946
N13060 G3 X-34.53 Y-59.908 I-0.013 J-20.571
N13065 G1 X-34.45 Y-72.201
N13070 G2 X-34.964 Y-72.531 I-0.363 J0.
N13075 X-35.375 Y-72.331 I4.043 J8.829
N13080 G3 X-35.782 Y-72.125 I-13.102 J-25.385
N13085 G2 X-37.987 Y-70.959 I21.323 J42.985
N13090 X-40.153 Y-69.725 I118.115 J209.949
N13095 X-44.437 Y-67.075 I40.994 J71.042
N13100 X-48.431 Y-64.25 I43.933 J66.364
N13105 X-52.358 Y-61.094 I48.426 J64.276
N13110 X-80.333 Y-4.535 I52.352 J61.091
N13115 X-80.459 Y0.445 I80.464 J4.532
N13120 X-80.277 Y5.431 I79.53 J-0.407
N13125 X-79.777 Y10.453 I82.082 J-5.636
N13130 X-66.147 Y45.8 I79.863 J-10.493
N13135 X-64.774 Y46.339 I1.087 J-0.752
N13140 G3 X-63.392 Y46.854 I0.294 J1.323
N13145 G2 X-56.466 Y54.953 I62.263 J-46.234
N13150 X-39.798 Y68.116 I60.248 J-59.156
N13155 X-39.09 Y67.896 I0.256 J-0.426
N13160 G3 X-30.941 Y58.401 I20.427 J9.288
N13165 X-18.949 Y54.83 I11.992 J18.344
N13170 G1 X18.949
N13175 G3 X30.941 Y58.401 I0. J21.916
N13180 X39.09 Y67.896 I-12.278 J18.783
N13185 G2 X39.798 Y68.116 I0.452 J-0.206
N13190 X41.284 Y67.189 I-29.258 J-48.552
N13195 G1 X42.752 Y66.241
N13200 G2 X77.41 Y14.937 I-42.782 J-66.259
N13205 X78.17 Y10.243 I-76.124 J-14.739
N13210 X78.66 Y5.321 I-78.164 J-10.267
N13215 X78.838 Y0.436 I-78.894 J-5.326
N13220 X78.715 Y-4.439 I-77.793 J-0.467
N13225 X78.279 Y-9.369 I-80.567 J4.628
N13230 X77.561 Y-14.144 I-77.362 J9.202
N13235 X76.535 Y-18.922 I-77.574 J14.147
N13240 X75.216 Y-23.627 I-76.523 J18.918
N13245 X60.434 Y-50.552 I-74.584 J23.428
N13250 X36.575 Y-69.896 I-62.298 J52.454
N13255 X36.07 Y-69.593 I-0.162 J0.302
N13260 G1 X36.15 Y-59.908
N13265 G3 X13.946 Y-37.719 I-22.204 J-0.015
N13270 G1 X-13.946
N13275 G3 X-36.15 Y-59.908 I-0.013 J-22.191
N13280 G1 X-36.07 Y-69.593
N13285 G2 X-36.575 Y-69.896 I-0.343 J0.
N13290 G1 X-43.542 Y-65.723
N13295 G2 X-47.455 Y-62.956 I43.038 J65.013
N13300 X-51.304 Y-59.863 I47.459 J62.993
N13305 X-73.293 Y29.049 I51.289 J59.859
N13310 X-71.345 Y33.55 I73.33 J-29.056
N13315 X-69.13 Y37.904 I71.331 J-33.542
N13320 X-63.392 Y46.854 I68. J-37.285
N13325 X-62.014 Y47.345 I1.056 J-0.784
N13330 G3 X-60.629 Y47.816 I0.33 J1.303
N13335 G2 X-56.49 Y52.645 I60.715 J-47.856
N13340 X-53.158 Y56.009 I55.909 J-52.033
N13345 X-49.622 Y59.162 I53.123 J-56.006
N13350 X-47.755 Y60.661 I36.117 J-43.089
N13355 G3 X-45.859 Y62.125 I-291.72 J379.777
N13360 G1 X-40.503 Y65.8
N13365 G2 X-39.747 Y65.597 I0.28 J-0.465
N13370 G3 X-31.041 Y56.561 I21.123 J11.641
N13375 X-18.949 Y53.21 I12.092 J20.135
N13380 G1 X18.949
N13385 G3 X31.041 Y56.561 I0. J23.487
N13390 X39.747 Y65.597 I-12.417 J20.677
N13395 G2 X40.503 Y65.8 I0.476 J-0.262
N13400 G1 X45.825 Y62.152
N13405 G2 X49.553 Y59.22 I-45.782 J-62.065
N13410 X53.161 Y56.006 I-49.619 J-59.322
N13415 X56.49 Y52.645 I-53.074 J-55.886
N13420 X46.479 Y-61.662 I-56.524 J-52.642
N13425 X42.648 Y-64.372 I-46.017 J61.01
N13430 G1 X40.795 Y-65.598
N13435 G2 X38.569 Y-66.975 I-23.32 J35.225
N13440 G1 X38.382 Y-67.084
N13445 X38.194 Y-67.191
N13450 G2 X37.69 Y-66.889 I-0.162 J0.302
N13455 X37.73 Y-63.398 I150.439 J0.015
N13460 G3 X37.77 Y-59.908 I-150.399 J3.475
N13465 X13.946 Y-36.099 I-23.824 J-0.015
N13470 G1 X-13.946
N13475 G3 X-37.77 Y-59.908 I-0.013 J-23.811
N13480 G1 X-37.69 Y-66.889
N13485 G2 X-38.194 Y-67.191 I-0.343 J0.
N13490 G1 X-38.382 Y-67.084
N13495 X-38.569 Y-66.975
N13500 G2 X-40.795 Y-65.598 I21.094 J36.603
N13505 G1 X-42.648 Y-64.372
N13510 G2 X-46.479 Y-61.662 I42.144 J63.662
N13515 X-50.249 Y-58.632 I46.493 J61.71
N13520 X-77.096 Y-4.353 I50.243 J58.629
N13525 X-77.217 Y0.427 I77.222 J4.349
N13530 X-77.043 Y5.212 I76.312 J-0.39
N13535 X-76.563 Y10.033 I78.811 J-5.412
N13540 X-60.629 Y47.816 I76.648 J-10.073
N13545 X-59.225 Y48.267 I1.037 J-0.818
N13550 G3 X-57.813 Y48.693 I0.377 J1.304
N13555 G2 X-52.038 Y54.747 I54.82 J-46.515
N13560 X-41.12 Y63.529 I65.258 J-69.949
N13565 X-40.302 Y63.365 I0.33 J-0.478
N13570 G3 X-31.13 Y54.75 I21.716 J13.931
N13575 X-18.949 Y51.59 I12.181 J21.894
N13580 G1 X18.949
N13585 G3 X31.13 Y54.75 I0. J25.054
N13590 X40.302 Y63.365 I-12.543 J22.546
N13595 G2 X41.12 Y63.529 I0.488 J-0.313
N13600 X44.863 Y60.847 I-97.481 J-140.004
N13605 X48.513 Y57.978 I-44.814 J-60.753
N13610 X52.045 Y54.83 I-48.587 J-58.089
N13615 X55.304 Y51.54 I-51.948 J-54.701
N13620 X58.424 Y47.976 I-54.908 J-51.221
N13625 X39.804 Y-64.321 I-58.397 J-48.009
N13630 X39.309 Y-64.046 I-0.171 J0.276
N13635 X39.35 Y-61.977 I52.878 J0.005
N13640 G3 X39.39 Y-59.907 I-52.838 J2.064
N13645 X13.946 Y-34.479 I-25.444 J-0.015
N13650 G1 X-13.946
N13655 G3 X-39.39 Y-59.907 I-0.013 J-25.431
N13660 X-39.35 Y-61.977 I52.878 J-0.005
N13665 G2 X-39.309 Y-64.046 I-52.838 J-2.064
N13670 X-39.804 Y-64.321 I-0.324 J0.
N13675 X-70.279 Y27.854 I39.84 J64.298
N13680 X-68.411 Y32.171 I70.326 J-27.866
N13685 X-66.288 Y36.346 I68.393 J-32.16
N13690 X-63.943 Y40.325 I66.122 J-36.287
N13695 X-61.302 Y44.236 I64.171 J-40.471
N13700 X-57.813 Y48.693 I58.309 J-42.059
N13705 X-56.361 Y49.108 I1.037 J-0.88
N13710 G3 X-54.903 Y49.504 I0.424 J1.323
N13715 G2 X-41.544 Y61.268 I56.343 J-50.513
N13720 X-40.734 Y61.131 I0.335 J-0.485
N13725 G3 X-31.177 Y52.945 I22.187 J16.231
N13730 X-18.949 Y49.97 I12.228 J23.64
N13735 G1 X18.949
N13740 G3 X31.177 Y52.945 I0. J26.615
N13745 X40.734 Y61.131 I-12.629 J24.417
N13750 G2 X41.544 Y61.268 I0.475 J-0.348
N13755 X61.731 Y40.696 I-43.181 J-62.563
N13760 X72.636 Y14.015 I-61.309 J-40.626
N13765 X73.349 Y9.613 I-71.388 J-13.821
N13770 X73.809 Y4.992 I-73.396 J-9.641
N13775 X73.976 Y0.409 I-74.007 J-4.996
N13780 X73.86 Y-4.164 I-72.965 J-0.438
N13785 X73.451 Y-8.793 I-75.658 J4.346
N13790 X72.777 Y-13.272 I-72.559 J8.631
N13795 X71.815 Y-17.755 I-72.79 J13.274
N13800 X68.378 Y-28.095 I-67.413 J16.666
N13805 X63.529 Y-37.853 I-81.326 J34.33
N13810 X53.748 Y-50.814 I-57.079 J32.906
N13815 X41.414 Y-61.375 I-63.011 J61.104
N13820 X40.929 Y-61.124 I-0.178 J0.251
N13825 X40.948 Y-60.516 I9.743 J0.001
N13830 G3 X40.967 Y-59.907 I-9.724 J0.607
N13835 X13.946 Y-32.859 I-27.021 J0.028
N13840 G1 X-13.946
N13845 G3 X-40.967 Y-59.907 I0.03 J-27.051
N13850 X-40.948 Y-60.516 I9.743 J-0.001
N13855 G2 X-40.929 Y-61.124 I-9.724 J-0.607
N13860 X-41.414 Y-61.375 I-0.308 J0.
N13865 X-43.41 Y-59.917 I46.426 J65.653
N13870 G1 X-44.527 Y-59.074
N13875 G2 X-73.86 Y-4.17 I44.518 J59.071
N13880 X-73.976 Y0.409 I73.981 J4.167
N13885 X-65.216 Y34.812 I73.539 J-0.41
N13890 X-54.903 Y49.504 I66.656 J-35.821
N13895 X-53.519 Y49.854 I0.952 J-0.854
N13900 G3 X-52.129 Y50.179 I0.444 J1.236
N13905 G2 X-49.811 Y52.482 I51.565 J-49.585
N13910 X-46.499 Y55.436 I49.76 J-52.46
N13915 X-44.251 Y57.292 I126.734 J-151.2
N13920 X-41.919 Y59.041 I23.38 J-28.746
N13925 X-41.071 Y58.922 I0.359 J-0.52
N13930 G3 X-31.197 Y51.152 I22.564 J18.513
N13935 X-18.949 Y48.35 I12.248 J25.368
N13940 G1 X18.949
N13945 G3 X31.197 Y51.152 I0. J28.17
N13950 X41.071 Y58.922 I-12.69 J26.283
N13955 G2 X41.919 Y59.041 I0.489 J-0.401
N13960 X44.217 Y57.319 I-20.924 J-30.315
N13965 X46.432 Y55.492 I-121.08 J-149.086
N13970 X49.814 Y52.479 I-46.524 J-55.622
N13975 X71.044 Y13.708 I-49.858 J-52.499
N13980 X71.741 Y9.403 I-69.809 J-13.516
N13985 X72.192 Y4.882 I-71.807 J-9.432
N13990 X72.355 Y0.4 I-72.378 J-4.886
N13995 X59.142 Y-41.684 I-72.301 J-0.417
N14000 X56.43 Y-45.288 I-59.353 J41.837
N14005 X53.515 Y-48.699 I-56.299 J45.165
N14010 X50.397 Y-51.919 I-53.617 J48.805
N14015 X47.087 Y-54.939 I-49.87 J51.337
N14020 X45.359 Y-56.41 I-243.364 J284.118
N14025 X43.586 Y-57.827 I-26.185 J30.948
N14030 G3 X43.293 Y-58.051 I13.501 J-17.9
N14035 G2 X42.997 Y-58.271 I-4.811 J6.164
N14040 X42.487 Y-58.028 I-0.187 J0.265
N14045 G3 X13.946 Y-31.239 I-28.541 J-1.809
N14050 G1 X-13.946
N14055 G3 X-42.487 Y-58.028 I0.077 J-28.68
N14060 G2 X-42.997 Y-58.271 I-0.323 J0.021
N14065 X-43.293 Y-58.051 I4.514 J6.384
N14070 G3 X-43.586 Y-57.827 I-13.794 J-17.675
N14075 G2 X-72.242 Y-4.079 I43.74 J57.833
N14080 X-72.355 Y0.4 I72.36 J4.075
N14085 X-72.192 Y4.882 I71.485 J-0.366
N14090 X-71.741 Y9.403 I73.905 J-5.075
N14095 X-71.033 Y13.778 I70.891 J-9.237
N14100 X-70.043 Y18.152 I71.01 J-13.772
N14105 X-68.784 Y22.456 I70.049 J-18.154
N14110 X-67.266 Y26.659 I68.766 J-22.458
N14115 X-65.478 Y30.792 I67.322 J-26.676
N14120 X-63.445 Y34.788 I65.454 J-30.779
N14125 X-61.202 Y38.595 I63.263 J-34.718
N14130 X-58.673 Y42.34 I61.45 J-38.756
N14135 X-55.921 Y45.917 I58.022 J-41.812
N14140 X-52.931 Y49.331 I57.091 J-46.967
N14145 X-52.129 Y50.179 I52.367 J-48.737
N14150 X-50.63 Y50.502 I0.989 J-0.951
N14155 G3 X-49.126 Y50.8 I0.523 J1.306
N14160 G2 X-42.227 Y56.84 I61.212 J-62.952
N14165 X-41.35 Y56.767 I0.399 J-0.507
N14170 G3 X-31.212 Y49.377 I22.883 J20.747
N14175 X-18.949 Y46.73 I12.263 J27.073
N14180 G1 X18.949
N14185 G3 X31.212 Y49.377 I0. J29.721
N14190 X41.35 Y56.767 I-12.744 J28.136
N14195 G2 X42.227 Y56.84 I0.478 J-0.433
N14200 G1 X48.699 Y51.303
N14205 G2 X44.305 Y-55.2 I-48.733 J-51.332
N14210 X43.766 Y-54.994 I-0.21 J0.261
N14215 G3 X13.946 Y-29.619 I-29.82 J-4.834
N14220 G1 X-13.946
N14225 G3 X-43.766 Y-54.994 I0.09 J-30.315
N14230 G2 X-44.305 Y-55.2 I-0.33 J0.055
N14235 X-70.623 Y-3.987 I44.437 J55.205
N14240 X-70.734 Y0.391 I70.739 J3.984
N14245 X-70.575 Y4.772 I69.876 J-0.357
N14250 X-70.134 Y9.193 I72.269 J-4.963
N14255 X-69.442 Y13.469 I69.292 J-9.029
N14260 X-68.474 Y17.745 I69.419 J-13.464
N14265 X-67.243 Y21.953 I68.48 J-17.748
N14270 X-65.759 Y26.062 I67.223 J-21.954
N14275 X-64.011 Y30.102 I65.82 J-26.081
